;FLAVOR:Marlin
;TIME:3706
;Filament used: 2.98819m
;Layer height: 0.2
;MINX:81.14
;MINY:79.5
;MINZ:0.2
;MAXX:153.86
;MAXY:155.5
;MAXZ:5.2
;Generated with Cura_SteamEngine 4.6.1
M140 S60
M105
M190 S60
M104 S200
M105
M109 S200
M82 ;absolute extrusion mode
M201 X500.00 Y500.00 Z100.00 E5000.00 ;Setup machine max acceleration
M203 X500.00 Y500.00 Z10.00 E50.00 ;Setup machine max feedrate
M204 P500.00 R1000.00 T500.00 ;Setup Print/Retract/Travel acceleration
M205 X8.00 Y8.00 Z0.40 E5.00 ;Setup Jerk
M220 S100 ;Reset Feedrate
M221 S100 ;Reset Flowrate

G28 ;Home

G92 E0 ;Reset Extruder
G1 Z2.0 F3000 ;Move Z Axis up
G1 X10.1 Y20 Z0.28 F5000.0 ;Move to start position
G1 X10.1 Y200.0 Z0.28 F1500.0 E15 ;Draw the first line
G1 X10.4 Y200.0 Z0.28 F5000.0 ;Move to side a little
G1 X10.4 Y20 Z0.28 F1500.0 E30 ;Draw the second line
G92 E0 ;Reset Extruder
G1 Z2.0 F3000 ;Move Z Axis up
G92 E0
G92 E0
G1 F1500 E-6.25
;LAYER_COUNT:26
;LAYER:0
M107
G0 F6000 X142.597 Y80.711 Z0.2
;TYPE:SKIRT
G1 F1500 E0
G1 F1200 X143.499 Y80.764 E0.03005
G1 X144.392 Y80.896 E0.06008
G1 X145.27 Y81.107 E0.09011
G1 X146.126 Y81.395 E0.12015
G1 X146.953 Y81.757 E0.15018
G1 X147.745 Y82.192 E0.18023
G1 X148.496 Y82.694 E0.21027
G1 X149.199 Y83.261 E0.24031
G1 X149.849 Y83.888 E0.27035
G1 X150.441 Y84.57 E0.30039
G1 X150.971 Y85.301 E0.33042
G1 X151.433 Y86.077 E0.36046
G1 X151.826 Y86.89 E0.39049
G1 X152.144 Y87.735 E0.42052
G1 X152.387 Y88.605 E0.45056
G1 X152.552 Y89.493 E0.4806
G1 X152.647 Y90.623 E0.51832
G1 X152.66 Y91.23 E0.53851
G1 X152.659 Y143.49 E2.27669
G1 X152.65 Y144.217 E2.30087
G1 X152.599 Y145.119 E2.33092
G1 X152.468 Y146.013 E2.36097
G1 X152.259 Y146.891 E2.39099
G1 X151.973 Y147.748 E2.42104
G1 X151.612 Y148.576 E2.45108
G1 X151.18 Y149.368 E2.48109
G1 X150.679 Y150.12 E2.51114
G1 X150.113 Y150.824 E2.54119
G1 X149.488 Y151.475 E2.5712
G1 X148.807 Y152.069 E2.60126
G1 X148.076 Y152.6 E2.63131
G1 X147.302 Y153.064 E2.66132
G1 X146.489 Y153.458 E2.69137
G1 X145.645 Y153.778 E2.72139
G1 X144.775 Y154.023 E2.75146
G1 X143.888 Y154.189 E2.78147
G1 X142.737 Y154.287 E2.81989
G1 X142.13 Y154.3 E2.84008
G1 X93.115 Y154.299 E4.47033
G1 X92.417 Y154.29 E4.49355
G1 X91.516 Y154.239 E4.52356
G1 X90.622 Y154.107 E4.55362
G1 X89.744 Y153.898 E4.58364
G1 X88.887 Y153.611 E4.6137
G1 X88.06 Y153.25 E4.64371
G1 X87.267 Y152.817 E4.67376
G1 X86.516 Y152.316 E4.70379
G1 X85.812 Y151.75 E4.73383
G1 X85.161 Y151.124 E4.76387
G1 X84.568 Y150.443 E4.7939
G1 X84.038 Y149.712 E4.82394
G1 X83.574 Y148.937 E4.85398
G1 X83.18 Y148.124 E4.88403
G1 X82.86 Y147.28 E4.91405
G1 X82.616 Y146.41 E4.9441
G1 X82.45 Y145.522 E4.97415
G1 X82.353 Y144.367 E5.0127
G1 X82.34 Y143.758 E5.03296
G1 X82.341 Y91.436 E6.7732
G1 X82.35 Y90.771 E6.79532
G1 X82.402 Y89.869 E6.82537
G1 X82.534 Y88.976 E6.85539
G1 X82.744 Y88.098 E6.88542
G1 X83.031 Y87.241 E6.91548
G1 X83.393 Y86.414 E6.9455
G1 X83.826 Y85.622 E6.97552
G1 X84.328 Y84.871 E7.00557
G1 X84.895 Y84.167 E7.03563
G1 X85.521 Y83.517 E7.06565
G1 X86.202 Y82.924 E7.09568
G1 X86.934 Y82.394 E7.12574
G1 X87.709 Y81.931 E7.15577
G1 X88.522 Y81.538 E7.1858
G1 X89.367 Y81.218 E7.21585
G1 X90.236 Y80.975 E7.24587
G1 X91.124 Y80.809 E7.27591
G1 X92.263 Y80.713 E7.31393
G1 X92.87 Y80.7 E7.33412
G1 X141.899 Y80.701 E8.96483
G1 X142.597 Y80.711 E8.98805
G0 F6000 X142.603 Y80.311
G1 F1200 X143.522 Y80.364 E9.01867
G1 X144.433 Y80.497 E9.04929
G1 X145.329 Y80.708 E9.07991
G1 X146.203 Y80.996 E9.11051
G1 X147.05 Y81.359 E9.14116
G1 X147.861 Y81.794 E9.17177
G1 X148.631 Y82.298 E9.20238
G1 X149.355 Y82.867 E9.23301
G1 X150.027 Y83.497 E9.26365
G1 X150.642 Y84.182 E9.29426
G1 X151.195 Y84.918 E9.32488
G1 X151.682 Y85.699 E9.3555
G1 X152.099 Y86.52 E9.38612
G1 X152.444 Y87.374 E9.41676
G1 X152.713 Y88.254 E9.44736
G1 X152.905 Y89.155 E9.478
G1 X153.018 Y90.068 E9.5086
G1 X153.047 Y90.612 E9.52672
G1 X153.06 Y91.23 E9.54728
G1 X153.059 Y143.495 E11.28562
G1 X153.05 Y144.222 E11.3098
G1 X152.999 Y145.141 E11.34042
G1 X152.868 Y146.053 E11.37106
G1 X152.658 Y146.949 E11.40167
G1 X152.372 Y147.824 E11.43229
G1 X152.011 Y148.671 E11.46291
G1 X151.577 Y149.483 E11.49353
G1 X151.075 Y150.255 E11.52416
G1 X150.507 Y150.98 E11.55479
G1 X149.879 Y151.653 E11.58541
G1 X149.195 Y152.269 E11.61603
G1 X148.46 Y152.823 E11.64664
G1 X147.68 Y153.312 E11.67726
G1 X146.86 Y153.731 E11.70789
G1 X146.007 Y154.077 E11.7385
G1 X145.127 Y154.348 E11.76913
G1 X144.227 Y154.541 E11.79974
G1 X143.313 Y154.656 E11.83038
G1 X142.748 Y154.687 E11.8492
G1 X142.13 Y154.7 E11.86976
G1 X93.11 Y154.699 E13.50017
G1 X92.412 Y154.69 E13.52339
G1 X91.493 Y154.638 E13.554
G1 X90.582 Y154.507 E13.58462
G1 X89.686 Y154.297 E13.61522
G1 X88.811 Y154.01 E13.64585
G1 X87.964 Y153.648 E13.67649
G1 X87.152 Y153.214 E13.70711
G1 X86.381 Y152.712 E13.73771
G1 X85.656 Y152.144 E13.76834
G1 X84.983 Y151.515 E13.79898
G1 X84.368 Y150.831 E13.82958
G1 X83.814 Y150.096 E13.86019
G1 X83.326 Y149.315 E13.89082
G1 X82.907 Y148.495 E13.92145
G1 X82.561 Y147.642 E13.95206
G1 X82.291 Y146.762 E13.98268
G1 X82.098 Y145.861 E14.01333
G1 X81.984 Y144.948 E14.04393
G1 X81.953 Y144.377 E14.06295
G1 X81.94 Y143.758 E14.08354
G1 X81.941 Y91.431 E15.82394
G1 X81.95 Y90.766 E15.84606
G1 X82.002 Y89.846 E15.87671
G1 X82.134 Y88.935 E15.90733
G1 X82.345 Y88.039 E15.93794
G1 X82.632 Y87.164 E15.96857
G1 X82.995 Y86.318 E15.99919
G1 X83.429 Y85.506 E16.02981
G1 X83.932 Y84.735 E16.06043
G1 X84.501 Y84.011 E16.09106
G1 X85.129 Y83.339 E16.12165
G1 X85.814 Y82.723 E16.15229
G1 X86.55 Y82.17 E16.18291
G1 X87.331 Y81.682 E16.21354
G1 X88.151 Y81.264 E16.24415
G1 X89.005 Y80.919 E16.27479
G1 X89.885 Y80.649 E16.3054
G1 X90.785 Y80.457 E16.33601
G1 X91.699 Y80.343 E16.36665
G1 X92.252 Y80.313 E16.38507
G1 X92.87 Y80.3 E16.40563
G1 X141.905 Y80.301 E18.03654
G1 X142.603 Y80.311 E18.05975
G0 F6000 X142.609 Y79.911
G1 F1200 X143.545 Y79.965 E18.09094
G1 X144.473 Y80.097 E18.12211
G1 X145.387 Y80.309 E18.15332
G1 X146.279 Y80.598 E18.18451
G1 X147.144 Y80.961 E18.21571
G1 X147.974 Y81.397 E18.24689
G1 X148.765 Y81.902 E18.2781
G1 X149.509 Y82.473 E18.3093
G1 X150.202 Y83.105 E18.34049
G1 X150.839 Y83.793 E18.37168
G1 X151.414 Y84.534 E18.40287
G1 X151.925 Y85.32 E18.43405
G1 X152.367 Y86.148 E18.46527
G1 X152.736 Y87.01 E18.49646
G1 X153.031 Y87.9 E18.52764
G1 X153.249 Y88.812 E18.55883
G1 X153.389 Y89.74 E18.59005
G1 X153.447 Y90.601 E18.61875
G1 X153.46 Y91.23 E18.63967
G1 X153.459 Y143.5 E20.37818
G1 X153.45 Y144.227 E20.40236
G1 X153.399 Y145.164 E20.43357
G1 X153.267 Y146.092 E20.46475
G1 X153.058 Y147.006 E20.49593
G1 X152.771 Y147.899 E20.52713
G1 X152.409 Y148.765 E20.55835
G1 X151.975 Y149.596 E20.58953
G1 X151.471 Y150.387 E20.62073
G1 X150.902 Y151.132 E20.65191
G1 X150.271 Y151.827 E20.68313
G1 X149.584 Y152.465 E20.71431
G1 X148.845 Y153.042 E20.7455
G1 X148.059 Y153.554 E20.77669
G1 X147.233 Y153.997 E20.80787
G1 X146.371 Y154.369 E20.8391
G1 X145.482 Y154.665 E20.87026
G1 X144.57 Y154.885 E20.90146
G1 X143.643 Y155.026 E20.93265
G1 X142.759 Y155.087 E20.96212
G1 X142.13 Y155.1 E20.98305
G1 X93.105 Y155.099 E22.61362
G1 X92.407 Y155.09 E22.63684
G1 X91.471 Y155.038 E22.66802
G1 X90.542 Y154.906 E22.69923
G1 X89.628 Y154.696 E22.73042
G1 X88.735 Y154.409 E22.76162
G1 X87.87 Y154.046 E22.79282
G1 X87.039 Y153.612 E22.824
G1 X86.248 Y153.108 E22.8552
G1 X85.503 Y152.538 E22.8864
G1 X84.809 Y151.907 E22.91759
G1 X84.172 Y151.22 E22.94876
G1 X83.595 Y150.48 E22.97997
G1 X83.083 Y149.694 E23.01117
G1 X82.64 Y148.867 E23.04237
G1 X82.269 Y148.006 E23.07355
G1 X81.973 Y147.116 E23.10475
G1 X81.754 Y146.204 E23.13594
G1 X81.613 Y145.277 E23.16713
G1 X81.553 Y144.388 E23.19676
G1 X81.54 Y143.758 E23.21772
G1 X81.541 Y91.425 E24.95833
G1 X81.55 Y90.76 E24.98045
G1 X81.603 Y89.824 E25.01163
G1 X81.735 Y88.895 E25.04284
G1 X81.946 Y87.981 E25.07404
G1 X82.234 Y87.089 E25.10521
G1 X82.597 Y86.224 E25.13641
G1 X83.032 Y85.393 E25.16761
G1 X83.536 Y84.603 E25.19878
G1 X84.106 Y83.858 E25.22998
G1 X84.738 Y83.164 E25.2612
G1 X85.426 Y82.527 E25.29238
G1 X86.166 Y81.951 E25.32357
G1 X86.952 Y81.439 E25.35477
G1 X87.779 Y80.997 E25.38596
G1 X88.641 Y80.627 E25.41716
G1 X89.531 Y80.331 E25.44835
G1 X90.443 Y80.113 E25.47954
G1 X91.37 Y79.972 E25.51073
G1 X92.241 Y79.913 E25.53976
G1 X92.87 Y79.9 E25.56069
G1 X141.911 Y79.901 E27.1918
G1 X142.609 Y79.911 E27.21502
G0 F6000 X142.614 Y79.511
G1 F1200 X143.568 Y79.565 E27.2468
G1 X144.513 Y79.698 E27.27854
G1 X145.444 Y79.91 E27.3103
G1 X146.354 Y80.199 E27.34205
G1 X147.237 Y80.563 E27.37382
G1 X148.086 Y81 E27.40558
G1 X148.895 Y81.506 E27.43732
G1 X149.659 Y82.078 E27.46906
G1 X150.373 Y82.712 E27.50082
G1 X151.031 Y83.404 E27.53258
G1 X151.629 Y84.148 E27.56433
G1 X152.163 Y84.94 E27.5961
G1 X152.628 Y85.774 E27.62786
G1 X153.023 Y86.643 E27.6596
G1 X153.342 Y87.543 E27.69136
G1 X153.586 Y88.466 E27.72312
G1 X153.751 Y89.407 E27.75489
G1 X153.846 Y90.59 E27.79437
G1 X153.86 Y91.23 E27.81566
G1 X153.859 Y143.505 E29.55433
G1 X153.85 Y144.232 E29.57851
G1 X153.798 Y145.185 E29.61026
G1 X153.667 Y146.131 E29.64202
G1 X153.457 Y147.063 E29.6738
G1 X153.17 Y147.973 E29.70553
G1 X152.807 Y148.856 E29.73729
G1 X152.372 Y149.706 E29.76904
G1 X151.867 Y150.517 E29.80082
G1 X151.297 Y151.282 E29.83255
G1 X150.664 Y151.997 E29.86431
G1 X149.974 Y152.657 E29.89607
G1 X149.23 Y153.256 E29.92784
G1 X148.44 Y153.791 E29.95957
G1 X147.607 Y154.258 E29.99134
G1 X146.738 Y154.654 E30.0231
G1 X145.839 Y154.976 E30.05486
G1 X144.916 Y155.221 E30.08662
G1 X143.976 Y155.388 E30.11838
G1 X142.771 Y155.487 E30.15859
G1 X142.13 Y155.5 E30.17991
G1 X93.1 Y155.499 E31.81066
G1 X92.402 Y155.49 E31.83388
G1 X91.449 Y155.438 E31.86562
G1 X90.503 Y155.306 E31.89739
G1 X89.572 Y155.095 E31.92914
G1 X88.661 Y154.808 E31.96091
G1 X87.778 Y154.445 E31.99266
G1 X86.929 Y154.009 E32.0244
G1 X86.118 Y153.504 E32.05618
G1 X85.353 Y152.933 E32.08793
G1 X84.639 Y152.3 E32.11967
G1 X83.979 Y151.609 E32.15145
G1 X83.38 Y150.866 E32.18319
G1 X82.846 Y150.075 E32.21493
G1 X82.379 Y149.242 E32.2467
G1 X81.984 Y148.373 E32.27845
G1 X81.662 Y147.474 E32.31021
G1 X81.418 Y146.551 E32.34196
G1 X81.251 Y145.611 E32.37371
G1 X81.153 Y144.399 E32.41416
G1 X81.14 Y143.758 E32.43548
G1 X81.141 Y91.42 E34.17625
G1 X81.15 Y90.755 E34.19837
G1 X81.203 Y89.801 E34.23015
G1 X81.335 Y88.856 E34.26189
G1 X81.547 Y87.925 E34.29364
G1 X81.835 Y87.015 E34.32539
G1 X82.198 Y86.132 E34.35714
G1 X82.634 Y85.282 E34.38892
G1 X83.14 Y84.472 E34.42068
G1 X83.712 Y83.708 E34.45243
G1 X84.345 Y82.993 E34.48419
G1 X85.036 Y82.335 E34.51592
G1 X85.78 Y81.736 E34.54769
G1 X86.572 Y81.202 E34.57946
G1 X87.405 Y80.736 E34.61121
G1 X88.274 Y80.341 E34.64296
G1 X89.173 Y80.02 E34.67471
G1 X90.096 Y79.776 E34.70646
G1 X91.037 Y79.61 E34.73824
G1 X92.229 Y79.513 E34.77802
G1 X92.87 Y79.5 E34.79934
G1 X141.916 Y79.501 E36.43062
G1 X142.614 Y79.511 E36.45384
G1 F1500 E30.20384
;MESH:5bfde5a1-2d58-4ebb-ba71-0794bea14e49.stl
G0 F6000 X142.046 Y90.235
G0 X142.046 Y91.314
G0 X124.085 Y92.084
G0 X122.722 Y98.367
G0 X122.644 Y98.464
G0 X117.27 Y100.667
;TYPE:WALL-INNER
G1 F1500 E36.45384
G1 F1200 X117.285 Y100.669 E36.45434
G1 X117.715 Y100.669 E36.46864
G1 X118.146 Y100.64 E36.48301
G1 X118.572 Y100.584 E36.4973
G1 X118.998 Y100.501 E36.51174
G1 X119.412 Y100.387 E36.52602
G1 X119.818 Y100.25 E36.54027
G1 X120.219 Y100.083 E36.55472
G1 X120.603 Y99.893 E36.56897
G1 X120.978 Y99.678 E36.58334
G1 X121.336 Y99.436 E36.59772
G1 X121.676 Y99.174 E36.61199
G1 X122 Y98.89 E36.62632
G1 X122.303 Y98.584 E36.64065
G1 X122.31 Y98.575 E36.64103
G1 X122.589 Y98.259 E36.65505
G1 X122.85 Y97.915 E36.66941
G1 X123.088 Y97.558 E36.68368
G1 X123.303 Y97.184 E36.69803
G1 X123.493 Y96.797 E36.71237
G1 X123.658 Y96.398 E36.72673
G1 X123.794 Y95.99 E36.74103
G1 X123.905 Y95.573 E36.75538
G1 X123.988 Y95.149 E36.76975
G1 X124.042 Y94.722 E36.78407
G1 X124.042 Y94.71 E36.78447
G1 X124.07 Y94.292 E36.7984
G1 X124.068 Y93.849 E36.81314
G1 X123.955 Y92.65 E36.85319
G1 X123.026 Y92.536 E36.88432
G1 X119.1 Y92.528 E37.0149
G1 X111.048 Y92.534 E37.28271
G1 X110.931 Y93.853 E37.32675
G1 X110.93 Y94.292 E37.34136
G1 X110.958 Y94.722 E37.35569
G1 X111.012 Y95.149 E37.37
G1 X111.095 Y95.573 E37.38437
G1 X111.206 Y95.99 E37.39873
G1 X111.342 Y96.398 E37.41303
G1 X111.507 Y96.797 E37.42739
G1 X111.697 Y97.184 E37.44173
G1 X111.912 Y97.558 E37.45608
G1 X112.15 Y97.915 E37.47035
G1 X112.411 Y98.259 E37.48471
G1 X112.689 Y98.574 E37.49868
G1 X112.697 Y98.584 E37.49911
G1 X113 Y98.89 E37.51343
G1 X113.324 Y99.174 E37.52776
G1 X113.664 Y99.436 E37.54204
G1 X114.022 Y99.678 E37.55641
G1 X114.397 Y99.893 E37.57079
G1 X114.781 Y100.083 E37.58504
G1 X115.182 Y100.25 E37.59949
G1 X115.588 Y100.387 E37.61374
G1 X116.002 Y100.501 E37.62802
G1 X116.428 Y100.584 E37.64246
G1 X116.854 Y100.64 E37.65675
G1 X116.867 Y100.64 E37.65718
G1 X117.27 Y100.667 E37.67061
G0 F6000 X117.298 Y100.269
G1 F1200 X117.702 Y100.269 E37.68405
G1 X118.106 Y100.242 E37.69752
G1 X118.507 Y100.189 E37.71097
G1 X118.906 Y100.111 E37.72449
G1 X119.295 Y100.004 E37.73791
G1 X119.677 Y99.875 E37.75132
G1 X120.053 Y99.719 E37.76486
G1 X120.414 Y99.54 E37.77826
G1 X120.766 Y99.338 E37.79176
G1 X121.102 Y99.111 E37.80525
G1 X121.422 Y98.865 E37.81867
G1 X121.726 Y98.598 E37.83213
G1 X122.011 Y98.311 E37.84558
G1 X122.279 Y98.006 E37.85909
G1 X122.524 Y97.683 E37.87257
G1 X122.748 Y97.347 E37.886
G1 X122.95 Y96.996 E37.89947
G1 X123.128 Y96.632 E37.91295
G1 X123.283 Y96.258 E37.92641
G1 X123.411 Y95.875 E37.93984
G1 X123.515 Y95.483 E37.95333
G1 X123.593 Y95.085 E37.96682
G1 X123.644 Y94.684 E37.98027
G1 X123.67 Y94.28 E37.99373
G1 X123.668 Y93.869 E38.0074
G1 X123.587 Y93.008 E38.03617
G1 X123.001 Y92.936 E38.0558
G1 X119.1 Y92.928 E38.18555
G1 X111.414 Y92.934 E38.44119
G1 X111.331 Y93.871 E38.47248
G1 X111.33 Y94.28 E38.48608
G1 X111.356 Y94.684 E38.49954
G1 X111.407 Y95.085 E38.51299
G1 X111.485 Y95.483 E38.52648
G1 X111.589 Y95.875 E38.53997
G1 X111.717 Y96.258 E38.5534
G1 X111.872 Y96.632 E38.56686
G1 X112.05 Y96.996 E38.58034
G1 X112.252 Y97.347 E38.59381
G1 X112.476 Y97.683 E38.60724
G1 X112.721 Y98.006 E38.62072
G1 X112.989 Y98.311 E38.63423
G1 X113.274 Y98.598 E38.64768
G1 X113.578 Y98.865 E38.66114
G1 X113.898 Y99.111 E38.67456
G1 X114.234 Y99.338 E38.68805
G1 X114.586 Y99.54 E38.70155
G1 X114.947 Y99.719 E38.71495
G1 X115.323 Y99.875 E38.72849
G1 X115.705 Y100.004 E38.7419
G1 X116.094 Y100.111 E38.75532
G1 X116.493 Y100.189 E38.76884
G1 X116.894 Y100.242 E38.78229
G1 X117.298 Y100.269 E38.79576
G0 F6000 X117.311 Y99.869
;TYPE:WALL-OUTER
G1 F1200 X117.689 Y99.869 E38.80833
G1 X118.066 Y99.844 E38.8209
G1 X118.442 Y99.794 E38.83352
G1 X118.814 Y99.721 E38.84612
G1 X119.178 Y99.621 E38.85868
G1 X119.536 Y99.5 E38.87125
G1 X119.887 Y99.355 E38.88388
G1 X120.225 Y99.187 E38.89643
G1 X120.554 Y98.998 E38.90905
G1 X120.868 Y98.786 E38.92165
G1 X121.168 Y98.556 E38.93423
G1 X121.452 Y98.306 E38.94681
G1 X121.719 Y98.038 E38.95939
G1 X121.969 Y97.753 E38.972
G1 X122.198 Y97.451 E38.98461
G1 X122.408 Y97.136 E38.9972
G1 X122.597 Y96.808 E39.00979
G1 X122.763 Y96.468 E39.02238
G1 X122.908 Y96.118 E39.03498
G1 X123.028 Y95.76 E39.04754
G1 X123.125 Y95.393 E39.06016
G1 X123.198 Y95.021 E39.07277
G1 X123.246 Y94.646 E39.08534
G1 X123.27 Y94.268 E39.09794
G1 X123.268 Y93.889 E39.11055
G1 X123.219 Y93.366 E39.12802
G1 X122.976 Y93.336 E39.13616
G1 X119.1 Y93.328 E39.26508
G1 X111.78 Y93.334 E39.50854
G1 X111.731 Y93.889 E39.52707
G1 X111.73 Y94.268 E39.53968
G1 X111.754 Y94.646 E39.55228
G1 X111.802 Y95.021 E39.56485
G1 X111.875 Y95.393 E39.57746
G1 X111.972 Y95.76 E39.59009
G1 X112.092 Y96.118 E39.60264
G1 X112.237 Y96.468 E39.61524
G1 X112.403 Y96.808 E39.62783
G1 X112.592 Y97.136 E39.64042
G1 X112.802 Y97.451 E39.65301
G1 X113.031 Y97.753 E39.66562
G1 X113.281 Y98.038 E39.67823
G1 X113.548 Y98.306 E39.69081
G1 X113.832 Y98.556 E39.70339
G1 X114.132 Y98.786 E39.71597
G1 X114.446 Y98.998 E39.72857
G1 X114.775 Y99.187 E39.74119
G1 X115.113 Y99.355 E39.75374
G1 X115.464 Y99.5 E39.76637
G1 X115.822 Y99.621 E39.77894
