;FLAVOR:Marlin
;TIME:2213
;Filament used: 1.53078m
;Layer height: 0.2
;MINX:96.1
;MINY:96.1
;MINZ:0.2
;MAXX:138.9
;MAXY:138.9
;MAXZ:20
;Generated with Cura_SteamEngine 4.6.1
M140 S60
M105
M190 S60
M104 S200
M105
M109 S200
M82 ;absolute extrusion mode
M201 X500.00 Y500.00 Z100.00 E5000.00 ;Setup machine max acceleration
M203 X500.00 Y500.00 Z10.00 E50.00 ;Setup machine max feedrate
M204 P500.00 R1000.00 T500.00 ;Setup Print/Retract/Travel acceleration
M205 X8.00 Y8.00 Z0.40 E5.00 ;Setup Jerk
M220 S100 ;Reset Feedrate
M221 S100 ;Reset Flowrate

G28 ;Home

G92 E0 ;Reset Extruder
G1 Z2.0 F3000 ;Move Z Axis up
G1 X10.1 Y20 Z0.28 F5000.0 ;Move to start position
G1 X10.1 Y200.0 Z0.28 F1500.0 E15 ;Draw the first line
G1 X10.4 Y200.0 Z0.28 F5000.0 ;Move to side a little
G1 X10.4 Y20 Z0.28 F1500.0 E30 ;Draw the second line
G92 E0 ;Reset Extruder
G1 Z2.0 F3000 ;Move Z Axis up
G92 E0
G92 E0
G1 F1500 E-6.25
;LAYER_COUNT:100
;LAYER:0
M107
G0 F6000 X127.637 Y97.311 Z0.2
;TYPE:SKIRT
G1 F1500 E0
G1 F1200 X128.539 Y97.364 E0.03005
G1 X129.432 Y97.496 E0.06008
G1 X130.31 Y97.707 E0.09011
G1 X131.166 Y97.995 E0.12015
G1 X131.993 Y98.357 E0.15018
G1 X132.785 Y98.792 E0.18023
G1 X133.536 Y99.294 E0.21027
G1 X134.239 Y99.861 E0.24031
G1 X134.889 Y100.488 E0.27035
G1 X135.481 Y101.17 E0.30039
G1 X136.011 Y101.901 E0.33042
G1 X136.473 Y102.677 E0.36046
G1 X136.866 Y103.49 E0.39049
G1 X137.184 Y104.335 E0.42052
G1 X137.427 Y105.205 E0.45056
G1 X137.592 Y106.093 E0.4806
G1 X137.687 Y107.223 E0.51832
G1 X137.7 Y107.83 E0.53851
G1 X137.699 Y126.89 E1.17245
G1 X137.69 Y127.617 E1.19663
G1 X137.639 Y128.519 E1.22668
G1 X137.508 Y129.413 E1.25674
G1 X137.299 Y130.291 E1.28675
G1 X137.013 Y131.148 E1.3168
G1 X136.652 Y131.976 E1.34685
G1 X136.22 Y132.768 E1.37685
G1 X135.719 Y133.52 E1.40691
G1 X135.153 Y134.224 E1.43695
G1 X134.528 Y134.875 E1.46697
G1 X133.847 Y135.469 E1.49702
G1 X133.116 Y136 E1.52707
G1 X132.342 Y136.464 E1.55709
G1 X131.529 Y136.858 E1.58714
G1 X130.685 Y137.178 E1.61716
G1 X129.815 Y137.423 E1.64722
G1 X128.928 Y137.589 E1.67723
G1 X127.777 Y137.687 E1.71565
G1 X127.17 Y137.7 E1.73585
G1 X108.075 Y137.699 E2.37095
G1 X107.377 Y137.69 E2.39417
G1 X106.476 Y137.639 E2.42418
G1 X105.582 Y137.507 E2.45424
G1 X104.704 Y137.298 E2.48426
G1 X103.847 Y137.011 E2.51432
G1 X103.02 Y136.65 E2.54433
G1 X102.227 Y136.217 E2.57438
G1 X101.476 Y135.716 E2.60441
G1 X100.772 Y135.15 E2.63445
G1 X100.121 Y134.524 E2.66449
G1 X99.528 Y133.843 E2.69452
G1 X98.998 Y133.112 E2.72456
G1 X98.534 Y132.337 E2.7546
G1 X98.14 Y131.524 E2.78465
G1 X97.82 Y130.68 E2.81467
G1 X97.576 Y129.81 E2.84472
G1 X97.41 Y128.922 E2.87477
G1 X97.313 Y127.767 E2.91332
G1 X97.3 Y127.158 E2.93358
G1 X97.301 Y108.036 E3.56958
G1 X97.31 Y107.371 E3.5917
G1 X97.362 Y106.469 E3.62175
G1 X97.494 Y105.576 E3.65177
G1 X97.704 Y104.698 E3.6818
G1 X97.991 Y103.841 E3.71186
G1 X98.353 Y103.014 E3.74189
G1 X98.786 Y102.222 E3.77191
G1 X99.288 Y101.471 E3.80195
G1 X99.855 Y100.767 E3.83202
G1 X100.481 Y100.117 E3.86203
G1 X101.162 Y99.524 E3.89207
G1 X101.894 Y98.994 E3.92212
G1 X102.669 Y98.531 E3.95215
G1 X103.482 Y98.138 E3.98219
G1 X104.327 Y97.818 E4.01224
G1 X105.196 Y97.575 E4.04225
G1 X106.084 Y97.409 E4.0723
G1 X107.223 Y97.313 E4.11031
G1 X107.83 Y97.3 E4.13051
G1 X126.939 Y97.301 E4.76608
G1 X127.637 Y97.311 E4.78929
G0 F6000 X127.643 Y96.911
G1 F1200 X128.562 Y96.964 E4.81991
G1 X129.473 Y97.097 E4.85053
G1 X130.369 Y97.308 E4.88115
G1 X131.243 Y97.596 E4.91175
G1 X132.09 Y97.959 E4.9424
G1 X132.901 Y98.394 E4.97301
G1 X133.671 Y98.898 E5.00362
G1 X134.395 Y99.467 E5.03425
G1 X135.067 Y100.097 E5.06489
G1 X135.682 Y100.782 E5.0955
G1 X136.235 Y101.518 E5.12612
G1 X136.722 Y102.299 E5.15674
G1 X137.139 Y103.12 E5.18736
G1 X137.484 Y103.974 E5.218
G1 X137.753 Y104.854 E5.2486
G1 X137.945 Y105.755 E5.27924
G1 X138.058 Y106.668 E5.30984
G1 X138.087 Y107.212 E5.32796
G1 X138.1 Y107.83 E5.34852
G1 X138.099 Y126.895 E5.98262
G1 X138.09 Y127.622 E6.00681
G1 X138.039 Y128.541 E6.03742
G1 X137.908 Y129.453 E6.06806
G1 X137.698 Y130.349 E6.09867
G1 X137.412 Y131.224 E6.12929
G1 X137.051 Y132.071 E6.15991
G1 X136.617 Y132.883 E6.19054
G1 X136.115 Y133.655 E6.22116
G1 X135.547 Y134.38 E6.2518
G1 X134.919 Y135.053 E6.28241
G1 X134.235 Y135.669 E6.31303
G1 X133.5 Y136.223 E6.34364
G1 X132.72 Y136.712 E6.37426
G1 X131.9 Y137.131 E6.40489
G1 X131.047 Y137.477 E6.43551
G1 X130.167 Y137.748 E6.46613
G1 X129.267 Y137.941 E6.49675
G1 X128.353 Y138.056 E6.52738
G1 X127.788 Y138.087 E6.5462
G1 X127.17 Y138.1 E6.56676
G1 X108.07 Y138.099 E7.20203
G1 X107.372 Y138.09 E7.22525
G1 X106.453 Y138.038 E7.25587
G1 X105.542 Y137.907 E7.28648
G1 X104.646 Y137.697 E7.31709
G1 X103.771 Y137.41 E7.34771
G1 X102.924 Y137.048 E7.37835
G1 X102.112 Y136.614 E7.40897
G1 X101.341 Y136.112 E7.43957
G1 X100.616 Y135.544 E7.47021
G1 X99.943 Y134.915 E7.50084
G1 X99.328 Y134.231 E7.53144
G1 X98.774 Y133.496 E7.56205
G1 X98.286 Y132.715 E7.59268
G1 X97.867 Y131.895 E7.62331
G1 X97.521 Y131.042 E7.65392
G1 X97.251 Y130.162 E7.68454
G1 X97.058 Y129.261 E7.71519
G1 X96.944 Y128.348 E7.74579
G1 X96.913 Y127.777 E7.76481
G1 X96.9 Y127.158 E7.7854
G1 X96.901 Y108.031 E8.42157
G1 X96.91 Y107.366 E8.44369
G1 X96.962 Y106.446 E8.47434
G1 X97.094 Y105.535 E8.50495
G1 X97.305 Y104.639 E8.53557
G1 X97.592 Y103.764 E8.5662
G1 X97.955 Y102.918 E8.59682
G1 X98.389 Y102.106 E8.62744
G1 X98.892 Y101.335 E8.65806
G1 X99.461 Y100.611 E8.68868
G1 X100.089 Y99.939 E8.71928
G1 X100.774 Y99.323 E8.74992
G1 X101.51 Y98.77 E8.78054
G1 X102.291 Y98.282 E8.81117
G1 X103.111 Y97.864 E8.84178
G1 X103.965 Y97.519 E8.87241
G1 X104.845 Y97.249 E8.90303
G1 X105.745 Y97.057 E8.93364
G1 X106.659 Y96.943 E8.96427
G1 X107.212 Y96.913 E8.98269
G1 X107.83 Y96.9 E9.00325
G1 X126.945 Y96.901 E9.63902
G1 X127.643 Y96.911 E9.66224
G0 F6000 X127.649 Y96.511
G1 F1200 X128.585 Y96.565 E9.69342
G1 X129.513 Y96.697 E9.72459
G1 X130.427 Y96.909 E9.7558
G1 X131.319 Y97.198 E9.78699
G1 X132.184 Y97.561 E9.81819
G1 X133.014 Y97.997 E9.84937
G1 X133.805 Y98.502 E9.88059
G1 X134.549 Y99.073 E9.91178
G1 X135.242 Y99.705 E9.94297
G1 X135.879 Y100.393 E9.97416
G1 X136.454 Y101.134 E10.00535
G1 X136.965 Y101.92 E10.03654
G1 X137.407 Y102.748 E10.06775
G1 X137.776 Y103.61 E10.09894
G1 X138.071 Y104.5 E10.13012
G1 X138.289 Y105.412 E10.16131
G1 X138.429 Y106.34 E10.19253
G1 X138.487 Y107.201 E10.22123
G1 X138.5 Y107.83 E10.24215
G1 X138.499 Y126.9 E10.87643
G1 X138.49 Y127.627 E10.90061
G1 X138.439 Y128.564 E10.93182
G1 X138.307 Y129.492 E10.96299
G1 X138.098 Y130.406 E10.99418
G1 X137.811 Y131.299 E11.02538
G1 X137.449 Y132.165 E11.05659
G1 X137.015 Y132.996 E11.08778
G1 X136.511 Y133.787 E11.11897
G1 X135.942 Y134.532 E11.15015
G1 X135.311 Y135.227 E11.18137
G1 X134.624 Y135.865 E11.21256
G1 X133.885 Y136.442 E11.24374
G1 X133.099 Y136.954 E11.27494
G1 X132.273 Y137.397 E11.30611
G1 X131.411 Y137.769 E11.33734
G1 X130.522 Y138.065 E11.3685
G1 X129.61 Y138.285 E11.39971
G1 X128.683 Y138.426 E11.43089
G1 X127.799 Y138.487 E11.46037
G1 X127.17 Y138.5 E11.48129
G1 X108.065 Y138.499 E12.11673
G1 X107.367 Y138.49 E12.13994
G1 X106.431 Y138.438 E12.17112
G1 X105.502 Y138.306 E12.20233
G1 X104.588 Y138.096 E12.23352
G1 X103.695 Y137.809 E12.26472
G1 X102.83 Y137.446 E12.29592
G1 X101.999 Y137.012 E12.3271
G1 X101.208 Y136.508 E12.3583
G1 X100.463 Y135.938 E12.3895
G1 X99.769 Y135.307 E12.4207
G1 X99.132 Y134.62 E12.45186
G1 X98.555 Y133.88 E12.48307
G1 X98.043 Y133.094 E12.51427
G1 X97.6 Y132.267 E12.54547
G1 X97.229 Y131.406 E12.57665
G1 X96.933 Y130.516 E12.60785
G1 X96.714 Y129.604 E12.63904
G1 X96.573 Y128.677 E12.67023
G1 X96.513 Y127.788 E12.69987
G1 X96.5 Y127.158 E12.72082
G1 X96.501 Y108.025 E13.35719
G1 X96.51 Y107.36 E13.37931
G1 X96.563 Y106.424 E13.41049
G1 X96.695 Y105.495 E13.4417
G1 X96.906 Y104.581 E13.4729
G1 X97.194 Y103.689 E13.50408
G1 X97.557 Y102.824 E13.53528
G1 X97.992 Y101.993 E13.56647
G1 X98.496 Y101.203 E13.59764
G1 X99.066 Y100.458 E13.62884
G1 X99.698 Y99.764 E13.66006
G1 X100.386 Y99.127 E13.69125
G1 X101.126 Y98.551 E13.72244
G1 X101.912 Y98.039 E13.75364
G1 X102.739 Y97.597 E13.78482
G1 X103.601 Y97.227 E13.81602
G1 X104.491 Y96.931 E13.84722
G1 X105.403 Y96.713 E13.87841
G1 X106.33 Y96.572 E13.90959
G1 X107.201 Y96.513 E13.93863
G1 X107.83 Y96.5 E13.95955
G1 X126.951 Y96.501 E14.59552
G1 X127.649 Y96.511 E14.61874
G0 F6000 X127.654 Y96.111
G1 F1200 X128.608 Y96.165 E14.65052
G1 X129.553 Y96.298 E14.68226
G1 X130.484 Y96.51 E14.71402
G1 X131.394 Y96.799 E14.74578
G1 X132.277 Y97.163 E14.77754
G1 X133.126 Y97.6 E14.8093
G1 X133.935 Y98.106 E14.84104
G1 X134.699 Y98.678 E14.87278
G1 X135.413 Y99.312 E14.90454
G1 X136.071 Y100.004 E14.9363
G1 X136.669 Y100.748 E14.96805
G1 X137.203 Y101.54 E14.99982
G1 X137.668 Y102.374 E15.03158
G1 X138.063 Y103.243 E15.06333
G1 X138.382 Y104.143 E15.09508
G1 X138.626 Y105.066 E15.12684
G1 X138.791 Y106.007 E15.15861
G1 X138.886 Y107.19 E15.19809
G1 X138.9 Y107.83 E15.21938
G1 X138.899 Y126.905 E15.85382
G1 X138.89 Y127.632 E15.878
G1 X138.838 Y128.585 E15.90974
G1 X138.707 Y129.531 E15.94151
G1 X138.497 Y130.463 E15.97328
G1 X138.21 Y131.373 E16.00502
G1 X137.847 Y132.256 E16.03677
G1 X137.412 Y133.106 E16.06853
G1 X136.907 Y133.917 E16.10031
G1 X136.337 Y134.682 E16.13204
G1 X135.704 Y135.397 E16.1638
G1 X135.014 Y136.057 E16.19556
G1 X134.27 Y136.656 E16.22732
G1 X133.48 Y137.191 E16.25906
G1 X132.647 Y137.658 E16.29082
G1 X131.778 Y138.054 E16.32258
G1 X130.879 Y138.376 E16.35434
G1 X129.956 Y138.621 E16.38611
G1 X129.016 Y138.788 E16.41786
G1 X127.811 Y138.887 E16.45807
G1 X127.17 Y138.9 E16.4794
G1 X108.06 Y138.899 E17.115
G1 X107.362 Y138.89 E17.13822
G1 X106.409 Y138.838 E17.16996
G1 X105.463 Y138.706 E17.20173
G1 X104.532 Y138.495 E17.23348
G1 X103.621 Y138.208 E17.26525
G1 X102.738 Y137.845 E17.297
G1 X101.889 Y137.409 E17.32875
G1 X101.078 Y136.904 E17.36052
G1 X100.313 Y136.333 E17.39227
G1 X99.599 Y135.7 E17.42401
G1 X98.939 Y135.009 E17.45579
G1 X98.34 Y134.266 E17.48753
G1 X97.806 Y133.475 E17.51928
G1 X97.339 Y132.642 E17.55104
G1 X96.944 Y131.773 E17.58279
G1 X96.622 Y130.874 E17.61455
G1 X96.378 Y129.951 E17.6463
G1 X96.211 Y129.011 E17.67806
G1 X96.113 Y127.799 E17.7185
G1 X96.1 Y127.158 E17.73982
G1 X96.101 Y108.02 E18.37636
G1 X96.11 Y107.355 E18.39848
G1 X96.163 Y106.401 E18.43025
G1 X96.295 Y105.456 E18.46199
G1 X96.507 Y104.525 E18.49375
G1 X96.795 Y103.615 E18.52549
G1 X97.158 Y102.732 E18.55725
G1 X97.594 Y101.882 E18.58902
G1 X98.1 Y101.072 E18.62079
G1 X98.672 Y100.308 E18.65253
G1 X99.305 Y99.593 E18.68429
G1 X99.996 Y98.935 E18.71603
G1 X100.74 Y98.336 E18.7478
G1 X101.532 Y97.802 E18.77957
G1 X102.365 Y97.336 E18.81131
G1 X103.234 Y96.941 E18.84306
G1 X104.133 Y96.62 E18.87481
G1 X105.056 Y96.376 E18.90657
G1 X105.997 Y96.21 E18.93835
G1 X107.189 Y96.113 E18.97812
G1 X107.83 Y96.1 E18.99945
G1 X126.956 Y96.101 E19.63558
G1 X127.654 Y96.111 E19.6588
G1 F1500 E13.4088
;MESH:CHEPCalibrationCube.stl
G0 F6000 X127.086 Y106.835
G0 X127.086 Y107.914
G0 X126.318 Y126.318
G0 X108.5 Y126.5
;TYPE:WALL-INNER
G1 F1500 E19.6588
G1 F1200 X108.5 Y108.5 E20.25748
G1 X126.5 Y108.5 E20.85616
G1 X126.5 Y126.5 E21.45485
G1 X108.5 Y126.5 E22.05353
G0 F6000 X108.1 Y126.9
G1 F1200 X108.1 Y108.1 E22.67882
G1 X126.9 Y108.1 E23.30411
G1 X126.9 Y126.9 E23.9294
G1 X108.1 Y126.9 E24.55469
G0 F6000 X107.7 Y127.3
;TYPE:WALL-OUTER
G1 F1200 X107.7 Y107.7 E25.20659
G1 X127.3 Y107.7 E25.85849
G1 X127.3 Y127.3 E26.51039
G1 X107.7 Y127.3 E27.16229
G0 F6000 X107.97 Y127.03
G0 X108.61 Y126.11
G0 X108.89 Y126.11
;TYPE:SKIN
G1 F1200 X108.89 Y108.89 E27.73503
G1 X126.11 Y108.89 E28.30777
G1 X126.11 Y126.11 E28.8805
G1 X108.89 Y126.11 E29.45324
G0 F6000 X109.25 Y125.749
G1 F1200 X109.344 Y125.749 E29.45637
G1 X109.249 Y125.654 E29.46084
G0 F6000 X109.344 Y125.749
G1 F1200 X109.91 Y125.749 E29.47966
G1 X109.249 Y125.088 E29.51076
G1 X109.249 Y124.522 E29.52958
G1 X110.476 Y125.749 E29.5873
G1 X111.041 Y125.749 E29.60609
G1 X109.249 Y123.957 E29.69038
G1 X109.249 Y123.391 E29.7092
G1 X111.607 Y125.749 E29.82012
G1 X112.173 Y125.749 E29.83894
G1 X109.249 Y122.825 E29.97648
G1 X109.249 Y122.26 E29.99527
G1 X112.738 Y125.749 E30.15938
G1 X113.304 Y125.749 E30.17821
G1 X109.249 Y121.694 E30.36894
G1 X109.249 Y121.128 E30.38777
G1 X113.87 Y125.749 E30.60512
G1 X114.436 Y125.749 E30.62395
G1 X109.249 Y120.563 E30.86791
G1 X109.249 Y119.997 E30.88673
G1 X115.001 Y125.749 E31.15729
G1 X115.567 Y125.749 E31.17611
G1 X109.249 Y119.431 E31.47329
G1 X109.249 Y118.866 E31.49208
G1 X116.133 Y125.749 E31.81586
G1 X116.698 Y125.749 E31.83466
G1 X109.249 Y118.3 E32.18503
G1 X109.249 Y117.734 E32.20386
G1 X117.264 Y125.749 E32.58086
G1 X117.83 Y125.749 E32.59968
G1 X109.249 Y117.169 E33.00329
G1 X109.249 Y116.603 E33.02211
G1 X118.395 Y125.749 E33.45231
G1 X118.961 Y125.749 E33.47114
G1 X109.249 Y116.037 E33.92796
G1 X109.249 Y115.471 E33.94678
G1 X119.527 Y125.749 E34.43023
G1 X120.092 Y125.749 E34.44902
G1 X109.249 Y114.906 E34.95904
G1 X109.249 Y114.34 E34.97787
G1 X120.658 Y125.749 E35.51451
G1 X121.224 Y125.749 E35.53334
G1 X109.249 Y113.774 E36.0966
G1 X109.249 Y113.209 E36.1154
G1 X121.789 Y125.749 E36.70524
G1 X122.355 Y125.749 E36.72406
G1 X109.249 Y112.643 E37.34053
G1 X109.249 Y112.077 E37.35936
G1 X122.921 Y125.749 E38.00245
G1 X123.487 Y125.749 E38.02127
G1 X109.249 Y111.512 E38.69096
G1 X109.249 Y110.946 E38.70978
G1 X124.052 Y125.749 E39.40607
G1 X124.618 Y125.749 E39.4249
G1 X109.249 Y110.38 E40.14781
G1 X109.249 Y109.815 E40.1666
G1 X125.184 Y125.749 E40.91611
G1 X125.749 Y125.749 E40.9349
G1 X109.249 Y109.249 E41.71101
G1 X109.815 Y109.25 E41.72984
G1 X125.749 Y125.184 E42.47932
G1 X125.749 Y124.618 E42.49815
G1 X110.381 Y109.25 E43.22101
G1 X110.947 Y109.25 E43.23984
G1 X125.749 Y124.052 E43.93608
G1 X125.749 Y123.487 E43.95487
G1 X111.512 Y109.25 E44.62453
G1 X112.078 Y109.25 E44.64336
G1 X125.749 Y122.921 E45.2864
G1 X125.749 Y122.355 E45.30523
G1 X112.644 Y109.25 E45.92165
G1 X113.209 Y109.25 E45.94044
G1 X125.749 Y121.789 E46.53026
G1 X125.749 Y121.224 E46.54905
G1 X113.775 Y109.25 E47.11227
G1 X114.341 Y109.25 E47.13109
G1 X125.749 Y120.658 E47.66769
G1 X125.749 Y120.092 E47.68652
G1 X114.906 Y109.25 E48.19652
G1 X115.472 Y109.25 E48.21534
G1 X125.749 Y119.527 E48.69874
G1 X125.749 Y118.961 E48.71756
G1 X116.038 Y109.25 E49.17434
G1 X116.604 Y109.25 E49.19317
G1 X125.749 Y118.395 E49.62332
G1 X125.749 Y117.83 E49.64211
G1 X117.169 Y109.25 E50.04569
G1 X117.735 Y109.25 E50.06451
G1 X125.749 Y117.264 E50.44147
G1 X125.749 Y116.698 E50.46029
G1 X118.301 Y109.25 E50.81062
G1 X118.866 Y109.25 E50.82941
G1 X125.749 Y116.133 E51.15317
G1 X125.749 Y115.567 E51.17199
G1 X119.432 Y109.25 E51.46913
G1 X119.998 Y109.25 E51.48795
G1 X125.749 Y115.001 E51.75846
G1 X125.749 Y114.436 E51.77725
G1 X120.563 Y109.25 E52.02119
G1 X121.129 Y109.25 E52.04001
G1 X125.749 Y113.87 E52.25732
G1 X125.749 Y113.304 E52.27615
G1 X121.695 Y109.25 E52.46684
G1 X122.26 Y109.25 E52.48563
G1 X125.749 Y112.738 E52.64972
G1 X125.749 Y112.173 E52.66851
G1 X122.826 Y109.25 E52.806
G1 X123.392 Y109.25 E52.82482
G1 X125.749 Y111.607 E52.93569
G1 X125.749 Y111.041 E52.95451
G1 X123.957 Y109.25 E53.03878
G1 X124.523 Y109.25 E53.05761
G1 X125.749 Y110.476 E53.11527
G1 X125.749 Y109.91 E53.1341
G1 X125.089 Y109.25 E53.16514
G1 X125.654 Y109.25 E53.18393
G1 X125.749 Y109.344 E53.18838
G0 F6000 X125.654 Y109.25
G1 F1200 X125.749 Y109.25 E53.19154
G0 F6000 X125.749 Y108.31
G1 F1500 E46.94154
;MESH:NONMESH
G0 F300 X125.749 Y108.31 Z0.4
G0 F6000 X108.682 Y108.682
G0 X108.5 Y126.5
;TIME_ELAPSED:89.176378
;LAYER:1
M140 S60
M106 S85
;TYPE:WALL-INNER
;MESH:CHEPCalibrationCube.stl
G1 F1500 E53.19154
G1 F1350 X108.5 Y108.5 E53.79022
G1 X126.5 Y108.5 E54.3889
G1 X126.5 Y126.5 E54.98759
G1 X108.5 Y126.5 E55.58627
G0 F7500 X108.1 Y126.9
G1 F1350 X108.1 Y108.1 E56.21156
G1 X126.9 Y108.1 E56.83685
G1 X126.9 Y126.9 E57.46214
G1 X108.1 Y126.9 E58.08743
G0 F7500 X107.7 Y127.3
;TYPE:WALL-OUTER
G1 F1350 X107.7 Y107.7 E58.73933
G1 X127.3 Y107.7 E59.39123
