;FLAVOR:Marlin
;TIME:1052
;Filament used: 0.482811m
;Layer height: 0.2
;MINX:99.36
;MINY:99.36
;MINZ:0.2
;MAXX:135.64
;MAXY:135.64
;MAXZ:20
;POSTPROCESSED
;Generated with Cura_SteamEngine 4.2.1
M140 S55
M105
M190 S55
M104 S200
M105
M109 S200
M82 ;absolute extrusion mode
M201 X500.00 Y500.00 Z100.00 E5000.00 ;Setup machine max acceleration
M203 X500.00 Y500.00 Z10.00 E50.00 ;Setup machine max feedrate
M204 P500.00 R1000.00 T500.00 ;Setup Print/Retract/Travel acceleration
M205 X8.00 Y8.00 Z0.40 E5.00 ;Setup Jerk
M220 S100 ;Reset Feedrate
M221 S100 ;Reset Flowrate

G28 ;Home

G92 E0 ;Reset Extruder
G1 Z2.0 F3000 ;Move Z Axis up
G1 X10.1 Y20 Z0.28 F5000.0 ;Move to start position
G1 X10.1 Y200.0 Z0.28 F1500.0 E15 ;Draw the first line
G1 X10.4 Y200.0 Z0.28 F5000.0 ;Move to side a little
G1 X10.4 Y20 Z0.28 F1500.0 E30 ;Draw the second line
G92 E0 ;Reset Extruder
G1 Z2.0 F3000 ;Move Z Axis up

M141 S28
G92 E0
G92 E0
G1 F2700 E-5
;LAYER_COUNT:100
;LAYER:0
M117 HollowCube layer 0
M107
G0 F6000 X101.744 Y101.873 Z0.2
;TYPE:SKIRT
G1 F2700 E0
G1 F1200 X101.873 Y101.744 E0.00667
G1 X102.471 Y101.203 E0.03618
G1 X103.12 Y100.723 E0.06571
G1 X103.813 Y100.31 E0.09523
G1 X104.543 Y99.968 E0.12472
G1 X105.304 Y99.699 E0.15425
G1 X106.088 Y99.507 E0.18378
G1 X106.886 Y99.394 E0.21327
G1 X107.629 Y99.36 E0.24048
G1 X127.371 Y99.36 E0.96276
G1 X128.177 Y99.4 E0.99229
G1 X128.975 Y99.52 E1.02181
G1 X129.757 Y99.717 E1.05132
G1 X130.515 Y99.992 E1.08082
G1 X131.243 Y100.34 E1.11034
G1 X131.933 Y100.758 E1.13985
G1 X132.578 Y101.243 E1.16938
G1 X133.127 Y101.744 E1.19657
G1 X133.256 Y101.873 E1.20325
G1 X133.797 Y102.471 E1.23275
G1 X134.277 Y103.12 E1.26228
G1 X134.69 Y103.813 E1.2918
G1 X135.032 Y104.543 E1.32129
G1 X135.301 Y105.304 E1.35082
G1 X135.493 Y106.088 E1.38035
G1 X135.606 Y106.886 E1.40984
G1 X135.64 Y107.629 E1.43705
G1 X135.64 Y127.371 E2.15934
G1 X135.6 Y128.177 E2.18886
G1 X135.48 Y128.975 E2.21838
G1 X135.283 Y129.757 E2.24789
G1 X135.008 Y130.515 E2.27739
G1 X134.66 Y131.243 E2.30691
G1 X134.242 Y131.933 E2.33643
G1 X133.757 Y132.578 E2.36595
G1 X133.256 Y133.127 E2.39314
G1 X133.127 Y133.256 E2.39982
G1 X132.529 Y133.797 E2.42932
G1 X131.88 Y134.277 E2.45885
G1 X131.187 Y134.69 E2.48837
G1 X130.457 Y135.032 E2.51786
G1 X129.696 Y135.301 E2.54739
G1 X128.912 Y135.493 E2.57692
G1 X128.114 Y135.606 E2.60641
G1 X127.371 Y135.64 E2.63362
G1 X107.629 Y135.64 E3.35591
G1 X106.823 Y135.6 E3.38543
G1 X106.025 Y135.48 E3.41496
G1 X105.243 Y135.283 E3.44446
G1 X104.485 Y135.008 E3.47396
G1 X103.757 Y134.66 E3.50348
G1 X103.067 Y134.242 E3.533
G1 X102.422 Y133.757 E3.56252
G1 X101.873 Y133.256 E3.58972
G1 X101.744 Y133.127 E3.59639
G1 X101.203 Y132.529 E3.62589
G1 X100.723 Y131.88 E3.65543
G1 X100.31 Y131.187 E3.68494
G1 X99.968 Y130.457 E3.71443
G1 X99.699 Y129.696 E3.74396
G1 X99.507 Y128.912 E3.7735
G1 X99.394 Y128.114 E3.80298
G1 X99.36 Y127.371 E3.8302
G1 X99.36 Y107.629 E4.55248
G1 X99.4 Y106.823 E4.582
G1 X99.52 Y106.025 E4.61153
G1 X99.717 Y105.243 E4.64103
G1 X99.992 Y104.485 E4.67053
G1 X100.34 Y103.757 E4.70005
G1 X100.758 Y103.067 E4.72957
G1 X101.243 Y102.422 E4.75909
G1 X101.744 Y101.873 E4.78629
G0 F6000 X102.055 Y102.184
G1 F1200 X102.184 Y102.055 E4.79296
G1 X102.767 Y101.529 E4.82169
G1 X103.399 Y101.066 E4.85035
G1 X104.076 Y100.669 E4.87907
G1 X104.79 Y100.343 E4.90778
G1 X105.533 Y100.091 E4.93649
G1 X106.298 Y99.916 E4.9652
G1 X107.077 Y99.82 E4.99391
G1 X107.629 Y99.8 E5.01412
G1 X127.371 Y99.8 E5.73641
G1 X128.155 Y99.84 E5.76513
G1 X128.93 Y99.959 E5.79381
G1 X129.689 Y100.157 E5.82251
G1 X130.424 Y100.431 E5.85121
G1 X131.128 Y100.779 E5.87994
G1 X131.792 Y101.196 E5.90863
G1 X132.411 Y101.679 E5.93736
G1 X132.816 Y102.055 E5.95757
G1 X132.945 Y102.184 E5.96425
G1 X133.471 Y102.767 E5.99298
G1 X133.934 Y103.399 E6.02164
G1 X134.331 Y104.076 E6.05035
G1 X134.657 Y104.79 E6.07907
G1 X134.909 Y105.533 E6.10777
G1 X135.084 Y106.298 E6.13649
G1 X135.18 Y107.077 E6.1652
G1 X135.2 Y107.629 E6.18541
G1 X135.2 Y127.371 E6.90769
G1 X135.16 Y128.155 E6.93642
G1 X135.041 Y128.93 E6.9651
G1 X134.843 Y129.689 E6.9938
G1 X134.569 Y130.424 E7.0225
G1 X134.221 Y131.128 E7.05123
G1 X133.804 Y131.792 E7.07992
G1 X133.321 Y132.411 E7.10864
G1 X132.945 Y132.816 E7.12886
G1 X132.816 Y132.945 E7.13554
G1 X132.233 Y133.471 E7.16426
G1 X131.601 Y133.934 E7.19293
G1 X130.924 Y134.331 E7.22164
G1 X130.21 Y134.657 E7.25036
G1 X129.467 Y134.909 E7.27906
G1 X128.702 Y135.084 E7.30777
G1 X127.923 Y135.18 E7.33649
G1 X127.371 Y135.2 E7.3567
G1 X107.629 Y135.2 E8.07898
G1 X106.845 Y135.16 E8.1077
G1 X106.07 Y135.041 E8.13639
G1 X105.311 Y134.843 E8.16509
G1 X104.576 Y134.569 E8.19379
G1 X103.872 Y134.221 E8.22252
G1 X103.208 Y133.804 E8.2512
G1 X102.589 Y133.321 E8.27993
G1 X102.184 Y132.945 E8.30015
G1 X102.055 Y132.816 E8.30682
G1 X101.529 Y132.233 E8.33555
G1 X101.066 Y131.601 E8.36421
G1 X100.669 Y130.924 E8.39293
G1 X100.343 Y130.21 E8.42164
G1 X100.091 Y129.467 E8.45035
G1 X99.916 Y128.702 E8.47906
G1 X99.82 Y127.923 E8.50778
G1 X99.8 Y127.371 E8.52798
G1 X99.8 Y107.629 E9.25027
G1 X99.84 Y106.845 E9.27899
G1 X99.959 Y106.07 E9.30768
G1 X100.157 Y105.311 E9.33637
G1 X100.431 Y104.576 E9.36507
G1 X100.779 Y103.872 E9.3938
G1 X101.196 Y103.208 E9.42249
G1 X101.679 Y102.589 E9.45122
G1 X102.055 Y102.184 E9.47143
G0 F6000 X102.366 Y102.495
G1 F1200 X102.495 Y102.366 E9.47811
G1 X103.062 Y101.857 E9.50599
G1 X103.678 Y101.409 E9.53385
G1 X104.338 Y101.029 E9.56172
G1 X105.034 Y100.719 E9.58959
G1 X105.759 Y100.485 E9.61746
G1 X106.505 Y100.328 E9.64536
G1 X107.629 Y100.24 E9.6866
G1 X127.371 Y100.24 E10.40889
G1 X128.132 Y100.28 E10.43677
G1 X128.884 Y100.399 E10.46462
G1 X129.62 Y100.597 E10.49251
G1 X130.331 Y100.871 E10.52039
G1 X131.009 Y101.217 E10.54823
G1 X131.648 Y101.633 E10.57613
G1 X132.505 Y102.366 E10.61739
G1 X132.634 Y102.495 E10.62406
G1 X133.143 Y103.062 E10.65194
G1 X133.591 Y103.678 E10.67981
G1 X133.971 Y104.338 E10.70767
G1 X134.281 Y105.034 E10.73555
G1 X134.515 Y105.759 E10.76342
G1 X134.672 Y106.505 E10.79131
G1 X134.76 Y107.629 E10.83256
G1 X134.76 Y127.371 E11.55484
G1 X134.72 Y128.132 E11.58272
G1 X134.601 Y128.884 E11.61058
G1 X134.403 Y129.62 E11.63846
G1 X134.129 Y130.331 E11.66634
G1 X133.783 Y131.009 E11.69419
G1 X133.367 Y131.648 E11.72209
G1 X132.634 Y132.505 E11.76334
G1 X132.505 Y132.634 E11.77002
G1 X131.938 Y133.143 E11.7979
G1 X131.322 Y133.591 E11.82576
G1 X130.662 Y133.971 E11.85363
G1 X129.966 Y134.281 E11.8815
G1 X129.241 Y134.515 E11.90937
G1 X128.495 Y134.672 E11.93727
G1 X127.371 Y134.76 E11.97851
G1 X107.629 Y134.76 E12.7008
G1 X106.868 Y134.72 E12.72868
G1 X106.116 Y134.601 E12.75653
G1 X105.38 Y134.403 E12.78442
G1 X104.669 Y134.129 E12.8123
G1 X103.991 Y133.783 E12.84014
G1 X103.352 Y133.367 E12.86804
G1 X102.495 Y132.634 E12.9093
G1 X102.366 Y132.505 E12.91597
G1 X101.857 Y131.938 E12.94385
G1 X101.409 Y131.322 E12.97172
G1 X101.029 Y130.662 E12.99958
G1 X100.719 Y129.966 E13.02746
G1 X100.485 Y129.241 E13.05533
G1 X100.328 Y128.495 E13.08322
G1 X100.24 Y127.371 E13.12447
G1 X100.24 Y107.629 E13.84675
G1 X100.28 Y106.868 E13.87463
G1 X100.399 Y106.116 E13.90249
G1 X100.597 Y105.38 E13.93037
G1 X100.871 Y104.669 E13.95825
G1 X101.217 Y103.991 E13.9861
G1 X101.633 Y103.352 E14.014
G1 X102.366 Y102.495 E14.05525
G0 F6000 X102.678 Y102.807
G1 F1200 X102.807 Y102.678 E14.06193
G1 X103.356 Y102.184 E14.08895
G1 X103.956 Y101.754 E14.11596
G1 X104.599 Y101.39 E14.14299
G1 X105.277 Y101.098 E14.17
G1 X105.983 Y100.882 E14.19701
G1 X106.708 Y100.742 E14.22402
G1 X107.629 Y100.68 E14.2578
G1 X127.371 Y100.68 E14.98008
G1 X128.108 Y100.72 E15.00708
G1 X128.837 Y100.839 E15.03411
G1 X129.548 Y101.037 E15.06111
G1 X130.234 Y101.31 E15.08812
G1 X130.887 Y101.656 E15.11516
G1 X131.498 Y102.07 E15.14216
G1 X132.193 Y102.678 E15.17595
G1 X132.322 Y102.807 E15.18262
G1 X132.816 Y103.356 E15.20964
G1 X133.246 Y103.956 E15.23665
G1 X133.61 Y104.599 E15.26368
G1 X133.902 Y105.277 E15.29069
G1 X134.118 Y105.983 E15.3177
G1 X134.258 Y106.708 E15.34471
G1 X134.32 Y107.629 E15.37849
G1 X134.32 Y127.371 E16.10077
G1 X134.28 Y128.108 E16.12777
G1 X134.161 Y128.837 E16.1548
G1 X133.963 Y129.548 E16.1818
G1 X133.69 Y130.234 E16.20881
G1 X133.344 Y130.887 E16.23585
G1 X132.93 Y131.498 E16.26285
G1 X132.322 Y132.193 E16.29664
G1 X132.193 Y132.322 E16.30331
G1 X131.644 Y132.816 E16.33033
G1 X131.044 Y133.246 E16.35734
G1 X130.401 Y133.61 E16.38437
G1 X129.723 Y133.902 E16.41138
G1 X129.017 Y134.118 E16.43839
G1 X128.292 Y134.258 E16.46541
G1 X127.371 Y134.32 E16.49918
G1 X107.629 Y134.32 E17.22146
G1 X106.892 Y134.28 E17.24847
G1 X106.163 Y134.161 E17.27549
G1 X105.452 Y133.963 E17.30249
G1 X104.766 Y133.69 E17.32951
G1 X104.113 Y133.344 E17.35654
G1 X103.502 Y132.93 E17.38355
G1 X102.807 Y132.322 E17.41733
G1 X102.678 Y132.193 E17.424
G1 X102.184 Y131.644 E17.45102
G1 X101.754 Y131.044 E17.47803
G1 X101.39 Y130.401 E17.50506
G1 X101.098 Y129.723 E17.53207
G1 X100.882 Y129.017 E17.55908
G1 X100.742 Y128.292 E17.5861
G1 X100.68 Y127.371 E17.61987
G1 X100.68 Y107.629 E18.34215
G1 X100.72 Y106.892 E18.36916
G1 X100.839 Y106.163 E18.39618
G1 X101.037 Y105.452 E18.42319
G1 X101.31 Y104.766 E18.4502
G1 X101.656 Y104.113 E18.47723
G1 X102.07 Y103.502 E18.50424
G1 X102.678 Y102.807 E18.53802
G0 F6000 X102.989 Y103.118
G1 F1200 X103.118 Y102.989 E18.5447
G1 X103.65 Y102.513 E18.57081
G1 X104.232 Y102.099 E18.59694
G1 X104.857 Y101.754 E18.62306
G1 X105.517 Y101.48 E18.64921
G1 X106.203 Y101.281 E18.67534
G1 X106.907 Y101.161 E18.70147
G1 X107.629 Y101.12 E18.72793
G1 X127.371 Y101.12 E19.45021
G1 X128.084 Y101.16 E19.47634
G1 X128.788 Y101.279 E19.50246
G1 X129.474 Y101.477 E19.52858
G1 X130.134 Y101.75 E19.55471
G1 X130.76 Y102.094 E19.58085
G1 X131.343 Y102.507 E19.60699
G1 X131.882 Y102.989 E19.63344
G1 X132.011 Y103.118 E19.64012
G1 X132.487 Y103.65 E19.66623
G1 X132.901 Y104.232 E19.69236
G1 X133.246 Y104.857 E19.71848
G1 X133.52 Y105.517 E19.74463
G1 X133.719 Y106.203 E19.77076
G1 X133.839 Y106.907 E19.79689
G1 X133.88 Y107.629 E19.82335
G1 X133.88 Y127.371 E20.54563
G1 X133.84 Y128.084 E20.57176
G1 X133.721 Y128.788 E20.59788
G1 X133.523 Y129.474 E20.624
G1 X133.25 Y130.134 E20.65013
G1 X132.906 Y130.76 E20.67627
G1 X132.493 Y131.343 E20.7024
G1 X132.011 Y131.882 E20.72886
G1 X131.882 Y132.011 E20.73553
G1 X131.35 Y132.487 E20.76165
G1 X130.768 Y132.901 E20.78778
G1 X130.143 Y133.246 E20.8139
G1 X129.483 Y133.52 E20.84005
G1 X128.797 Y133.719 E20.86618
G1 X128.093 Y133.839 E20.89231
G1 X127.371 Y133.88 E20.91876
G1 X107.629 Y133.88 E21.64105
G1 X106.916 Y133.84 E21.66718
G1 X106.212 Y133.721 E21.6933
G1 X105.526 Y133.523 E21.71942
G1 X104.866 Y133.25 E21.74555
G1 X104.24 Y132.906 E21.77168
G1 X103.657 Y132.493 E21.79782
G1 X103.118 Y132.011 E21.82428
G1 X102.989 Y131.882 E21.83095
G1 X102.513 Y131.35 E21.85707
G1 X102.099 Y130.768 E21.8832
G1 X101.754 Y130.143 E21.90932
G1 X101.48 Y129.483 E21.93547
G1 X101.281 Y128.797 E21.9616
G1 X101.161 Y128.093 E21.98773
G1 X101.12 Y127.371 E22.01418
G1 X101.12 Y107.629 E22.73647
G1 X101.16 Y106.916 E22.76259
G1 X101.279 Y106.212 E22.78872
G1 X101.477 Y105.526 E22.81484
G1 X101.75 Y104.866 E22.84097
G1 X102.094 Y104.24 E22.8671
G1 X102.507 Y103.657 E22.89324
G1 X102.989 Y103.118 E22.9197
G0 F6000 X103.3 Y103.429
G1 F1200 X103.429 Y103.3 E22.92637
G1 X103.943 Y102.842 E22.95156
G1 X104.508 Y102.446 E22.9768
G1 X105.114 Y102.119 E23.002
G1 X105.754 Y101.864 E23.0272
G1 X106.419 Y101.684 E23.05241
G1 X107.101 Y101.584 E23.07762
G1 X107.629 Y101.56 E23.09696
G1 X127.371 Y101.56 E23.81925
G1 X128.059 Y101.6 E23.84446
G1 X128.738 Y101.719 E23.86968
G1 X129.398 Y101.916 E23.89488
G1 X130.031 Y102.189 E23.9201
G1 X130.628 Y102.533 E23.94531
G1 X131.181 Y102.943 E23.9705
G1 X131.571 Y103.3 E23.98984
G1 X131.7 Y103.429 E23.99651
G1 X132.158 Y103.943 E24.0217
G1 X132.554 Y104.508 E24.04695
G1 X132.881 Y105.114 E24.07214
G1 X133.136 Y105.754 E24.09734
G1 X133.316 Y106.419 E24.12255
G1 X133.416 Y107.101 E24.14777
G1 X133.44 Y107.629 E24.1671
G1 X133.44 Y127.371 E24.88939
G1 X133.4 Y128.059 E24.9146
G1 X133.281 Y128.738 E24.93982
G1 X133.084 Y129.398 E24.96502
G1 X132.811 Y130.031 E24.99024
G1 X132.467 Y130.628 E25.01545
G1 X132.057 Y131.181 E25.04064
G1 X131.7 Y131.571 E25.05998
G1 X131.571 Y131.7 E25.06666
G1 X131.057 Y132.158 E25.09184
G1 X130.492 Y132.554 E25.11709
G1 X129.886 Y132.881 E25.14228
G1 X129.246 Y133.136 E25.16749
G1 X128.581 Y133.316 E25.19269
G1 X127.899 Y133.416 E25.21791
G1 X127.371 Y133.44 E25.23725
G1 X107.629 Y133.44 E25.95953
G1 X106.941 Y133.4 E25.98474
G1 X106.262 Y133.281 E26.00997
G1 X105.602 Y133.084 E26.03516
G1 X104.969 Y132.811 E26.06039
G1 X104.372 Y132.467 E26.08559
G1 X103.819 Y132.057 E26.11078
G1 X103.429 Y131.7 E26.13012
G1 X103.3 Y131.571 E26.1368
G1 X102.842 Y131.057 E26.16199
G1 X102.446 Y130.492 E26.18723
G1 X102.119 Y129.886 E26.21242
G1 X101.864 Y129.246 E26.23763
G1 X101.684 Y128.581 E26.26283
G1 X101.584 Y127.899 E26.28805
G1 X101.56 Y127.371 E26.30739
G1 X101.56 Y107.629 E27.02967
G1 X101.6 Y106.941 E27.05489
G1 X101.719 Y106.262 E27.08011
G1 X101.916 Y105.602 E27.10531
G1 X102.189 Y104.969 E27.13053
G1 X102.533 Y104.372 E27.15574
G1 X102.943 Y103.819 E27.18092
G1 X103.3 Y103.429 E27.20027
G0 F6000 X103.611 Y103.74
G1 F1200 X103.74 Y103.611 E27.20694
G1 X104.236 Y103.171 E27.2312
G1 X104.782 Y102.794 E27.25547
G1 X105.369 Y102.486 E27.27973
G1 X105.988 Y102.25 E27.30396
G1 X106.632 Y102.091 E27.32823
G1 X107.29 Y102.01 E27.35249
G1 X107.629 Y102 E27.3649
G1 X127.371 Y102 E28.08718
G1 X128.033 Y102.04 E28.11144
G1 X128.685 Y102.159 E28.13569
G1 X129.318 Y102.356 E28.15995
G1 X129.923 Y102.628 E28.18422
G1 X130.491 Y102.97 E28.20847
G1 X131.013 Y103.379 E28.23274
G1 X131.26 Y103.611 E28.24513
G1 X131.389 Y103.74 E28.25181
G1 X131.829 Y104.236 E28.27607
G1 X132.206 Y104.782 E28.30034
G1 X132.514 Y105.369 E28.32459
G1 X132.75 Y105.988 E28.34883
G1 X132.909 Y106.632 E28.3731
G1 X132.99 Y107.29 E28.39736
G1 X133 Y107.629 E28.40976
G1 X133 Y127.371 E29.13205
G1 X132.96 Y128.033 E29.15631
G1 X132.841 Y128.685 E29.18056
G1 X132.644 Y129.318 E29.20481
G1 X132.372 Y129.923 E29.22908
G1 X132.03 Y130.491 E29.25334
G1 X131.621 Y131.013 E29.2776
G1 X131.389 Y131.26 E29.29
G1 X131.26 Y131.389 E29.29667
G1 X130.764 Y131.829 E29.32093
G1 X130.218 Y132.206 E29.34521
G1 X129.631 Y132.514 E29.36946
G1 X129.012 Y132.75 E29.3937
G1 X128.368 Y132.909 E29.41797
G1 X127.71 Y132.99 E29.44222
G1 X127.371 Y133 E29.45463
G1 X107.629 Y133 E30.17691
G1 X106.967 Y132.96 E30.20118
G1 X106.315 Y132.841 E30.22543
G1 X105.682 Y132.644 E30.24968
G1 X105.077 Y132.372 E30.27395
G1 X104.509 Y132.03 E30.29821
G1 X103.987 Y131.621 E30.32247
G1 X103.74 Y131.389 E30.33487
G1 X103.611 Y131.26 E30.34154
G1 X103.171 Y130.764 E30.3658
G1 X102.794 Y130.218 E30.39007
G1 X102.486 Y129.631 E30.41433
G1 X102.25 Y129.012 E30.43856
G1 X102.091 Y128.368 E30.46283
G1 X102.01 Y127.71 E30.48709
G1 X102 Y127.371 E30.4995
G1 X102 Y107.629 E31.22178
G1 X102.04 Y106.967 E31.24604
G1 X102.159 Y106.315 E31.27029
G1 X102.356 Y105.682 E31.29455
G1 X102.628 Y105.077 E31.31882
G1 X102.97 Y104.509 E31.34307
G1 X103.379 Y103.987 E31.36734
G1 X103.611 Y103.74 E31.37973
G0 F6000 X103.922 Y104.051
G1 F1200 X104.051 Y103.922 E31.38641
G1 X104.528 Y103.502 E31.40966
G1 X105.054 Y103.144 E31.43294
G1 X105.621 Y102.856 E31.45621
G1 X106.219 Y102.64 E31.47947
G1 X106.84 Y102.502 E31.50274
G1 X107.629 Y102.44 E31.5317
G1 X127.371 Y102.44 E32.25398
G1 X128.006 Y102.48 E32.27726
G1 X128.63 Y102.599 E32.3005
G1 X129.235 Y102.796 E32.32378
G1 X129.81 Y103.067 E32.34704
G1 X130.347 Y103.408 E32.37031
G1 X130.949 Y103.922 E32.39927
G1 X131.078 Y104.051 E32.40594
G1 X131.498 Y104.528 E32.4292
G1 X131.856 Y105.054 E32.45248
G1 X132.144 Y105.621 E32.47574
G1 X132.36 Y106.219 E32.499
G1 X132.498 Y106.84 E32.52228
G1 X132.56 Y107.629 E32.55123
G1 X132.56 Y127.371 E33.27352
G1 X132.52 Y128.006 E33.2968
G1 X132.401 Y128.63 E33.32004
G1 X132.204 Y129.235 E33.34332
G1 X131.933 Y129.81 E33.36657
