;FLAVOR:Marlin
;TIME:1408
;Filament used: 0.945888m
;Layer height: 0.2
;MINX:81.1
;MINY:91.1
;MINZ:0.2
;MAXX:153.9
;MAXY:143.9
;MAXZ:3.4
;Generated with Cura_SteamEngine 4.6.1
M140 S60
M105
M190 S60
M104 S200
M105
M109 S200
M82 ;absolute extrusion mode
M201 X500.00 Y500.00 Z100.00 E5000.00 ;Setup machine max acceleration
M203 X500.00 Y500.00 Z10.00 E50.00 ;Setup machine max feedrate
M204 P500.00 R1000.00 T500.00 ;Setup Print/Retract/Travel acceleration
M205 X8.00 Y8.00 Z0.40 E5.00 ;Setup Jerk
M220 S100 ;Reset Feedrate
M221 S100 ;Reset Flowrate

G28 ;Home

G92 E0 ;Reset Extruder
G1 Z2.0 F3000 ;Move Z Axis up
G1 X10.1 Y20 Z0.28 F5000.0 ;Move to start position
G1 X10.1 Y200.0 Z0.28 F1500.0 E15 ;Draw the first line
G1 X10.4 Y200.0 Z0.28 F5000.0 ;Move to side a little
G1 X10.4 Y20 Z0.28 F1500.0 E30 ;Draw the second line
G92 E0 ;Reset Extruder
G1 Z2.0 F3000 ;Move Z Axis up
G92 E0
G92 E0
G1 F1500 E-6.25
;LAYER_COUNT:17
;LAYER:0
M107
G0 F6000 X142.637 Y92.311 Z0.2
;TYPE:SKIRT
G1 F1500 E0
G1 F1200 X143.539 Y92.364 E0.03005
G1 X144.432 Y92.496 E0.06008
G1 X145.31 Y92.707 E0.09011
G1 X146.166 Y92.995 E0.12015
G1 X146.993 Y93.357 E0.15018
G1 X147.785 Y93.792 E0.18023
G1 X148.536 Y94.294 E0.21027
G1 X149.239 Y94.861 E0.24031
G1 X149.889 Y95.488 E0.27035
G1 X150.481 Y96.17 E0.30039
G1 X151.011 Y96.901 E0.33042
G1 X151.473 Y97.677 E0.36046
G1 X151.866 Y98.49 E0.39049
G1 X152.184 Y99.335 E0.42052
G1 X152.427 Y100.205 E0.45056
G1 X152.592 Y101.093 E0.4806
G1 X152.687 Y102.223 E0.51832
G1 X152.7 Y102.83 E0.53851
G1 X152.699 Y131.89 E1.50505
G1 X152.69 Y132.617 E1.52924
G1 X152.639 Y133.519 E1.55928
G1 X152.508 Y134.413 E1.58934
G1 X152.299 Y135.291 E1.61936
G1 X152.013 Y136.148 E1.6494
G1 X151.652 Y136.976 E1.67945
G1 X151.22 Y137.768 E1.70945
G1 X150.719 Y138.52 E1.73951
G1 X150.153 Y139.224 E1.76955
G1 X149.528 Y139.875 E1.79957
G1 X148.847 Y140.469 E1.82962
G1 X148.116 Y141 E1.85967
G1 X147.342 Y141.464 E1.88969
G1 X146.529 Y141.858 E1.91974
G1 X145.685 Y142.178 E1.94976
G1 X144.815 Y142.423 E1.97982
G1 X143.928 Y142.589 E2.00983
G1 X142.777 Y142.687 E2.04826
G1 X142.17 Y142.7 E2.06845
G1 X93.075 Y142.699 E3.70136
G1 X92.377 Y142.69 E3.72457
G1 X91.476 Y142.639 E3.75459
G1 X90.582 Y142.507 E3.78465
G1 X89.704 Y142.298 E3.81466
G1 X88.847 Y142.011 E3.84472
G1 X88.02 Y141.65 E3.87474
G1 X87.227 Y141.217 E3.90479
G1 X86.476 Y140.716 E3.93481
G1 X85.772 Y140.15 E3.96486
G1 X85.121 Y139.524 E3.9949
G1 X84.528 Y138.843 E4.02493
G1 X83.998 Y138.112 E4.05496
G1 X83.534 Y137.337 E4.085
G1 X83.14 Y136.524 E4.11505
G1 X82.82 Y135.68 E4.14507
G1 X82.576 Y134.81 E4.17513
G1 X82.41 Y133.922 E4.20517
G1 X82.313 Y132.767 E4.24373
G1 X82.3 Y132.158 E4.26399
G1 X82.301 Y103.036 E5.23259
G1 X82.31 Y102.371 E5.25471
G1 X82.362 Y101.469 E5.28476
G1 X82.494 Y100.576 E5.31478
G1 X82.704 Y99.698 E5.34481
G1 X82.991 Y98.841 E5.37487
G1 X83.353 Y98.014 E5.40489
G1 X83.786 Y97.222 E5.43491
G1 X84.288 Y96.471 E5.46496
G1 X84.855 Y95.767 E5.49502
G1 X85.481 Y95.117 E5.52504
G1 X86.162 Y94.524 E5.55507
G1 X86.894 Y93.994 E5.58513
G1 X87.669 Y93.531 E5.61516
G1 X88.482 Y93.138 E5.64519
G1 X89.327 Y92.818 E5.67524
G1 X90.196 Y92.575 E5.70526
G1 X91.084 Y92.409 E5.7353
G1 X92.223 Y92.313 E5.77332
G1 X92.83 Y92.3 E5.79351
G1 X141.939 Y92.301 E7.42689
G1 X142.637 Y92.311 E7.4501
G0 F6000 X142.643 Y91.911
G1 F1200 X143.562 Y91.964 E7.48072
G1 X144.473 Y92.097 E7.51134
G1 X145.369 Y92.308 E7.54196
G1 X146.243 Y92.596 E7.57257
G1 X147.09 Y92.959 E7.60321
G1 X147.901 Y93.394 E7.63382
G1 X148.671 Y93.898 E7.66443
G1 X149.395 Y94.467 E7.69506
G1 X150.067 Y95.097 E7.7257
G1 X150.682 Y95.782 E7.75632
G1 X151.235 Y96.518 E7.78693
G1 X151.722 Y97.299 E7.81755
G1 X152.139 Y98.12 E7.84817
G1 X152.484 Y98.974 E7.87881
G1 X152.753 Y99.854 E7.90941
G1 X152.945 Y100.755 E7.94005
G1 X153.058 Y101.668 E7.97065
G1 X153.087 Y102.212 E7.98877
G1 X153.1 Y102.83 E8.00933
G1 X153.099 Y131.895 E8.97604
G1 X153.09 Y132.622 E9.00022
G1 X153.039 Y133.541 E9.03083
G1 X152.908 Y134.453 E9.06148
G1 X152.698 Y135.349 E9.09209
G1 X152.412 Y136.224 E9.1227
G1 X152.051 Y137.071 E9.15333
G1 X151.617 Y137.883 E9.18395
G1 X151.115 Y138.655 E9.21458
G1 X150.547 Y139.38 E9.24521
G1 X149.919 Y140.053 E9.27583
G1 X149.235 Y140.669 E9.30644
G1 X148.5 Y141.223 E9.33705
G1 X147.72 Y141.712 E9.36767
G1 X146.9 Y142.131 E9.3983
G1 X146.047 Y142.477 E9.42892
G1 X145.167 Y142.748 E9.45954
G1 X144.267 Y142.941 E9.49016
G1 X143.353 Y143.056 E9.5208
G1 X142.788 Y143.087 E9.53962
G1 X142.17 Y143.1 E9.56018
G1 X93.07 Y143.099 E11.19325
G1 X92.372 Y143.09 E11.21647
G1 X91.453 Y143.038 E11.24708
G1 X90.542 Y142.907 E11.27769
G1 X89.646 Y142.697 E11.3083
G1 X88.771 Y142.41 E11.33893
G1 X87.924 Y142.048 E11.36957
G1 X87.112 Y141.614 E11.40019
G1 X86.341 Y141.112 E11.43079
G1 X85.616 Y140.544 E11.46142
G1 X84.943 Y139.915 E11.49206
G1 X84.328 Y139.231 E11.52265
G1 X83.774 Y138.496 E11.55327
G1 X83.286 Y137.715 E11.5839
G1 X82.867 Y136.895 E11.61452
G1 X82.521 Y136.042 E11.64514
G1 X82.251 Y135.162 E11.67576
G1 X82.058 Y134.261 E11.7064
G1 X81.944 Y133.348 E11.73701
G1 X81.913 Y132.777 E11.75603
G1 X81.9 Y132.158 E11.77662
G1 X81.901 Y103.031 E12.74539
G1 X81.91 Y102.366 E12.76751
G1 X81.962 Y101.446 E12.79815
G1 X82.094 Y100.535 E12.82877
G1 X82.305 Y99.639 E12.85939
G1 X82.592 Y98.764 E12.89001
G1 X82.955 Y97.918 E12.92063
G1 X83.389 Y97.106 E12.95126
G1 X83.892 Y96.335 E12.98187
G1 X84.461 Y95.611 E13.0125
G1 X85.089 Y94.939 E13.04309
G1 X85.774 Y94.323 E13.07373
G1 X86.51 Y93.77 E13.10435
G1 X87.291 Y93.282 E13.13498
G1 X88.111 Y92.864 E13.1656
G1 X88.965 Y92.519 E13.19623
G1 X89.845 Y92.249 E13.22685
G1 X90.745 Y92.057 E13.25745
G1 X91.659 Y91.943 E13.28809
G1 X92.212 Y91.913 E13.30651
G1 X92.83 Y91.9 E13.32707
G1 X141.945 Y91.901 E14.96064
G1 X142.643 Y91.911 E14.98386
G0 F6000 X142.649 Y91.511
G1 F1200 X143.585 Y91.565 E15.01504
G1 X144.513 Y91.697 E15.04622
G1 X145.427 Y91.909 E15.07742
G1 X146.319 Y92.198 E15.10861
G1 X147.184 Y92.561 E15.13981
G1 X148.014 Y92.997 E15.17099
G1 X148.805 Y93.502 E15.20221
G1 X149.549 Y94.073 E15.2334
G1 X150.242 Y94.705 E15.26459
G1 X150.879 Y95.393 E15.29578
G1 X151.454 Y96.134 E15.32698
G1 X151.965 Y96.92 E15.35816
G1 X152.407 Y97.748 E15.38937
G1 X152.776 Y98.61 E15.42056
G1 X153.071 Y99.5 E15.45175
G1 X153.289 Y100.412 E15.48293
G1 X153.429 Y101.34 E15.51415
G1 X153.487 Y102.201 E15.54285
G1 X153.5 Y102.83 E15.56378
G1 X153.499 Y131.9 E16.53065
G1 X153.49 Y132.627 E16.55483
G1 X153.439 Y133.564 E16.58604
G1 X153.307 Y134.492 E16.61722
G1 X153.098 Y135.406 E16.6484
G1 X152.811 Y136.299 E16.6796
G1 X152.449 Y137.165 E16.71082
G1 X152.015 Y137.996 E16.742
G1 X151.511 Y138.787 E16.77319
G1 X150.942 Y139.532 E16.80437
G1 X150.311 Y140.227 E16.8356
G1 X149.624 Y140.865 E16.86678
G1 X148.885 Y141.442 E16.89796
G1 X148.099 Y141.954 E16.92916
G1 X147.273 Y142.397 E16.96034
G1 X146.411 Y142.769 E16.99156
G1 X145.522 Y143.065 E17.02273
G1 X144.61 Y143.285 E17.05393
G1 X143.683 Y143.426 E17.08512
G1 X142.799 Y143.487 E17.11459
G1 X142.17 Y143.5 E17.13551
G1 X93.065 Y143.499 E18.76875
G1 X92.367 Y143.49 E18.79197
G1 X91.431 Y143.438 E18.82315
G1 X90.502 Y143.306 E18.85436
G1 X89.588 Y143.096 E18.88555
G1 X88.695 Y142.809 E18.91675
G1 X87.83 Y142.446 E18.94795
G1 X86.999 Y142.012 E18.97913
G1 X86.208 Y141.508 E19.01033
G1 X85.463 Y140.938 E19.04153
G1 X84.769 Y140.307 E19.07272
G1 X84.132 Y139.62 E19.10388
G1 X83.555 Y138.88 E19.13509
G1 X83.043 Y138.094 E19.16629
G1 X82.6 Y137.267 E19.1975
G1 X82.229 Y136.406 E19.22868
G1 X81.933 Y135.516 E19.25988
G1 X81.714 Y134.604 E19.29107
G1 X81.573 Y133.677 E19.32226
G1 X81.513 Y132.788 E19.35189
G1 X81.5 Y132.158 E19.37285
G1 X81.501 Y103.025 E20.34182
G1 X81.51 Y102.36 E20.36394
G1 X81.563 Y101.424 E20.39512
G1 X81.695 Y100.495 E20.42633
G1 X81.906 Y99.581 E20.45753
G1 X82.194 Y98.689 E20.4887
G1 X82.557 Y97.824 E20.51991
G1 X82.992 Y96.993 E20.5511
G1 X83.496 Y96.203 E20.58227
G1 X84.066 Y95.458 E20.61347
G1 X84.698 Y94.764 E20.64469
G1 X85.386 Y94.127 E20.67587
G1 X86.126 Y93.551 E20.70706
G1 X86.912 Y93.039 E20.73826
G1 X87.739 Y92.597 E20.76945
G1 X88.601 Y92.227 E20.80065
G1 X89.491 Y91.931 E20.83185
G1 X90.403 Y91.713 E20.86303
G1 X91.33 Y91.572 E20.89422
G1 X92.201 Y91.513 E20.92326
G1 X92.83 Y91.5 E20.94418
G1 X141.951 Y91.501 E22.57795
G1 X142.649 Y91.511 E22.60117
G0 F6000 X142.654 Y91.111
G1 F1200 X143.608 Y91.165 E22.63295
G1 X144.553 Y91.298 E22.66469
G1 X145.484 Y91.51 E22.69645
G1 X146.394 Y91.799 E22.72821
G1 X147.277 Y92.163 E22.75997
G1 X148.126 Y92.6 E22.79173
G1 X148.935 Y93.106 E22.82347
G1 X149.699 Y93.678 E22.85521
G1 X150.413 Y94.312 E22.88697
G1 X151.071 Y95.004 E22.91873
G1 X151.669 Y95.748 E22.95048
G1 X152.203 Y96.54 E22.98225
G1 X152.668 Y97.374 E23.01401
G1 X153.063 Y98.243 E23.04576
G1 X153.382 Y99.143 E23.07752
G1 X153.626 Y100.066 E23.10927
G1 X153.791 Y101.007 E23.14105
G1 X153.886 Y102.19 E23.18052
G1 X153.9 Y102.83 E23.20181
G1 X153.899 Y131.905 E24.16885
G1 X153.89 Y132.632 E24.19303
G1 X153.838 Y133.585 E24.22478
G1 X153.707 Y134.531 E24.25654
G1 X153.497 Y135.463 E24.28832
G1 X153.21 Y136.373 E24.32005
G1 X152.847 Y137.256 E24.35181
G1 X152.412 Y138.106 E24.38356
G1 X151.907 Y138.917 E24.41534
G1 X151.337 Y139.682 E24.44707
G1 X150.704 Y140.397 E24.47883
G1 X150.014 Y141.057 E24.51059
G1 X149.27 Y141.656 E24.54236
G1 X148.48 Y142.191 E24.57409
G1 X147.647 Y142.658 E24.60585
G1 X146.778 Y143.054 E24.63762
G1 X145.879 Y143.376 E24.66938
G1 X144.956 Y143.621 E24.70114
G1 X144.016 Y143.788 E24.73289
G1 X142.811 Y143.887 E24.77311
G1 X142.17 Y143.9 E24.79443
G1 X93.06 Y143.899 E26.42784
G1 X92.362 Y143.89 E26.45105
G1 X91.409 Y143.838 E26.4828
G1 X90.463 Y143.706 E26.51457
G1 X89.532 Y143.495 E26.54632
G1 X88.621 Y143.208 E26.57809
G1 X87.738 Y142.845 E26.60984
G1 X86.889 Y142.409 E26.64158
G1 X86.078 Y141.904 E26.67336
G1 X85.313 Y141.333 E26.70511
G1 X84.599 Y140.7 E26.73685
G1 X83.939 Y140.009 E26.76863
G1 X83.34 Y139.266 E26.80037
G1 X82.806 Y138.475 E26.83211
G1 X82.339 Y137.642 E26.86388
G1 X81.944 Y136.773 E26.89563
G1 X81.622 Y135.874 E26.92739
G1 X81.378 Y134.951 E26.95914
G1 X81.211 Y134.011 E26.99089
G1 X81.113 Y132.799 E27.03134
G1 X81.1 Y132.158 E27.05266
G1 X81.101 Y103.02 E28.02179
G1 X81.11 Y102.355 E28.04391
G1 X81.163 Y101.401 E28.07569
G1 X81.295 Y100.456 E28.10743
G1 X81.507 Y99.525 E28.13919
G1 X81.795 Y98.615 E28.17093
G1 X82.158 Y97.732 E28.20269
G1 X82.594 Y96.882 E28.23446
G1 X83.1 Y96.072 E28.26623
G1 X83.672 Y95.308 E28.29797
G1 X84.305 Y94.593 E28.32973
G1 X84.996 Y93.935 E28.36147
G1 X85.74 Y93.336 E28.39324
G1 X86.532 Y92.802 E28.42501
G1 X87.365 Y92.336 E28.45675
G1 X88.234 Y91.941 E28.4885
G1 X89.133 Y91.62 E28.52025
G1 X90.056 Y91.376 E28.55201
G1 X90.997 Y91.21 E28.58379
G1 X92.189 Y91.113 E28.62356
G1 X92.83 Y91.1 E28.64489
G1 X141.956 Y91.101 E30.27882
G1 X142.654 Y91.111 E30.30204
G1 F1500 E24.05204
;MESH:LinierTest v1.stl
G0 F6000 X134.039 Y113.448
G0 X134.697 Y111.709
G0 X136.977 Y114.41
G0 X137.316 Y114.972
G0 X137.586 Y115.571
G0 X137.783 Y116.198
G0 X137.901 Y116.845
G0 X137.901 Y118.155
G0 X137.783 Y118.802
G0 X137.316 Y120.028
G0 X136.977 Y120.59
G0 X136.572 Y121.108
G0 X136.108 Y121.572
G0 X135.59 Y121.977
G0 X135.028 Y122.316
G0 X134.334 Y122.58
G0 X131.777 Y123.459
;TYPE:WALL-INNER
G1 F1500 E30.30204
G1 F1200 X132.5 Y123.502 E30.32613
G1 X133.223 Y123.459 E30.35022
G1 X133.937 Y123.328 E30.37437
G1 X134.629 Y123.112 E30.39848
G1 X135.289 Y122.814 E30.42256
G1 X135.908 Y122.44 E30.44662
G1 X136.481 Y121.993 E30.47079
G1 X136.993 Y121.481 E30.49487
G1 X137.44 Y120.908 E30.51904
G1 X137.814 Y120.289 E30.5431
G1 X138.112 Y119.629 E30.56718
G1 X138.328 Y118.937 E30.59129
G1 X138.459 Y118.223 E30.61544
G1 X138.502 Y117.5 E30.63953
G1 X138.459 Y116.777 E30.66362
G1 X138.328 Y116.063 E30.68776
G1 X138.112 Y115.371 E30.71187
G1 X137.814 Y114.711 E30.73596
G1 X137.44 Y114.092 E30.76001
G1 X136.993 Y113.519 E30.78418
G1 X136.481 Y113.007 E30.80827
G1 X135.908 Y112.56 E30.83244
G1 X135.289 Y112.186 E30.85649
G1 X134.629 Y111.888 E30.88058
G1 X133.937 Y111.672 E30.90469
G1 X133.223 Y111.541 E30.92883
G1 X132.5 Y111.498 E30.95292
G1 X131.777 Y111.541 E30.97701
G1 X131.063 Y111.672 E31.00116
G1 X130.371 Y111.888 E31.02527
G1 X129.711 Y112.186 E31.04935
G1 X129.092 Y112.56 E31.07341
G1 X128.519 Y113.007 E31.09758
G1 X128.007 Y113.519 E31.12166
G1 X127.56 Y114.092 E31.14583
G1 X127.186 Y114.711 E31.16989
G1 X126.888 Y115.371 E31.19397
G1 X126.672 Y116.063 E31.21808
G1 X126.541 Y116.777 E31.24223
G1 X126.498 Y117.5 E31.26632
G1 X126.541 Y118.223 E31.29041
G1 X126.672 Y118.937 E31.31455
G1 X126.888 Y119.629 E31.33866
G1 X127.186 Y120.289 E31.36275
G1 X127.56 Y120.908 E31.3868
G1 X128.007 Y121.481 E31.41097
G1 X128.519 Y121.993 E31.43505
G1 X129.092 Y122.44 E31.45923
G1 X129.711 Y122.814 E31.48328
G1 X130.371 Y123.112 E31.50737
G1 X131.063 Y123.328 E31.53148
G1 X131.777 Y123.459 E31.55562
G0 F6000 X131.825 Y123.061
G1 F1200 X132.5 Y123.101 E31.57811
G1 X133.175 Y123.061 E31.6006
G1 X133.841 Y122.939 E31.62312
G1 X134.487 Y122.737 E31.64563
G1 X135.103 Y122.459 E31.66811
G1 X135.681 Y122.11 E31.69057
G1 X136.215 Y121.693 E31.7131
G1 X136.693 Y121.215 E31.73559
G1 X137.11 Y120.681 E31.75812
G1 X137.459 Y120.103 E31.78058
G1 X137.737 Y119.487 E31.80306
G1 X137.939 Y118.841 E31.82557
G1 X138.061 Y118.175 E31.84809
G1 X138.101 Y117.5 E31.87058
G1 X138.061 Y116.825 E31.89307
G1 X137.939 Y116.159 E31.91559
G1 X137.737 Y115.513 E31.9381
G1 X137.459 Y114.897 E31.96058
G1 X137.11 Y114.319 E31.98303
G1 X136.693 Y113.785 E32.00557
G1 X136.215 Y113.307 E32.02805
G1 X135.681 Y112.89 E32.05059
G1 X135.103 Y112.541 E32.07304
G1 X134.487 Y112.263 E32.09552
G1 X133.841 Y112.061 E32.11803
G1 X133.175 Y111.939 E32.14055
G1 X132.5 Y111.899 E32.16304
G1 X131.825 Y111.939 E32.18553
G1 X131.159 Y112.061 E32.20805
G1 X130.513 Y112.263 E32.23057
G1 X129.897 Y112.541 E32.25304
G1 X129.319 Y112.89 E32.2755
G1 X128.785 Y113.307 E32.29804
G1 X128.307 Y113.785 E32.32052
G1 X127.89 Y114.319 E32.34305
G1 X127.541 Y114.897 E32.36551
G1 X127.263 Y115.513 E32.38799
G1 X127.061 Y116.159 E32.4105
G1 X126.939 Y116.825 E32.43302
G1 X126.899 Y117.5 E32.45551
G1 X126.939 Y118.175 E32.478
G1 X127.061 Y118.841 E32.50052
G1 X127.263 Y119.487 E32.52303
G1 X127.541 Y120.103 E32.54551
G1 X127.89 Y120.681 E32.56797
G1 X128.307 Y121.215 E32.5905
G1 X128.785 Y121.693 E32.61299
G1 X129.319 Y122.11 E32.63552
G1 X129.897 Y122.459 E32.65798
G1 X130.513 Y122.737 E32.68046
G1 X131.159 Y122.939 E32.70297
G1 X131.825 Y123.061 E32.72549
G0 F6000 X131.873 Y122.663
;TYPE:WALL-OUTER
G1 F1200 X132.5 Y122.7 E32.74638
G1 X133.127 Y122.663 E32.76727
G1 X133.745 Y122.55 E32.78816
G1 X134.344 Y122.362 E32.80904
G1 X134.917 Y122.104 E32.82995
G1 X135.454 Y121.78 E32.85081
G1 X135.949 Y121.393 E32.8717
G1 X136.393 Y120.949 E32.89259
G1 X136.78 Y120.454 E32.91349
G1 X137.104 Y119.917 E32.93435
G1 X137.362 Y119.344 E32.95525
G1 X137.55 Y118.745 E32.97613
G1 X137.663 Y118.127 E32.99702
G1 X137.7 Y117.5 E33.01791
G1 X137.663 Y116.873 E33.0388
G1 X137.55 Y116.255 E33.0597
G1 X137.362 Y115.656 E33.08058
G1 X137.104 Y115.083 E33.10148
G1 X136.78 Y114.546 E33.12234
G1 X136.393 Y114.051 E33.14324
G1 X135.949 Y113.607 E33.16412
G1 X135.454 Y113.22 E33.18502
G1 X134.917 Y112.896 E33.20588
G1 X134.344 Y112.638 E33.22678
G1 X133.745 Y112.45 E33.24766
G1 X133.127 Y112.337 E33.26856
G1 X132.5 Y112.3 E33.28945
G1 X131.873 Y112.337 E33.31034
G1 X131.255 Y112.45 E33.33124
G1 X130.656 Y112.638 E33.35212
G1 X130.083 Y112.896 E33.37302
G1 X129.546 Y113.22 E33.39388
G1 X129.051 Y113.607 E33.41478
G1 X128.607 Y114.051 E33.43566
G1 X128.22 Y114.546 E33.45656
G1 X127.896 Y115.083 E33.47742
G1 X127.638 Y115.656 E33.49832
G1 X127.45 Y116.255 E33.5192
G1 X127.337 Y116.873 E33.5401
G1 X127.3 Y117.5 E33.56099
G1 X127.337 Y118.127 E33.58188
G1 X127.45 Y118.745 E33.60277
G1 X127.638 Y119.344 E33.62365
G1 X127.896 Y119.917 E33.64455
G1 X128.22 Y120.454 E33.66541
G1 X128.607 Y120.949 E33.68631
G1 X129.051 Y121.393 E33.7072
G1 X129.546 Y121.78 E33.72809
