;FLAVOR:Marlin
;TIME:5153
;Filament used: 2.97657m
;Layer height: 0.2
;MINX:91.465
;MINY:69.306
;MINZ:0.2
;MAXX:143.536
;MAXY:165.694
;MAXZ:9
;Generated with Cura_SteamEngine 4.6.1
M140 S60
M105
M190 S60
M104 S200
M105
M109 S200
M82 ;absolute extrusion mode
M201 X500.00 Y500.00 Z100.00 E5000.00 ;Setup machine max acceleration
M203 X500.00 Y500.00 Z10.00 E50.00 ;Setup machine max feedrate
M204 P500.00 R1000.00 T500.00 ;Setup Print/Retract/Travel acceleration
M205 X8.00 Y8.00 Z0.40 E5.00 ;Setup Jerk
M220 S100 ;Reset Feedrate
M221 S100 ;Reset Flowrate

G28 ;Home

G92 E0 ;Reset Extruder
G1 Z2.0 F3000 ;Move Z Axis up
G1 X10.1 Y20 Z0.28 F5000.0 ;Move to start position
G1 X10.1 Y200.0 Z0.28 F1500.0 E15 ;Draw the first line
G1 X10.4 Y200.0 Z0.28 F5000.0 ;Move to side a little
G1 X10.4 Y20 Z0.28 F1500.0 E30 ;Draw the second line
G92 E0 ;Reset Extruder
G1 Z2.0 F3000 ;Move Z Axis up
G92 E0
G92 E0
G1 F1500 E-6.25
;LAYER_COUNT:45
;LAYER:0
M107
G0 F6000 X130.802 Y70.517 Z0.2
;TYPE:SKIRT
G1 F1500 E0
G1 F1200 X131.704 Y70.57 E0.03005
G1 X132.597 Y70.702 E0.06008
G1 X133.476 Y70.913 E0.09014
G1 X134.332 Y71.201 E0.12018
G1 X135.159 Y71.563 E0.15021
G1 X135.951 Y71.997 E0.18025
G1 X136.701 Y72.5 E0.21028
G1 X137.567 Y73.213 E0.24759
G1 X137.719 Y73.353 E0.25446
G1 X138.186 Y73.805 E0.27608
G1 X138.952 Y74.571 E0.31211
G1 X139.433 Y75.065 E0.33504
G1 X140.034 Y75.74 E0.3651
G1 X140.573 Y76.464 E0.39512
G1 X141.045 Y77.234 E0.42516
G1 X141.448 Y78.042 E0.45519
G1 X141.777 Y78.883 E0.48523
G1 X142.031 Y79.75 E0.51528
G1 X142.207 Y80.636 E0.54532
G1 X142.323 Y81.981 E0.59022
G1 X142.336 Y82.741 E0.61551
G1 X142.336 Y152.114 E2.92286
G1 X142.335 Y152.26 E2.92772
G1 X142.325 Y152.958 E2.95093
G1 X142.272 Y153.86 E2.98099
G1 X142.14 Y154.753 E3.01101
G1 X141.929 Y155.631 E3.04104
G1 X141.641 Y156.487 E3.07108
G1 X141.279 Y157.314 E3.10111
G1 X140.844 Y158.106 E3.13116
G1 X140.342 Y158.857 E3.16121
G1 X139.775 Y159.56 E3.19125
G1 X139.409 Y159.953 E3.20911
G1 X138.292 Y161.088 E3.26207
G1 X137.779 Y161.588 E3.2859
G1 X137.105 Y162.19 E3.31596
G1 X136.381 Y162.729 E3.34598
G1 X135.611 Y163.202 E3.37604
G1 X134.803 Y163.605 E3.40607
G1 X133.963 Y163.935 E3.43608
G1 X133.096 Y164.189 E3.46613
G1 X132.21 Y164.365 E3.49618
G1 X131.313 Y164.463 E3.52619
G1 X130.84 Y164.482 E3.54193
G1 X130.093 Y164.494 E3.56678
G1 X119.312 Y164.492 E3.92536
G1 X118.613 Y164.482 E3.94861
G1 X117.712 Y164.429 E3.97863
G1 X116.818 Y164.297 E4.00869
G1 X115.94 Y164.086 E4.03872
G1 X114.975 Y163.755 E4.07265
G1 X114.012 Y163.369 E4.10716
G1 X113.297 Y163.068 E4.13296
G1 X110.942 Y162.159 E4.21692
G1 X108.518 Y161.3 E4.30246
G1 X106.15 Y160.535 E4.38522
G1 X103.689 Y159.816 E4.4705
G1 X102.472 Y159.498 E4.51234
G1 X101.637 Y159.268 E4.54114
G1 X100.778 Y158.99 E4.57117
G1 X99.947 Y158.637 E4.6012
G1 X99.15 Y158.211 E4.63126
G1 X98.394 Y157.717 E4.6613
G1 X97.456 Y156.955 E4.70149
G1 X97.301 Y156.813 E4.70848
G1 X96.873 Y156.402 E4.72822
G1 X96.036 Y155.564 E4.76761
G1 X95.567 Y155.082 E4.78998
G1 X94.966 Y154.408 E4.82002
G1 X94.428 Y153.683 E4.85004
G1 X93.955 Y152.913 E4.8801
G1 X93.553 Y152.104 E4.91015
G1 X93.224 Y151.263 E4.94018
G1 X92.97 Y150.397 E4.9702
G1 X92.794 Y149.511 E5.00024
G1 X92.679 Y148.185 E5.04451
G1 X92.665 Y147.405 E5.07046
G1 X92.665 Y142.742 E5.22555
G1 X92.675 Y142.024 E5.24943
G1 X92.728 Y141.122 E5.27949
G1 X92.797 Y140.589 E5.29736
G1 X92.86 Y140.189 E5.31083
G1 X93.221 Y138.072 E5.38226
G1 X93.579 Y135.541 E5.46728
G1 X93.864 Y133.012 E5.55192
G1 X94.076 Y130.494 E5.63597
G1 X94.218 Y127.951 E5.72068
G1 X94.287 Y125.426 E5.80469
G1 X94.285 Y122.892 E5.88898
G1 X94.21 Y120.317 E5.97466
G1 X94.067 Y117.828 E6.05758
G1 X93.847 Y115.269 E6.143
G1 X93.557 Y112.741 E6.22764
G1 X93.196 Y110.217 E6.31244
G1 X92.819 Y107.997 E6.38734
G1 X92.707 Y107.1 E6.4174
G1 X92.677 Y106.472 E6.43831
G1 X92.665 Y105.729 E6.46303
G1 X92.665 Y82.743 E7.22755
G1 X92.675 Y82.038 E7.251
G1 X92.728 Y81.137 E7.28102
G1 X92.86 Y80.243 E7.31107
G1 X93.071 Y79.365 E7.34111
G1 X93.359 Y78.509 E7.37114
G1 X93.721 Y77.682 E7.40117
G1 X94.155 Y76.89 E7.43121
G1 X94.657 Y76.139 E7.46125
G1 X95.224 Y75.436 E7.49129
G1 X95.61 Y75.022 E7.51012
G1 X96.732 Y73.888 E7.56318
G1 X97.225 Y73.408 E7.58606
G1 X97.899 Y72.807 E7.6161
G1 X98.624 Y72.268 E7.64615
G1 X99.393 Y71.796 E7.67616
G1 X100.202 Y71.393 E7.70622
G1 X101.043 Y71.064 E7.73625
G1 X101.909 Y70.81 E7.76627
G1 X102.795 Y70.634 E7.79631
G1 X103.693 Y70.537 E7.82636
G1 X104.16 Y70.518 E7.8419
G1 X104.908 Y70.506 E7.86678
G1 X130.101 Y70.507 E8.70471
G1 X130.802 Y70.517 E8.72802
G0 F6000 X130.808 Y70.117
G1 F1200 X131.727 Y70.17 E8.75864
G1 X132.638 Y70.303 E8.78926
G1 X133.534 Y70.514 E8.81988
G1 X134.409 Y70.802 E8.85052
G1 X135.255 Y71.165 E8.88113
G1 X136.066 Y71.6 E8.91174
G1 X136.837 Y72.104 E8.94238
G1 X137.838 Y72.919 E8.98531
G1 X138.377 Y73.43 E9.01002
G1 X139.239 Y74.292 E9.05056
G1 X139.72 Y74.786 E9.07349
G1 X140.333 Y75.473 E9.10412
G1 X140.884 Y76.211 E9.13475
G1 X141.369 Y76.993 E9.16536
G1 X141.784 Y77.815 E9.19598
G1 X142.126 Y78.669 E9.22658
G1 X142.393 Y79.551 E9.25723
G1 X142.583 Y80.451 E9.28782
G1 X142.694 Y81.365 E9.31845
G1 X142.723 Y81.973 E9.33869
G1 X142.736 Y82.741 E9.36424
G1 X142.736 Y152.114 E11.6716
G1 X142.735 Y152.266 E11.67665
G1 X142.725 Y152.964 E11.69987
G1 X142.672 Y153.883 E11.73049
G1 X142.539 Y154.794 E11.76111
G1 X142.328 Y155.69 E11.79172
G1 X142.04 Y156.564 E11.82233
G1 X141.677 Y157.411 E11.85298
G1 X141.242 Y158.222 E11.88359
G1 X140.738 Y158.992 E11.9142
G1 X140.169 Y159.716 E11.94482
G1 X139.695 Y160.233 E11.96815
G1 X138.572 Y161.375 E12.02142
G1 X138.059 Y161.875 E12.04525
G1 X137.372 Y162.488 E12.07587
G1 X136.635 Y163.04 E12.1065
G1 X135.852 Y163.525 E12.13713
G1 X135.031 Y163.941 E12.16775
G1 X134.177 Y164.284 E12.19836
G1 X133.296 Y164.551 E12.22897
G1 X132.395 Y164.741 E12.2596
G1 X131.481 Y164.852 E12.29022
G1 X130.847 Y164.882 E12.31133
G1 X130.093 Y164.894 E12.33642
G1 X119.306 Y164.892 E12.69519
G1 X118.607 Y164.882 E12.71844
G1 X117.688 Y164.829 E12.74906
G1 X116.777 Y164.696 E12.77968
G1 X115.881 Y164.485 E12.8103
G1 X114.827 Y164.127 E12.84732
G1 X113.857 Y163.738 E12.88208
G1 X113.134 Y163.434 E12.90817
G1 X110.801 Y162.533 E12.99135
G1 X108.409 Y161.685 E13.07576
G1 X106.02 Y160.914 E13.15925
G1 X103.581 Y160.201 E13.24377
G1 X102.366 Y159.883 E13.28554
G1 X101.531 Y159.653 E13.31435
G1 X100.655 Y159.371 E13.34496
G1 X99.807 Y159.013 E13.37557
G1 X98.993 Y158.583 E13.40619
G1 X98.219 Y158.084 E13.43682
G1 X97.186 Y157.25 E13.48098
G1 X97.031 Y157.108 E13.48797
G1 X96.593 Y156.688 E13.50815
G1 X95.749 Y155.843 E13.54788
G1 X95.28 Y155.361 E13.57024
G1 X94.667 Y154.674 E13.60087
G1 X94.116 Y153.936 E13.6315
G1 X93.632 Y153.154 E13.66209
G1 X93.217 Y152.332 E13.69271
G1 X92.874 Y151.477 E13.72336
G1 X92.608 Y150.596 E13.75396
G1 X92.418 Y149.695 E13.78459
G1 X92.308 Y148.781 E13.81521
G1 X92.279 Y148.194 E13.83476
G1 X92.265 Y147.405 E13.861
G1 X92.265 Y142.736 E14.01629
G1 X92.275 Y142.018 E14.04018
G1 X92.328 Y141.099 E14.07079
G1 X92.401 Y140.527 E14.08997
G1 X92.466 Y140.122 E14.10362
G1 X92.825 Y138.02 E14.17454
G1 X93.184 Y135.477 E14.25996
G1 X93.463 Y133.001 E14.34283
G1 X93.679 Y130.439 E14.42835
G1 X93.818 Y127.953 E14.51116
G1 X93.887 Y125.416 E14.59557
G1 X93.885 Y122.869 E14.68029
G1 X93.812 Y120.387 E14.76288
G1 X93.665 Y117.814 E14.84859
G1 X93.45 Y115.316 E14.93198
G1 X93.163 Y112.807 E15.01598
G1 X92.804 Y110.301 E15.10018
G1 X92.424 Y108.064 E15.17565
G1 X92.31 Y107.15 E15.20628
G1 X92.277 Y106.479 E15.22863
G1 X92.265 Y105.729 E15.25358
G1 X92.265 Y82.738 E16.01826
G1 X92.275 Y82.033 E16.04171
G1 X92.328 Y81.114 E16.07233
G1 X92.461 Y80.202 E16.10298
G1 X92.672 Y79.306 E16.1336
G1 X92.96 Y78.432 E16.1642
G1 X93.323 Y77.586 E16.19482
G1 X93.758 Y76.774 E16.22546
G1 X94.261 Y76.004 E16.25605
G1 X94.83 Y75.28 E16.28668
G1 X95.325 Y74.741 E16.31102
G1 X96.452 Y73.601 E16.36434
G1 X96.945 Y73.121 E16.38722
G1 X97.632 Y72.508 E16.41785
G1 X98.37 Y71.957 E16.44848
G1 X99.152 Y71.472 E16.47908
G1 X99.974 Y71.057 E16.50971
G1 X100.829 Y70.714 E16.54035
G1 X101.71 Y70.447 E16.57097
G1 X102.611 Y70.258 E16.60159
G1 X103.525 Y70.147 E16.63221
G1 X104.153 Y70.118 E16.65312
G1 X104.908 Y70.106 E16.67824
G1 X130.107 Y70.107 E17.51636
G1 X130.808 Y70.117 E17.53968
G0 F6000 X130.814 Y69.717
G1 F1200 X131.75 Y69.77 E17.57086
G1 X132.679 Y69.903 E17.60207
G1 X133.592 Y70.115 E17.63325
G1 X134.485 Y70.403 E17.66445
G1 X135.349 Y70.767 E17.69564
G1 X136.18 Y71.203 E17.72685
G1 X136.97 Y71.708 E17.75803
G1 X137.714 Y72.278 E17.78921
G1 X138.261 Y72.765 E17.81357
G1 X138.752 Y73.239 E17.83627
G1 X139.525 Y74.013 E17.87265
G1 X140.006 Y74.507 E17.89558
G1 X140.631 Y75.206 E17.92677
G1 X141.194 Y75.956 E17.95796
G1 X141.692 Y76.752 E17.98919
G1 X142.119 Y77.586 E18.02035
G1 X142.474 Y78.454 E18.05154
G1 X142.754 Y79.349 E18.08273
G1 X142.957 Y80.265 E18.11394
G1 X143.081 Y81.195 E18.14514
G1 X143.123 Y81.965 E18.17079
G1 X143.136 Y82.741 E18.19661
G1 X143.136 Y152.114 E20.50396
G1 X143.135 Y152.272 E20.50922
G1 X143.125 Y152.97 E20.53244
G1 X143.071 Y153.906 E20.56362
G1 X142.939 Y154.834 E20.59479
G1 X142.727 Y155.748 E20.626
G1 X142.438 Y156.64 E20.65719
G1 X142.075 Y157.505 E20.68839
G1 X141.639 Y158.335 E20.71957
G1 X141.134 Y159.126 E20.75078
G1 X140.563 Y159.87 E20.78198
G1 X139.981 Y160.513 E20.81082
G1 X138.851 Y161.661 E20.8644
G1 X138.338 Y162.161 E20.88823
G1 X137.639 Y162.787 E20.91944
G1 X136.889 Y163.35 E20.95063
G1 X136.094 Y163.848 E20.98183
G1 X135.26 Y164.276 E21.01301
G1 X134.392 Y164.632 E21.04421
G1 X133.497 Y164.912 E21.0754
G1 X132.581 Y165.115 E21.10661
G1 X131.652 Y165.239 E21.13778
G1 X130.854 Y165.282 E21.16436
G1 X130.093 Y165.294 E21.18967
G1 X119.301 Y165.292 E21.54862
G1 X118.602 Y165.282 E21.57187
G1 X117.665 Y165.228 E21.60308
G1 X116.737 Y165.096 E21.63426
G1 X115.823 Y164.884 E21.66547
G1 X114.678 Y164.498 E21.70566
G1 X113.702 Y164.106 E21.74064
G1 X113.013 Y163.816 E21.7655
G1 X110.659 Y162.907 E21.84943
G1 X108.289 Y162.067 E21.93306
G1 X105.89 Y161.293 E22.0169
G1 X103.473 Y160.587 E22.10065
G1 X102.26 Y160.269 E22.14236
G1 X101.425 Y160.039 E22.17117
G1 X100.532 Y159.752 E22.20236
G1 X99.667 Y159.389 E22.23356
G1 X98.836 Y158.955 E22.26475
G1 X98.045 Y158.451 E22.29594
G1 X97.3 Y157.881 E22.32714
G1 X96.915 Y157.545 E22.34414
G1 X96.76 Y157.403 E22.35113
G1 X96.313 Y156.974 E22.37174
G1 X95.462 Y156.122 E22.41179
G1 X94.993 Y155.64 E22.43416
G1 X94.368 Y154.941 E22.46534
G1 X93.805 Y154.191 E22.49653
G1 X93.308 Y153.395 E22.52775
G1 X92.881 Y152.56 E22.55894
G1 X92.526 Y151.692 E22.59013
G1 X92.247 Y150.797 E22.62131
G1 X92.044 Y149.881 E22.65252
G1 X91.921 Y148.951 E22.68372
G1 X91.879 Y148.202 E22.70867
G1 X91.865 Y147.405 E22.73518
G1 X91.865 Y142.731 E22.89064
G1 X91.875 Y142.013 E22.91452
G1 X91.928 Y141.076 E22.94574
G1 X92.006 Y140.465 E22.96622
G1 X92.072 Y140.055 E22.98003
G1 X92.428 Y137.968 E23.05045
G1 X92.784 Y135.447 E23.13513
G1 X93.069 Y132.924 E23.21958
G1 X93.277 Y130.452 E23.30209
G1 X93.418 Y127.921 E23.3864
G1 X93.487 Y125.405 E23.47012
G1 X93.485 Y122.881 E23.55407
G1 X93.412 Y120.386 E23.63708
G1 X93.267 Y117.87 E23.72091
G1 X93.049 Y115.325 E23.80586
G1 X92.768 Y112.873 E23.88795
G1 X92.406 Y110.345 E23.97289
G1 X92.03 Y108.13 E24.04762
G1 X91.913 Y107.2 E24.07879
G1 X91.877 Y106.486 E24.10257
G1 X91.865 Y105.729 E24.12775
G1 X91.865 Y82.732 E24.89263
G1 X91.875 Y82.027 E24.91608
G1 X91.928 Y81.091 E24.94727
G1 X92.061 Y80.162 E24.97848
G1 X92.273 Y79.248 E25.00969
G1 X92.561 Y78.356 E25.04086
G1 X92.925 Y77.492 E25.07204
G1 X93.36 Y76.661 E25.10324
G1 X93.865 Y75.871 E25.13443
G1 X94.436 Y75.126 E25.16565
G1 X95.04 Y74.461 E25.19553
G1 X96.173 Y73.315 E25.24913
G1 X96.666 Y72.835 E25.27201
G1 X97.366 Y72.21 E25.30322
G1 X98.116 Y71.646 E25.33443
G1 X98.911 Y71.149 E25.36562
G1 X99.746 Y70.721 E25.39683
G1 X100.614 Y70.366 E25.42802
G1 X101.509 Y70.087 E25.4592
G1 X102.424 Y69.884 E25.49037
G1 X103.354 Y69.76 E25.52158
G1 X104.146 Y69.718 E25.54796
G1 X104.908 Y69.706 E25.5733
G1 X130.113 Y69.707 E26.41162
G1 X130.814 Y69.717 E26.43494
G0 F6000 X130.82 Y69.317
G1 F1200 X131.773 Y69.371 E26.46669
G1 X132.718 Y69.504 E26.49843
G1 X133.649 Y69.716 E26.53019
G1 X134.559 Y70.005 E26.56194
G1 X135.442 Y70.369 E26.59371
G1 X136.291 Y70.805 E26.62545
G1 X137.101 Y71.312 E26.65724
G1 X137.865 Y71.884 E26.68898
G1 X138.38 Y72.331 E26.71166
G1 X139.035 Y72.956 E26.74177
G1 X139.812 Y73.734 E26.77835
G1 X140.293 Y74.228 E26.80128
G1 X140.93 Y74.94 E26.83305
G1 X141.505 Y75.702 E26.8648
G1 X142.014 Y76.509 E26.89654
G1 X142.454 Y77.357 E26.92831
G1 X142.821 Y78.238 E26.96006
G1 X143.114 Y79.147 E26.99182
G1 X143.329 Y80.077 E27.02357
G1 X143.466 Y81.022 E27.05533
G1 X143.523 Y81.957 E27.08648
G1 X143.536 Y82.741 E27.11256
G1 X143.536 Y152.114 E29.41992
G1 X143.535 Y152.277 E29.42534
G1 X143.525 Y152.975 E29.44856
G1 X143.471 Y153.929 E29.48034
G1 X143.338 Y154.874 E29.51208
G1 X143.126 Y155.805 E29.54384
G1 X142.837 Y156.715 E29.57559
G1 X142.473 Y157.598 E29.60736
G1 X142.036 Y158.447 E29.63912
G1 X141.53 Y159.256 E29.67086
G1 X140.958 Y160.02 E29.7026
G1 X140.266 Y160.793 E29.73711
G1 X139.13 Y161.948 E29.79099
G1 X138.617 Y162.448 E29.81482
G1 X137.906 Y163.085 E29.84657
G1 X137.144 Y163.66 E29.87832
G1 X136.337 Y164.17 E29.91007
G1 X135.489 Y164.61 E29.94184
G1 X134.608 Y164.978 E29.9736
G1 X133.7 Y165.271 E30.00533
G1 X132.77 Y165.487 E30.03709
G1 X131.825 Y165.624 E30.06885
G1 X130.861 Y165.682 E30.10097
G1 X130.093 Y165.694 E30.12652
G1 X119.295 Y165.692 E30.48566
G1 X118.596 Y165.682 E30.50891
G1 X117.643 Y165.628 E30.54066
G1 X116.697 Y165.495 E30.57243
G1 X115.766 Y165.283 E30.60419
G1 X114.53 Y164.869 E30.64754
G1 X113.547 Y164.475 E30.68277
G1 X112.851 Y164.182 E30.70788
G1 X110.53 Y163.286 E30.79063
G1 X108.138 Y162.438 E30.87504
G1 X105.793 Y161.681 E30.957
G1 X103.366 Y160.972 E31.0411
G1 X102.154 Y160.655 E31.08276
G1 X101.319 Y160.425 E31.11157
G1 X100.41 Y160.133 E31.14333
G1 X99.528 Y159.766 E31.1751
G1 X98.68 Y159.326 E31.20687
G1 X97.873 Y158.818 E31.23859
G1 X97.11 Y158.243 E31.27037
G1 X96.645 Y157.84 E31.29083
G1 X96.49 Y157.698 E31.29783
G1 X95.945 Y157.172 E31.32302
G1 X95.176 Y156.401 E31.35924
G1 X94.707 Y155.919 E31.3816
G1 X94.07 Y155.208 E31.41335
G1 X93.495 Y154.445 E31.44513
G1 X92.986 Y153.637 E31.47689
G1 X92.546 Y152.79 E31.50864
G1 X92.179 Y151.908 E31.54041
G1 X91.887 Y150.999 E31.57217
G1 X91.672 Y150.069 E31.60392
G1 X91.536 Y149.124 E31.63567
G1 X91.48 Y148.211 E31.66609
G1 X91.465 Y147.406 E31.69287
G1 X91.465 Y142.725 E31.84856
G1 X91.475 Y142.007 E31.87245
G1 X91.528 Y141.054 E31.90419
G1 X91.611 Y140.403 E31.92602
G1 X91.677 Y139.987 E31.94003
G1 X92.037 Y137.876 E32.01126
G1 X92.39 Y135.379 E32.09513
G1 X92.668 Y132.918 E32.17751
G1 X92.879 Y130.4 E32.26155
G1 X93.018 Y127.921 E32.34413
G1 X93.087 Y125.394 E32.42821
G1 X93.085 Y122.894 E32.51136
G1 X93.011 Y120.385 E32.59485
G1 X92.868 Y117.891 E32.67793
G1 X92.655 Y115.407 E32.76085
G1 X92.368 Y112.904 E32.84465
G1 X92.008 Y110.391 E32.92909
G1 X91.636 Y108.197 E33.0031
G1 X91.516 Y107.25 E33.03485
G1 X91.477 Y106.493 E33.06006
G1 X91.465 Y105.729 E33.08547
G1 X91.465 Y82.726 E33.85056
G1 X91.475 Y82.021 E33.87401
G1 X91.529 Y81.068 E33.90576
G1 X91.662 Y80.123 E33.9375
G1 X91.873 Y79.192 E33.96925
G1 X92.162 Y78.282 E34.001
G1 X92.526 Y77.399 E34.03277
G1 X92.963 Y76.55 E34.06453
G1 X93.469 Y75.74 E34.09629
G1 X94.041 Y74.976 E34.12804
G1 X94.756 Y74.18 E34.16362
G1 X95.894 Y73.028 E34.21748
G1 X96.387 Y72.548 E34.24037
G1 X97.099 Y71.911 E34.27214
G1 X97.861 Y71.336 E34.30389
G1 X98.669 Y70.827 E34.33566
G1 X99.516 Y70.387 E34.3674
G1 X100.397 Y70.02 E34.39914
G1 X101.306 Y69.727 E34.43091
G1 X102.236 Y69.512 E34.46266
G1 X103.181 Y69.375 E34.49442
G1 X104.139 Y69.318 E34.52634
G1 X104.908 Y69.306 E34.55192
G1 X130.119 Y69.307 E35.39044
G1 X130.82 Y69.317 E35.41376
G1 F1500 E29.16376
;MESH:Covid_Pusher.stl
G0 F6000 X132.8 Y82.091
G0 X132.801 Y82.674
G0 X132.124 Y82.674
G0 X131.936 Y82.954
