;FLAVOR:Marlin
;TIME:763
;Filament used: 0.501382m
;Layer height: 0.2
;MINX:96.06
;MINY:92.739
;MINZ:0.2
;MAXX:138.94
;MAXY:141.721
;MAXZ:5.2
;Generated with Cura_SteamEngine 4.6.1
M140 S60
M105
M190 S60
M104 S200
M105
M109 S200
M82 ;absolute extrusion mode
M201 X500.00 Y500.00 Z100.00 E5000.00 ;Setup machine max acceleration
M203 X500.00 Y500.00 Z10.00 E50.00 ;Setup machine max feedrate
M204 P500.00 R1000.00 T500.00 ;Setup Print/Retract/Travel acceleration
M205 X8.00 Y8.00 Z0.40 E5.00 ;Setup Jerk
M220 S100 ;Reset Feedrate
M221 S100 ;Reset Flowrate

G28 ;Home

G92 E0 ;Reset Extruder
G1 Z2.0 F3000 ;Move Z Axis up
G1 X10.1 Y20 Z0.28 F5000.0 ;Move to start position
G1 X10.1 Y200.0 Z0.28 F1500.0 E15 ;Draw the first line
G1 X10.4 Y200.0 Z0.28 F5000.0 ;Move to side a little
G1 X10.4 Y20 Z0.28 F1500.0 E30 ;Draw the second line
G92 E0 ;Reset Extruder
G1 Z2.0 F3000 ;Move Z Axis up
G92 E0
G92 E0
G1 F1500 E-6.25
;LAYER_COUNT:26
;LAYER:0
M107
G0 F6000 X121.895 Y93.95 Z0.2
;TYPE:SKIRT
G1 F1500 E0
G1 F1200 X122.797 Y94.003 E0.03005
G1 X123.69 Y94.135 E0.06008
G1 X124.568 Y94.346 E0.09011
G1 X125.239 Y94.565 E0.11359
G1 X125.994 Y94.841 E0.14032
G1 X127.416 Y95.388 E0.191
G1 X129.79 Y96.225 E0.27472
G1 X130.788 Y96.562 E0.30976
G1 X131.63 Y96.889 E0.3398
G1 X132.44 Y97.288 E0.36983
G1 X133.212 Y97.758 E0.39989
G1 X133.938 Y98.294 E0.42991
G1 X134.615 Y98.892 E0.45995
G1 X135.236 Y99.548 E0.48999
G1 X135.797 Y100.256 E0.52004
G1 X136.292 Y101.011 E0.55007
G1 X136.719 Y101.806 E0.58008
G1 X137.074 Y102.637 E0.61014
G1 X137.354 Y103.495 E0.64015
G1 X137.558 Y104.375 E0.6702
G1 X137.682 Y105.27 E0.70025
G1 X137.719 Y105.818 E0.71852
G1 X137.732 Y106.142 E0.7293
G1 X137.74 Y106.551 E0.74291
G1 X137.739 Y126.362 E1.40183
G1 X137.729 Y127.083 E1.42581
G1 X137.677 Y127.985 E1.45586
G1 X137.544 Y128.878 E1.48589
G1 X137.334 Y129.757 E1.51595
G1 X137.047 Y130.613 E1.54598
G1 X136.685 Y131.44 E1.576
G1 X136.251 Y132.232 E1.60604
G1 X135.749 Y132.983 E1.63608
G1 X135.182 Y133.686 E1.66612
G1 X134.556 Y134.337 E1.69616
G1 X133.874 Y134.929 E1.7262
G1 X133.143 Y135.459 E1.75623
G1 X132.367 Y135.922 E1.78629
G1 X131.554 Y136.315 E1.81632
G1 X130.709 Y136.634 E1.84636
G1 X130.07 Y136.821 E1.86851
G1 X129.008 Y137.092 E1.90496
G1 X116.263 Y140.113 E2.34061
G1 X115.616 Y140.258 E2.36266
G1 X114.726 Y140.416 E2.39272
G1 X113.561 Y140.503 E2.43158
G1 X112.459 Y140.521 E2.46824
G1 X108.03 Y140.521 E2.61555
G1 X107.325 Y140.511 E2.639
G1 X106.424 Y140.458 E2.66902
G1 X105.53 Y140.326 E2.69907
G1 X104.652 Y140.115 E2.72911
G1 X103.796 Y139.827 E2.75915
G1 X102.969 Y139.465 E2.78917
G1 X102.177 Y139.031 E2.81921
G1 X101.426 Y138.529 E2.84925
G1 X100.723 Y137.962 E2.87929
G1 X100.073 Y137.335 E2.90933
G1 X99.481 Y136.653 E2.93937
G1 X98.951 Y135.922 E2.9694
G1 X98.488 Y135.146 E2.99945
G1 X98.096 Y134.333 E3.02947
G1 X97.777 Y133.488 E3.05951
G1 X97.534 Y132.618 E3.08956
G1 X97.369 Y131.73 E3.1196
G1 X97.274 Y130.614 E3.15685
G1 X97.26 Y129.974 E3.17814
G1 X97.261 Y106.742 E3.95084
G1 X97.271 Y106.077 E3.97296
G1 X97.325 Y105.175 E4.00302
G1 X97.458 Y104.282 E4.03305
G1 X97.669 Y103.404 E4.06308
G1 X97.958 Y102.548 E4.09313
G1 X98.321 Y101.721 E4.12317
G1 X98.755 Y100.93 E4.15318
G1 X99.258 Y100.179 E4.18324
G1 X99.826 Y99.477 E4.21328
G1 X100.453 Y98.827 E4.24331
G1 X101.135 Y98.235 E4.27335
G1 X101.867 Y97.706 E4.30339
G1 X102.643 Y97.244 E4.33343
G1 X103.457 Y96.853 E4.36346
G1 X104.007 Y96.636 E4.38313
G1 X104.507 Y96.458 E4.40078
G1 X106.409 Y95.815 E4.46756
G1 X109.532 Y94.647 E4.57846
G1 X110.391 Y94.368 E4.6085
G1 X111.099 Y94.199 E4.63271
G1 X111.378 Y94.143 E4.64217
G1 X112.27 Y94.005 E4.67219
G1 X113.26 Y93.945 E4.70518
G1 X113.794 Y93.939 E4.72294
G1 X121.197 Y93.94 E4.96917
G1 X121.895 Y93.95 E4.99238
G0 F6000 X121.901 Y93.55
G1 F1200 X122.82 Y93.603 E5.023
G1 X123.731 Y93.736 E5.05362
G1 X124.627 Y93.947 E5.08424
G1 X125.376 Y94.189 E5.11042
G1 X126.137 Y94.468 E5.13738
G1 X127.544 Y95.009 E5.18751
G1 X129.903 Y95.841 E5.27071
G1 X130.916 Y96.183 E5.30627
G1 X131.775 Y96.515 E5.3369
G1 X132.601 Y96.921 E5.36751
G1 X133.39 Y97.396 E5.39815
G1 X134.134 Y97.938 E5.42876
G1 X134.828 Y98.543 E5.45938
G1 X135.468 Y99.205 E5.49001
G1 X136.047 Y99.921 E5.52063
G1 X136.562 Y100.684 E5.55125
G1 X137.009 Y101.489 E5.58188
G1 X137.384 Y102.329 E5.61247
G1 X137.685 Y103.199 E5.64309
G1 X137.91 Y104.092 E5.67372
G1 X138.056 Y105.001 E5.70434
G1 X138.118 Y105.802 E5.73106
G1 X138.131 Y106.126 E5.74185
G1 X138.14 Y106.551 E5.75599
G1 X138.139 Y126.368 E6.4151
G1 X138.129 Y127.089 E6.43909
G1 X138.076 Y128.008 E6.4697
G1 X137.944 Y128.919 E6.50032
G1 X137.733 Y129.815 E6.53094
G1 X137.445 Y130.69 E6.56158
G1 X137.083 Y131.536 E6.59218
G1 X136.648 Y132.348 E6.62282
G1 X136.145 Y133.119 E6.65344
G1 X135.576 Y133.843 E6.68406
G1 X134.947 Y134.515 E6.71468
G1 X134.262 Y135.13 E6.7453
G1 X133.526 Y135.683 E6.77592
G1 X132.745 Y136.17 E6.80653
G1 X131.924 Y136.588 E6.83717
G1 X131.071 Y136.933 E6.86777
G1 X130.17 Y137.208 E6.89911
G1 X129.101 Y137.481 E6.9358
G1 X116.35 Y140.503 E7.37165
G1 X115.703 Y140.648 E7.3937
G1 X114.797 Y140.811 E7.42432
G1 X113.568 Y140.903 E7.46531
G1 X112.459 Y140.921 E7.5022
G1 X108.025 Y140.921 E7.64968
G1 X107.32 Y140.911 E7.67313
G1 X106.401 Y140.858 E7.70375
G1 X105.489 Y140.725 E7.7344
G1 X104.593 Y140.514 E7.76502
G1 X103.719 Y140.226 E7.79562
G1 X102.873 Y139.863 E7.82624
G1 X102.061 Y139.428 E7.85688
G1 X101.291 Y138.925 E7.88747
G1 X100.567 Y138.356 E7.9181
G1 X99.895 Y137.727 E7.94871
G1 X99.28 Y137.041 E7.97936
G1 X98.727 Y136.305 E8.00997
G1 X98.24 Y135.524 E8.04059
G1 X97.822 Y134.703 E8.07123
G1 X97.478 Y133.85 E8.10182
G1 X97.208 Y132.969 E8.13247
G1 X97.017 Y132.069 E8.16307
G1 X96.904 Y131.155 E8.1937
G1 X96.875 Y130.625 E8.21135
G1 X96.86 Y129.974 E8.23301
G1 X96.861 Y106.736 E9.00591
G1 X96.871 Y106.071 E9.02803
G1 X96.925 Y105.152 E9.05865
G1 X97.058 Y104.241 E9.08927
G1 X97.27 Y103.345 E9.1199
G1 X97.559 Y102.47 E9.15054
G1 X97.923 Y101.625 E9.18115
G1 X98.358 Y100.814 E9.21176
G1 X98.863 Y100.043 E9.24241
G1 X99.432 Y99.32 E9.27301
G1 X100.062 Y98.648 E9.30365
G1 X100.748 Y98.034 E9.33427
G1 X101.484 Y97.482 E9.36487
G1 X102.266 Y96.995 E9.39551
G1 X103.087 Y96.579 E9.42612
G1 X103.871 Y96.26 E9.45427
G1 X104.379 Y96.079 E9.47221
G1 X106.268 Y95.441 E9.53852
G1 X109.392 Y94.272 E9.64947
G1 X110.267 Y93.987 E9.68007
G1 X111.02 Y93.807 E9.70582
G1 X111.299 Y93.751 E9.71529
G1 X112.209 Y93.609 E9.74592
G1 X113.255 Y93.545 E9.78078
G1 X113.794 Y93.539 E9.7987
G1 X121.203 Y93.54 E10.04513
G1 X121.901 Y93.55 E10.06835
G0 F6000 X121.907 Y93.15
G1 F1200 X122.843 Y93.204 E10.09953
G1 X123.771 Y93.336 E10.13071
G1 X124.685 Y93.548 E10.16191
G1 X125.512 Y93.813 E10.1908
G1 X126.281 Y94.095 E10.21804
G1 X127.684 Y94.634 E10.26803
G1 X130.016 Y95.457 E10.35028
G1 X131.044 Y95.804 E10.38637
G1 X131.919 Y96.142 E10.41756
G1 X132.762 Y96.553 E10.44876
G1 X133.567 Y97.034 E10.47995
G1 X134.328 Y97.582 E10.51114
G1 X135.04 Y98.192 E10.54232
G1 X135.697 Y98.862 E10.57353
G1 X136.295 Y99.584 E10.60471
G1 X136.829 Y100.355 E10.63591
G1 X137.295 Y101.169 E10.6671
G1 X137.691 Y102.02 E10.69832
G1 X138.012 Y102.901 E10.72951
G1 X138.257 Y103.806 E10.76069
G1 X138.424 Y104.729 E10.79189
G1 X138.518 Y105.786 E10.82719
G1 X138.531 Y106.11 E10.83797
G1 X138.54 Y106.551 E10.85264
G1 X138.539 Y126.374 E11.51196
G1 X138.529 Y127.095 E11.53594
G1 X138.476 Y128.031 E11.56712
G1 X138.343 Y128.959 E11.5983
G1 X138.132 Y129.873 E11.6295
G1 X137.844 Y130.766 E11.66071
G1 X137.481 Y131.63 E11.69188
G1 X137.045 Y132.461 E11.72309
G1 X136.541 Y133.251 E11.75426
G1 X135.97 Y133.996 E11.78548
G1 X135.339 Y134.689 E11.81665
G1 X134.65 Y135.326 E11.84786
G1 X133.91 Y135.902 E11.87905
G1 X133.124 Y136.413 E11.91023
G1 X132.297 Y136.856 E11.94144
G1 X131.435 Y137.226 E11.97264
G1 X130.269 Y137.595 E12.01331
G1 X129.193 Y137.87 E12.05025
G1 X116.438 Y140.894 E12.48624
G1 X115.791 Y141.039 E12.5083
G1 X114.867 Y141.205 E12.53952
G1 X113.575 Y141.303 E12.58262
G1 X112.46 Y141.321 E12.61971
G1 X108.019 Y141.321 E12.76741
G1 X107.314 Y141.311 E12.79087
G1 X106.378 Y141.258 E12.82205
G1 X105.449 Y141.125 E12.85326
G1 X104.535 Y140.913 E12.88447
G1 X103.643 Y140.625 E12.91564
G1 X102.779 Y140.261 E12.94683
G1 X101.948 Y139.826 E12.97802
G1 X101.158 Y139.321 E13.00921
G1 X100.413 Y138.75 E13.04043
G1 X99.72 Y138.118 E13.07162
G1 X99.083 Y137.43 E13.10281
G1 X98.507 Y136.69 E13.134
G1 X97.997 Y135.903 E13.16519
G1 X97.555 Y135.076 E13.19638
G1 X97.185 Y134.214 E13.22758
G1 X96.89 Y133.323 E13.25879
G1 X96.672 Y132.411 E13.28998
G1 X96.533 Y131.484 E13.32116
G1 X96.475 Y130.637 E13.3494
G1 X96.46 Y129.974 E13.37145
G1 X96.461 Y106.73 E14.14455
G1 X96.471 Y106.065 E14.16667
G1 X96.525 Y105.128 E14.19789
G1 X96.659 Y104.2 E14.22907
G1 X96.871 Y103.286 E14.26028
G1 X97.16 Y102.394 E14.29147
G1 X97.525 Y101.53 E14.32266
G1 X97.961 Y100.7 E14.35385
G1 X98.467 Y99.91 E14.38505
G1 X99.038 Y99.166 E14.41624
G1 X99.67 Y98.473 E14.44744
G1 X100.359 Y97.837 E14.47862
G1 X101.1 Y97.262 E14.50982
G1 X101.887 Y96.752 E14.54101
G1 X102.715 Y96.311 E14.57221
G1 X103.736 Y95.883 E14.60903
G1 X104.251 Y95.7 E14.62721
G1 X106.126 Y95.066 E14.69304
G1 X109.252 Y93.897 E14.80405
G1 X110.143 Y93.607 E14.83521
G1 X110.941 Y93.415 E14.86251
G1 X111.22 Y93.359 E14.87198
G1 X112.147 Y93.214 E14.90318
G1 X113.251 Y93.145 E14.93997
G1 X113.794 Y93.139 E14.95804
G1 X121.209 Y93.14 E15.20466
G1 X121.907 Y93.15 E15.22788
G0 F6000 X121.912 Y92.75
G1 F1200 X122.866 Y92.804 E15.25966
G1 X123.811 Y92.937 E15.2914
G1 X124.742 Y93.149 E15.32316
G1 X125.649 Y93.437 E15.35481
G1 X126.425 Y93.721 E15.38229
G1 X127.856 Y94.271 E15.43328
G1 X130.128 Y95.073 E15.51342
G1 X131.172 Y95.425 E15.55006
G1 X132.063 Y95.768 E15.58182
G1 X132.922 Y96.184 E15.61356
G1 X133.744 Y96.671 E15.64534
G1 X134.521 Y97.225 E15.67708
G1 X135.25 Y97.842 E15.70884
G1 X135.925 Y98.517 E15.74059
G1 X136.54 Y99.247 E15.77234
G1 X137.093 Y100.026 E15.80412
G1 X137.578 Y100.848 E15.83586
G1 X137.993 Y101.708 E15.86762
G1 X138.335 Y102.6 E15.89939
G1 X138.6 Y103.517 E15.93114
G1 X138.788 Y104.453 E15.9629
G1 X138.918 Y105.77 E16.00691
G1 X138.931 Y106.094 E16.0177
G1 X138.94 Y106.551 E16.0329
G1 X138.939 Y126.379 E16.69238
G1 X138.929 Y127.1 E16.71636
G1 X138.876 Y128.053 E16.74811
G1 X138.743 Y128.999 E16.77988
G1 X138.531 Y129.93 E16.81164
G1 X138.243 Y130.84 E16.84339
G1 X137.879 Y131.723 E16.87515
G1 X137.443 Y132.572 E16.9069
G1 X136.937 Y133.382 E16.93866
G1 X136.365 Y134.146 E16.97041
G1 X135.731 Y134.86 E17.00217
G1 X135.04 Y135.519 E17.03392
G1 X134.296 Y136.117 E17.06567
G1 X133.504 Y136.651 E17.09744
G1 X132.671 Y137.117 E17.12919
G1 X131.801 Y137.512 E17.16097
G1 X130.902 Y137.832 E17.19271
G1 X130.369 Y137.983 E17.21113
G1 X129.285 Y138.259 E17.24834
G1 X116.525 Y141.284 E17.6845
G1 X115.878 Y141.429 E17.70655
G1 X114.938 Y141.599 E17.73832
G1 X113.582 Y141.703 E17.78356
G1 X112.46 Y141.721 E17.82088
G1 X108.013 Y141.721 E17.96879
G1 X107.308 Y141.711 E17.99224
G1 X106.355 Y141.657 E18.02399
G1 X105.41 Y141.524 E18.05573
G1 X104.479 Y141.313 E18.08748
G1 X103.569 Y141.024 E18.11923
G1 X102.686 Y140.66 E18.151
G1 X101.837 Y140.223 E18.18276
G1 X101.027 Y139.717 E18.21452
G1 X100.263 Y139.145 E18.24627
G1 X99.549 Y138.511 E18.27803
G1 X98.891 Y137.819 E18.30979
G1 X98.293 Y137.075 E18.34153
G1 X97.759 Y136.283 E18.3733
G1 X97.293 Y135.45 E18.40505
G1 X96.899 Y134.58 E18.43682
G1 X96.579 Y133.68 E18.46859
G1 X96.335 Y132.757 E18.50034
G1 X96.17 Y131.817 E18.53208
G1 X96.075 Y130.649 E18.57106
G1 X96.06 Y129.974 E18.59351
G1 X96.061 Y106.724 E19.36681
G1 X96.071 Y106.059 E19.38893
G1 X96.126 Y105.105 E19.42072
G1 X96.26 Y104.16 E19.45246
G1 X96.472 Y103.229 E19.48422
G1 X96.762 Y102.319 E19.51599
G1 X97.127 Y101.437 E19.54773
G1 X97.564 Y100.588 E19.57949
G1 X98.071 Y99.779 E19.61125
G1 X98.643 Y99.015 E19.64299
G1 X99.278 Y98.302 E19.67475
G1 X99.97 Y97.644 E19.70651
G1 X100.715 Y97.047 E19.73826
G1 X101.507 Y96.514 E19.77001
G1 X102.341 Y96.049 E19.80177
G1 X103.6 Y95.507 E19.84736
G1 X104.123 Y95.321 E19.86582
G1 X106.002 Y94.686 E19.93179
G1 X109.111 Y93.523 E20.04219
G1 X110.019 Y93.226 E20.07397
G1 X110.863 Y93.023 E20.10284
G1 X111.142 Y92.967 E20.11231
G1 X112.085 Y92.818 E20.14406
G1 X113.246 Y92.745 E20.18275
G1 X113.794 Y92.739 E20.20098
G1 X121.214 Y92.74 E20.44777
G1 X121.912 Y92.75 E20.47099
G0 F6000 X113.713 Y104.739
G1 F1200 X121.275 Y104.739 E20.7225
G1 X121.275 Y104.821 E20.72523
G1 X113.713 Y104.821 E20.97674
G1 X113.713 Y104.739 E20.97947
G0 F6000 X113.315 Y104.339
G1 F1200 X121.675 Y104.339 E21.25752
G1 X121.675 Y105.221 E21.28686
G1 X113.312 Y105.221 E21.56501
G1 X113.315 Y104.339 E21.59435
G1 F1500 E15.34435
;MESH:7732b9fe-f97f-4cee-a7c6-711f7b8379ad.stl
G0 F6000 X113.315 Y106.641
G0 X108.642 Y107.403
G0 X108.46 Y129.322
;TYPE:WALL-INNER
G1 F1500 E21.59435
G1 F1200 X108.46 Y129.123 E21.60097
G1 X108.46 Y107.221 E22.32943
G1 X126.54 Y107.221 E22.93077
G1 X126.54 Y126.167 E23.56092
G1 X113.238 Y129.321 E24.01561
G1 X108.659 Y129.322 E24.16791
G1 X108.46 Y129.322 E24.17219
G0 F6000 X108.259 Y129.722
G1 F1200 X108.06 Y129.722 E24.17881
G1 X108.06 Y129.523 E24.18309
G1 X108.06 Y106.821 E24.93817
G1 X126.94 Y106.821 E25.56612
G1 X126.94 Y126.483 E26.22008
G1 X126.633 Y126.555 E26.23057
G1 X113.284 Y129.721 E26.68687
G1 X108.259 Y129.722 E26.854
G0 F6000 X107.66 Y130.122
;TYPE:WALL-OUTER
G1 F1200 X107.66 Y106.421 E27.6423
G1 X127.34 Y106.421 E28.29686
G1 X127.34 Y126.799 E28.97464
G1 X113.33 Y130.121 E29.45353
G1 X107.66 Y130.122 E29.64212
G0 F6000 X107.93 Y129.852
G0 X108.57 Y128.932
G0 X108.85 Y128.932
;TYPE:SKIN
G1 F1200 X108.85 Y107.611 E30.35126
G1 X126.15 Y107.611 E30.92666
G1 X126.15 Y125.859 E31.53359
G1 X113.19 Y128.931 E31.97658
G1 X108.85 Y128.932 E32.12093
G0 F6000 X109.25 Y128.532
G1 F1200 X109.25 Y108.011 E32.80346
G1 X125.75 Y108.011 E33.35226
G1 X125.75 Y125.543 E33.93537
G1 X113.144 Y128.531 E34.36627
G1 X109.25 Y128.532 E34.49578
G0 F6000 X109.61 Y128.171
G1 F1200 X110.068 Y128.17 E34.51102
G1 X109.609 Y127.711 E34.5326
G1 X109.609 Y127.145 E34.55143
G1 X110.634 Y128.17 E34.59964
G1 X111.2 Y128.17 E34.61847
G1 X109.609 Y126.579 E34.6933
G1 X109.609 Y126.014 E34.7121
G1 X111.765 Y128.17 E34.81351
G1 X112.33 Y128.17 E34.8323
G1 X109.609 Y125.448 E34.96031
G1 X109.609 Y124.882 E34.97914
G1 X112.896 Y128.17 E35.13377
G1 X113.098 Y128.17 E35.14049
G1 X113.392 Y128.1 E35.15054
G1 X109.609 Y124.317 E35.32848
G1 X109.609 Y123.751 E35.34731
G1 X113.849 Y127.991 E35.54674
G1 X114.306 Y127.883 E35.56236
G1 X109.609 Y123.185 E35.78332
G1 X109.609 Y122.62 E35.80211
G1 X114.764 Y127.774 E36.04456
G1 X115.221 Y127.666 E36.06018
G1 X109.609 Y122.054 E36.32415
G1 X109.609 Y121.488 E36.34298
G1 X115.679 Y127.558 E36.62849
G1 X116.135 Y127.449 E36.64408
G1 X109.609 Y120.923 E36.95105
G1 X109.609 Y120.357 E36.96987
G1 X116.593 Y127.341 E37.29838
G1 X117.05 Y127.233 E37.314
G1 X109.609 Y119.791 E37.66402
G1 X109.609 Y119.225 E37.68285
G1 X117.508 Y127.125 E38.05442
G1 X117.965 Y127.016 E38.07004
G1 X109.609 Y118.66 E38.46308
G1 X109.609 Y118.094 E38.48191
G1 X118.422 Y126.907 E38.89644
G1 X118.88 Y126.799 E38.9121
G1 X109.609 Y117.528 E39.34817
G1 X109.609 Y116.963 E39.36697
G1 X119.337 Y126.691 E39.82454
G1 X119.794 Y126.582 E39.84017
G1 X109.609 Y116.397 E40.31924
G1 X109.609 Y115.831 E40.33806
G1 X120.251 Y126.474 E40.83866
G1 X120.709 Y126.366 E40.85431
G1 X109.609 Y115.266 E41.37642
G1 X109.609 Y114.7 E41.39524
G1 X121.166 Y126.258 E41.93887
G1 X121.623 Y126.149 E41.9545
G1 X109.609 Y114.134 E42.51962
G1 X109.609 Y113.569 E42.53841
G1 X122.081 Y126.041 E43.12506
G1 X122.538 Y125.932 E43.14069
G1 X109.609 Y113.003 E43.74883
G1 X109.609 Y112.437 E43.76765
G1 X122.995 Y125.823 E44.39729
G1 X123.453 Y125.715 E44.41294
G1 X109.609 Y111.872 E45.06409
G1 X109.609 Y111.306 E45.08292
G1 X123.91 Y125.607 E45.75559
G1 X124.368 Y125.499 E45.77125
G1 X109.609 Y110.74 E46.46546
G1 X109.609 Y110.175 E46.48426
G1 X124.824 Y125.39 E47.19992
G1 X125.282 Y125.282 E47.21557
G1 X109.609 Y109.609 E47.95278
