;FLAVOR:Marlin
;TIME:3909
;Filament used: 2.9559m
;Layer height: 0.2
;MINX:79.044
;MINY:79.768
;MINZ:0.2
;MAXX:155.956
;MAXY:155.232
;MAXZ:4.8
;Generated with Cura_SteamEngine 4.6.1
M140 S60
M105
M190 S60
M104 S200
M105
M109 S200
M82 ;absolute extrusion mode
M201 X500.00 Y500.00 Z100.00 E5000.00 ;Setup machine max acceleration
M203 X500.00 Y500.00 Z10.00 E50.00 ;Setup machine max feedrate
M204 P500.00 R1000.00 T500.00 ;Setup Print/Retract/Travel acceleration
M205 X8.00 Y8.00 Z0.40 E5.00 ;Setup Jerk
M220 S100 ;Reset Feedrate
M221 S100 ;Reset Flowrate

G28 ;Home

G92 E0 ;Reset Extruder
G1 Z2.0 F3000 ;Move Z Axis up
G1 X10.1 Y20 Z0.28 F5000.0 ;Move to start position
G1 X10.1 Y200.0 Z0.28 F1500.0 E15 ;Draw the first line
G1 X10.4 Y200.0 Z0.28 F5000.0 ;Move to side a little
G1 X10.4 Y20 Z0.28 F1500.0 E30 ;Draw the second line
G92 E0 ;Reset Extruder
G1 Z2.0 F3000 ;Move Z Axis up
G92 E0
G92 E0
G1 F1500 E-6.25
;LAYER_COUNT:24
;LAYER:0
M107
G0 F6000 X144.946 Y81.033 Z0.2
;TYPE:SKIRT
G1 F1500 E0
G1 F1200 X145.845 Y81.124 E0.03005
G1 X146.732 Y81.295 E0.0601
G1 X147.6 Y81.543 E0.09012
G1 X148.443 Y81.866 E0.12015
G1 X149.254 Y82.264 E0.1502
G1 X150.027 Y82.731 E0.18023
G1 X150.755 Y83.265 E0.21026
G1 X151.434 Y83.861 E0.24031
G1 X151.889 Y84.327 E0.26197
G1 X152.042 Y84.494 E0.26951
G1 X152.622 Y85.186 E0.29954
G1 X153.138 Y85.927 E0.32957
G1 X153.587 Y86.71 E0.35959
G1 X153.965 Y87.531 E0.38965
G1 X154.269 Y88.381 E0.41968
G1 X154.496 Y89.255 E0.44971
G1 X154.646 Y90.146 E0.47976
G1 X154.712 Y90.945 E0.50643
G1 X154.747 Y91.758 E0.5335
G1 X154.756 Y92.198 E0.54813
G1 X154.751 Y142.981 E2.23718
G1 X154.742 Y143.665 E2.25993
G1 X154.69 Y144.567 E2.28999
G1 X154.559 Y145.46 E2.32
G1 X154.349 Y146.339 E2.35006
G1 X154.062 Y147.195 E2.38009
G1 X153.676 Y148.073 E2.41199
G1 X153.584 Y148.258 E2.41886
G1 X153.146 Y149.048 E2.44891
G1 X152.641 Y149.796 E2.47892
G1 X152.071 Y150.497 E2.50897
G1 X151.441 Y151.144 E2.53901
G1 X150.757 Y151.733 E2.56903
G1 X150.121 Y152.196 E2.5952
G1 X149.354 Y152.674 E2.62526
G1 X148.548 Y153.081 E2.65529
G1 X147.71 Y153.416 E2.6853
G1 X146.845 Y153.676 E2.71535
G1 X145.96 Y153.858 E2.7454
G1 X145.302 Y153.941 E2.76746
G1 X144.833 Y153.985 E2.78312
G1 X143.964 Y154.03 E2.81207
G1 X143.722 Y154.032 E2.82011
G1 X91.349 Y154.031 E4.56205
G1 X90.652 Y154.021 E4.58523
G1 X89.75 Y153.968 E4.61528
G1 X88.857 Y153.836 E4.64531
G1 X87.785 Y153.567 E4.68207
G1 X87.578 Y153.503 E4.68928
G1 X86.728 Y153.198 E4.71931
G1 X85.908 Y152.819 E4.74936
G1 X85.125 Y152.37 E4.77938
G1 X84.385 Y151.852 E4.80942
G1 X83.693 Y151.272 E4.83945
G1 X83.055 Y150.632 E4.86951
G1 X82.474 Y149.935 E4.89969
G1 X82.353 Y149.776 E4.90633
G1 X81.839 Y149.034 E4.93636
G1 X81.392 Y148.249 E4.9664
G1 X81.016 Y147.428 E4.99644
G1 X80.714 Y146.577 E5.02647
G1 X80.489 Y145.702 E5.05652
G1 X80.316 Y144.562 E5.09487
G1 X80.296 Y144.351 E5.10192
G1 X80.251 Y143.547 E5.1287
G1 X80.244 Y143.001 E5.14686
G1 X80.248 Y92.002 E6.8431
G1 X80.257 Y91.347 E6.86489
G1 X80.309 Y90.445 E6.89494
G1 X80.441 Y89.552 E6.92496
G1 X80.652 Y88.674 E6.95499
G1 X81.047 Y87.547 E6.99471
G1 X81.132 Y87.344 E7.00203
G1 X81.518 Y86.528 E7.03206
G1 X81.974 Y85.748 E7.06211
G1 X82.497 Y85.012 E7.09214
G1 X83.083 Y84.325 E7.12217
G1 X83.728 Y83.693 E7.15221
G1 X84.426 Y83.12 E7.18224
G1 X85.172 Y82.611 E7.21228
G1 X85.866 Y82.218 E7.23881
G1 X86.058 Y82.119 E7.24599
G1 X86.879 Y81.741 E7.27605
G1 X87.729 Y81.437 E7.30608
G1 X88.603 Y81.21 E7.33611
G1 X89.494 Y81.061 E7.36616
G1 X90.562 Y80.986 E7.40177
G1 X91.749 Y80.968 E7.44125
G1 X143.505 Y80.968 E9.16266
G1 X144.083 Y80.984 E9.18189
G1 X144.946 Y81.033 E9.21064
G0 F6000 X144.969 Y80.634
G1 F1200 X145.885 Y80.726 E9.24126
G1 X146.79 Y80.897 E9.2719
G1 X147.676 Y81.146 E9.30251
G1 X148.537 Y81.471 E9.33312
G1 X149.367 Y81.87 E9.36375
G1 X150.159 Y82.339 E9.39436
G1 X150.908 Y82.875 E9.42499
G1 X151.607 Y83.474 E9.45561
G1 X152.184 Y84.056 E9.48287
G1 X152.337 Y84.223 E9.4904
G1 X152.929 Y84.929 E9.52105
G1 X153.457 Y85.683 E9.55166
G1 X153.918 Y86.479 E9.58226
G1 X154.308 Y87.313 E9.61288
G1 X154.625 Y88.178 E9.64352
G1 X154.865 Y89.067 E9.67415
G1 X155.027 Y89.973 E9.70476
G1 X155.111 Y90.928 E9.73664
G1 X155.146 Y91.741 E9.76371
G1 X155.156 Y92.198 E9.77891
G1 X155.151 Y142.986 E11.46813
G1 X155.142 Y143.67 E11.49088
G1 X155.09 Y144.59 E11.52153
G1 X154.958 Y145.501 E11.55215
G1 X154.748 Y146.397 E11.58275
G1 X154.461 Y147.272 E11.61338
G1 X154.034 Y148.251 E11.64891
G1 X153.942 Y148.436 E11.65578
G1 X153.497 Y149.242 E11.6864
G1 X152.983 Y150.006 E11.71703
G1 X152.405 Y150.722 E11.74763
G1 X151.767 Y151.386 E11.77826
G1 X151.074 Y151.992 E11.80888
G1 X150.347 Y152.526 E11.83888
G1 X149.566 Y153.013 E11.86949
G1 X148.746 Y153.431 E11.90011
G1 X147.892 Y153.776 E11.93074
G1 X147.012 Y154.046 E11.96136
G1 X146.111 Y154.238 E11.992
G1 X145.339 Y154.34 E12.0179
G1 X144.87 Y154.384 E12.03356
G1 X143.968 Y154.43 E12.0636
G1 X143.726 Y154.432 E12.07165
G1 X91.343 Y154.431 E13.81392
G1 X90.646 Y154.421 E13.8371
G1 X89.727 Y154.368 E13.86772
G1 X88.816 Y154.235 E13.89834
G1 X87.667 Y153.949 E13.93772
G1 X87.46 Y153.885 E13.94493
G1 X86.593 Y153.575 E13.97555
G1 X85.756 Y153.191 E14.00618
G1 X84.956 Y152.736 E14.03679
G1 X84.198 Y152.213 E14.06742
G1 X83.489 Y151.627 E14.09802
G1 X82.833 Y150.981 E14.12864
G1 X82.156 Y150.177 E14.1636
G1 X82.035 Y150.018 E14.17024
G1 X81.51 Y149.262 E14.20086
G1 X81.052 Y148.463 E14.23149
G1 X80.665 Y147.628 E14.2621
G1 X80.353 Y146.762 E14.29271
G1 X80.117 Y145.872 E14.32334
G1 X79.917 Y144.599 E14.3662
G1 X79.897 Y144.388 E14.37325
G1 X79.851 Y143.553 E14.40106
G1 X79.844 Y143.001 E14.41942
G1 X79.848 Y91.996 E16.11585
G1 X79.857 Y91.341 E16.13764
G1 X79.91 Y90.422 E16.16826
G1 X80.042 Y89.511 E16.19888
G1 X80.253 Y88.615 E16.22949
G1 X80.679 Y87.393 E16.27253
G1 X80.764 Y87.19 E16.27985
G1 X81.156 Y86.357 E16.31047
G1 X81.619 Y85.561 E16.3411
G1 X82.149 Y84.809 E16.3717
G1 X82.742 Y84.105 E16.40232
G1 X83.395 Y83.455 E16.43296
G1 X84.101 Y82.865 E16.46356
G1 X84.856 Y82.338 E16.49419
G1 X85.683 Y81.863 E16.52591
G1 X85.875 Y81.764 E16.53309
G1 X86.711 Y81.378 E16.56372
G1 X87.577 Y81.066 E16.59433
G1 X88.467 Y80.83 E16.62496
G1 X89.374 Y80.672 E16.65558
G1 X90.556 Y80.586 E16.695
G1 X91.749 Y80.568 E16.73468
G1 X143.505 Y80.568 E18.45609
G1 X144.106 Y80.585 E18.47609
G1 X144.969 Y80.634 E18.50484
G0 F6000 X144.992 Y80.235
G1 F1200 X145.925 Y80.328 E18.53603
G1 X146.847 Y80.5 E18.56722
G1 X147.751 Y80.75 E18.59842
G1 X148.63 Y81.076 E18.6296
G1 X149.478 Y81.476 E18.66078
G1 X150.289 Y81.947 E18.69198
G1 X151.058 Y82.485 E18.72319
G1 X151.777 Y83.087 E18.75438
G1 X152.479 Y83.786 E18.78733
G1 X152.632 Y83.953 E18.79486
G1 X153.235 Y84.671 E18.82605
G1 X153.775 Y85.438 E18.85725
G1 X154.248 Y86.248 E18.88844
G1 X154.65 Y87.095 E18.91963
G1 X154.979 Y87.973 E18.95081
G1 X155.231 Y88.877 E18.98203
G1 X155.406 Y89.798 E19.01321
G1 X155.511 Y90.911 E19.05039
G1 X155.546 Y91.724 E19.07746
G1 X155.556 Y92.198 E19.09322
G1 X155.551 Y142.992 E20.78264
G1 X155.542 Y143.676 E20.80539
G1 X155.49 Y144.612 E20.83657
G1 X155.358 Y145.541 E20.86778
G1 X155.147 Y146.455 E20.89898
G1 X154.86 Y147.347 E20.93015
G1 X154.392 Y148.429 E20.96935
G1 X154.3 Y148.614 E20.97623
G1 X153.847 Y149.435 E21.00741
G1 X153.326 Y150.215 E21.03861
G1 X152.74 Y150.947 E21.0698
G1 X152.094 Y151.627 E21.10099
G1 X151.392 Y152.249 E21.13219
G1 X150.675 Y152.786 E21.16198
G1 X150.573 Y152.856 E21.1661
G1 X149.778 Y153.353 E21.19728
G1 X148.943 Y153.781 E21.22849
G1 X148.075 Y154.136 E21.25968
G1 X147.18 Y154.415 E21.29086
G1 X146.264 Y154.618 E21.32207
G1 X145.376 Y154.738 E21.35187
G1 X144.907 Y154.782 E21.36754
G1 X143.971 Y154.83 E21.39871
G1 X143.729 Y154.832 E21.40676
G1 X91.337 Y154.831 E23.14933
G1 X90.64 Y154.821 E23.17251
G1 X89.704 Y154.767 E23.20369
G1 X88.775 Y154.634 E23.23491
G1 X87.549 Y154.331 E23.27691
G1 X87.342 Y154.267 E23.28412
G1 X86.458 Y153.952 E23.31533
G1 X85.605 Y153.563 E23.34651
G1 X84.788 Y153.103 E23.3777
G1 X84.013 Y152.574 E23.40891
G1 X83.286 Y151.982 E23.44009
G1 X82.612 Y151.33 E23.47128
G1 X81.837 Y150.419 E23.51106
G1 X81.716 Y150.26 E23.5177
G1 X81.181 Y149.491 E23.54886
G1 X80.713 Y148.678 E23.58006
G1 X80.316 Y147.828 E23.61127
G1 X79.992 Y146.948 E23.64246
G1 X79.745 Y146.043 E23.67366
G1 X79.576 Y145.121 E23.70483
G1 X79.499 Y144.426 E23.72809
G1 X79.451 Y143.559 E23.75697
G1 X79.444 Y143.001 E23.77553
G1 X79.448 Y91.991 E25.47213
G1 X79.457 Y91.336 E25.49392
G1 X79.51 Y90.399 E25.52513
G1 X79.642 Y89.471 E25.55631
G1 X79.853 Y88.557 E25.58751
G1 X80.31 Y87.238 E25.63394
G1 X80.395 Y87.035 E25.64126
G1 X80.793 Y86.187 E25.67241
G1 X81.263 Y85.375 E25.70362
G1 X81.8 Y84.606 E25.73482
G1 X82.401 Y83.886 E25.76601
G1 X83.061 Y83.219 E25.79722
G1 X83.775 Y82.611 E25.82841
G1 X84.538 Y82.066 E25.8596
G1 X85.5 Y81.507 E25.8966
G1 X85.692 Y81.408 E25.90379
G1 X86.543 Y81.014 E25.93498
G1 X87.425 Y80.694 E25.96618
G1 X88.33 Y80.451 E25.99735
G1 X89.253 Y80.285 E26.02854
G1 X90.549 Y80.187 E26.07177
G1 X91.749 Y80.168 E26.11169
G1 X143.505 Y80.168 E27.8331
G1 X144.129 Y80.186 E27.85386
G1 X144.992 Y80.235 E27.88261
G0 F6000 X145.014 Y79.835
G1 F1200 X145.964 Y79.929 E27.91436
G1 X146.903 Y80.102 E27.94612
G1 X147.824 Y80.354 E27.97788
G1 X148.721 Y80.681 E28.00963
G1 X149.588 Y81.082 E28.04141
G1 X150.418 Y81.555 E28.07318
G1 X151.205 Y82.095 E28.10492
G1 X151.944 Y82.699 E28.13667
G1 X152.774 Y83.516 E28.17541
G1 X152.927 Y83.683 E28.18294
G1 X153.542 Y84.413 E28.21469
G1 X154.093 Y85.193 E28.24645
G1 X154.578 Y86.015 E28.27819
G1 X154.992 Y86.876 E28.30997
G1 X155.332 Y87.768 E28.34172
G1 X155.597 Y88.685 E28.37347
G1 X155.784 Y89.621 E28.40521
G1 X155.91 Y90.894 E28.44776
G1 X155.945 Y91.707 E28.47483
G1 X155.956 Y92.198 E28.49116
G1 X155.951 Y142.997 E30.18074
G1 X155.942 Y143.681 E30.20349
G1 X155.889 Y144.634 E30.23524
G1 X155.757 Y145.58 E30.26701
G1 X155.547 Y146.511 E30.29875
G1 X155.259 Y147.421 E30.3305
G1 X154.75 Y148.607 E30.37342
G1 X154.658 Y148.792 E30.3803
G1 X154.198 Y149.629 E30.41206
G1 X153.669 Y150.423 E30.44379
G1 X153.075 Y151.171 E30.47556
G1 X152.421 Y151.867 E30.50733
G1 X151.711 Y152.505 E30.53908
G1 X150.902 Y153.115 E30.57278
G1 X150.8 Y153.185 E30.57689
G1 X149.99 Y153.692 E30.60867
G1 X149.142 Y154.13 E30.64042
G1 X148.259 Y154.494 E30.67219
G1 X147.35 Y154.784 E30.70392
G1 X146.419 Y154.997 E30.73569
G1 X145.414 Y155.136 E30.76943
G1 X144.945 Y155.18 E30.7851
G1 X143.974 Y155.23 E30.81744
G1 X143.732 Y155.232 E30.82548
G1 X91.331 Y155.231 E32.56835
G1 X90.634 Y155.221 E32.59153
G1 X89.681 Y155.167 E32.62328
G1 X88.736 Y155.034 E32.65502
G1 X87.431 Y154.713 E32.69972
G1 X87.224 Y154.649 E32.70693
G1 X86.324 Y154.329 E32.7387
G1 X85.454 Y153.935 E32.77046
G1 X84.621 Y153.47 E32.80219
G1 X83.829 Y152.936 E32.83396
G1 X83.085 Y152.338 E32.86571
G1 X82.393 Y151.68 E32.89747
G1 X81.519 Y150.662 E32.9421
G1 X81.398 Y150.503 E32.94874
G1 X80.852 Y149.719 E32.98052
G1 X80.374 Y148.893 E33.01226
G1 X79.966 Y148.03 E33.04401
G1 X79.632 Y147.135 E33.07578
G1 X79.374 Y146.216 E33.10753
G1 X79.194 Y145.278 E33.1393
G1 X79.121 Y144.675 E33.1595
G1 X79.101 Y144.464 E33.16655
G1 X79.051 Y143.565 E33.1965
G1 X79.044 Y143.001 E33.21526
G1 X79.048 Y91.985 E34.91206
G1 X79.057 Y91.33 E34.93384
G1 X79.11 Y90.377 E34.96559
G1 X79.243 Y89.432 E34.99733
G1 X79.454 Y88.5 E35.02911
G1 X79.743 Y87.59 E35.06087
G1 X79.941 Y87.084 E35.07894
G1 X80.026 Y86.881 E35.08626
G1 X80.431 Y86.017 E35.118
G1 X80.907 Y85.189 E35.14976
G1 X81.451 Y84.404 E35.18153
G1 X82.059 Y83.668 E35.21328
G1 X82.726 Y82.985 E35.24503
G1 X83.448 Y82.36 E35.27679
G1 X84.219 Y81.797 E35.30855
G1 X85.317 Y81.152 E35.3509
G1 X85.509 Y81.053 E35.35809
G1 X86.375 Y80.651 E35.38984
G1 X87.271 Y80.323 E35.42158
G1 X88.192 Y80.072 E35.45333
G1 X89.131 Y79.898 E35.48509
G1 X90.542 Y79.787 E35.53217
G1 X91.749 Y79.768 E35.57232
G1 X143.505 Y79.768 E37.29373
G1 X144.151 Y79.786 E37.31522
G1 X145.014 Y79.835 E37.34397
G1 F1500 E31.09397
;MESH:2a07acd0-c7fe-46eb-8143-79db60d888ca.stl
G0 F6000 X144.142 Y90.503
G0 X144.142 Y91.582
G0 X143.549 Y142.832
;TYPE:WALL-INNER
G1 F1500 E37.34397
G1 F1200 X91.643 Y142.832 E39.07037
G1 X91.444 Y142.832 E39.07699
G1 X91.444 Y142.633 E39.08127
G1 X91.455 Y92.168 E40.75975
G1 X143.357 Y92.168 E42.48601
G1 X143.556 Y92.168 E42.49263
G1 X143.556 Y92.367 E42.49691
G1 X143.549 Y142.832 E44.17539
G0 F6000 X143.949 Y143.232
G1 F1200 X91.243 Y143.232 E45.9284
G1 X91.044 Y143.232 E45.93501
G1 X91.044 Y143.033 E45.9393
G1 X91.055 Y91.768 E47.64438
G1 X143.757 Y91.768 E49.39725
G1 X143.956 Y91.768 E49.40387
G1 X143.956 Y91.967 E49.40815
G1 X143.949 Y143.232 E51.11323
G0 F6000 X144.292 Y143.609
;TYPE:WALL-OUTER
G1 F1200 X144.238 Y143.626 E51.11512
G1 X144.101 Y143.632 E51.11968
G1 X90.802 Y143.632 E52.89241
G1 X90.748 Y143.624 E52.89423
G1 X90.7 Y143.603 E52.89597
G1 X90.671 Y143.577 E52.89726
G1 X90.646 Y143.525 E52.89918
G1 X90.644 Y143.5 E52.90002
G1 X90.655 Y91.447 E54.63131
G1 X90.694 Y91.401 E54.63331
G1 X90.718 Y91.386 E54.63425
G1 X90.765 Y91.372 E54.63589
G1 X90.897 Y91.368 E54.64028
G1 X144.198 Y91.368 E56.41308
G1 X144.25 Y91.375 E56.41482
G1 X144.314 Y91.408 E56.41722
G1 X144.346 Y91.454 E56.41908
G1 X144.354 Y91.482 E56.42005
G1 X144.356 Y91.511 E56.42102
G1 X144.349 Y143.54 E58.15151
G1 X144.341 Y143.557 E58.15213
G1 X144.292 Y143.609 E58.15451
G0 F6000 X144.078 Y143.361
G0 X143.159 Y142.722
G0 X143.159 Y142.442
;TYPE:SKIN
G1 F1200 X91.834 Y142.442 E59.86158
G1 X91.845 Y92.558 E61.52073
G1 X143.166 Y92.558 E63.22768
G1 X143.159 Y142.442 E64.88683
G0 F6000 X142.759 Y142.042
G1 F1200 X92.234 Y142.042 E66.56729
G1 X92.245 Y92.958 E68.19983
G1 X142.766 Y92.958 E69.88017
G1 X142.759 Y142.042 E71.51271
G1 F1500 E65.26271
G0 F6000 X142.759 Y142.722
G0 X91.626 Y142.65
G0 X91.555 Y141.68
G0 X92.594 Y141.681
G1 F1500 E71.51271
G1 F1200 X93.032 Y141.681 E71.52728
G1 X92.594 Y141.243 E71.54788
G1 X92.594 Y140.677 E71.56671
G1 X93.598 Y141.681 E71.61393
G1 X94.163 Y141.681 E71.63272
G1 X92.594 Y140.111 E71.70655
G1 X92.594 Y139.546 E71.72534
G1 X94.729 Y141.681 E71.82576
G1 X95.295 Y141.681 E71.84459
G1 X92.594 Y138.98 E71.97163
G1 X92.594 Y138.415 E71.99043
G1 X95.861 Y141.681 E72.14407
G1 X96.426 Y141.681 E72.16286
G1 X92.594 Y137.849 E72.34311
G1 X92.594 Y137.284 E72.3619
G1 X96.992 Y141.681 E72.56875
G1 X97.558 Y141.681 E72.58757
G1 X92.594 Y136.718 E72.82104
G1 X92.594 Y136.152 E72.83987
G1 X98.123 Y141.681 E73.09993
G1 X98.689 Y141.681 E73.11876
G1 X92.594 Y135.587 E73.40542
G1 X92.595 Y135.022 E73.42422
G1 X99.255 Y141.681 E73.73746
G1 X99.82 Y141.681 E73.75625
G1 X92.595 Y134.456 E74.09609
G1 X92.595 Y133.89 E74.11492
G1 X100.386 Y141.681 E74.48138
G1 X100.952 Y141.681 E74.50021
G1 X92.595 Y133.324 E74.8933
G1 X92.595 Y132.759 E74.91209
G1 X101.517 Y141.681 E75.33175
G1 X102.083 Y141.681 E75.35058
G1 X92.595 Y132.193 E75.79686
G1 X92.596 Y131.628 E75.81565
G1 X102.649 Y141.681 E76.28852
G1 X103.214 Y141.681 E76.30731
G1 X92.596 Y131.062 E76.80677
G1 X92.596 Y130.497 E76.82556
G1 X103.78 Y141.681 E77.35162
G1 X104.346 Y141.681 E77.37045
G1 X92.596 Y129.931 E77.92313
G1 X92.596 Y129.365 E77.94196
G1 X104.912 Y141.681 E78.52127
G1 X105.477 Y141.681 E78.54006
G1 X92.596 Y128.8 E79.14594
G1 X92.597 Y128.235 E79.16473
G1 X106.043 Y141.681 E79.79719
G1 X106.609 Y141.681 E79.81602
G1 X92.597 Y127.669 E80.4751
G1 X92.597 Y127.103 E80.49392
G1 X107.174 Y141.681 E81.1796
G1 X107.74 Y141.681 E81.19843
G1 X92.597 Y126.538 E81.91071
G1 X92.597 Y125.972 E81.92953
G1 X108.306 Y141.681 E82.66844
G1 X108.871 Y141.681 E82.68723
G1 X92.597 Y125.407 E83.45271
G1 X92.597 Y124.841 E83.47153
G1 X109.437 Y141.681 E84.26364
G1 X110.003 Y141.681 E84.28246
G1 X92.597 Y124.276 E85.10116
G1 X92.597 Y123.71 E85.11999
G1 X110.568 Y141.681 E85.96529
G1 X111.134 Y141.681 E85.98411
G1 X92.597 Y123.144 E86.85604
G1 X92.597 Y122.579 E86.87483
G1 X111.7 Y141.681 E87.77335
G1 X112.265 Y141.681 E87.79214
G1 X92.598 Y122.014 E88.71722
G1 X92.598 Y121.448 E88.73604
G1 X112.831 Y141.681 E89.68774
