;FLAVOR:Marlin
;TIME:4012
;Filament used: 3.04914m
;Layer height: 0.2
;MINX:81.03
;MINY:69.735
;MINZ:0.2
;MAXX:153.75
;MAXY:145.735
;MAXZ:5.8
;Generated with Cura_SteamEngine 4.6.1
M140 S60
M105
M190 S60
M104 S200
M105
M109 S200
M82 ;absolute extrusion mode
M201 X500.00 Y500.00 Z100.00 E5000.00 ;Setup machine max acceleration
M203 X500.00 Y500.00 Z10.00 E50.00 ;Setup machine max feedrate
M204 P500.00 R1000.00 T500.00 ;Setup Print/Retract/Travel acceleration
M205 X8.00 Y8.00 Z0.40 E5.00 ;Setup Jerk
M220 S100 ;Reset Feedrate
M221 S100 ;Reset Flowrate

G28 ;Home

G92 E0 ;Reset Extruder
G1 Z2.0 F3000 ;Move Z Axis up
G1 X10.1 Y20 Z0.28 F5000.0 ;Move to start position
G1 X10.1 Y200.0 Z0.28 F1500.0 E15 ;Draw the first line
G1 X10.4 Y200.0 Z0.28 F5000.0 ;Move to side a little
G1 X10.4 Y20 Z0.28 F1500.0 E30 ;Draw the second line
G92 E0 ;Reset Extruder
G1 Z2.0 F3000 ;Move Z Axis up
G92 E0
G92 E0
G1 F1500 E-6.25
;LAYER_COUNT:29
;LAYER:0
M107
G0 F6000 X142.487 Y70.946 Z0.2
;TYPE:SKIRT
G1 F1500 E0
G1 F1200 X143.389 Y70.999 E0.03005
G1 X144.282 Y71.131 E0.06008
G1 X145.16 Y71.342 E0.09011
G1 X146.016 Y71.63 E0.12015
G1 X146.843 Y71.992 E0.15018
G1 X147.635 Y72.427 E0.18023
G1 X148.386 Y72.929 E0.21027
G1 X149.089 Y73.496 E0.24031
G1 X149.739 Y74.123 E0.27035
G1 X150.331 Y74.805 E0.30039
G1 X150.861 Y75.536 E0.33042
G1 X151.323 Y76.312 E0.36046
G1 X151.716 Y77.125 E0.39049
G1 X152.034 Y77.97 E0.42052
G1 X152.277 Y78.84 E0.45056
G1 X152.442 Y79.728 E0.4806
G1 X152.537 Y80.858 E0.51832
G1 X152.55 Y81.465 E0.53851
G1 X152.549 Y133.725 E2.27669
G1 X152.54 Y134.452 E2.30087
G1 X152.489 Y135.354 E2.33092
G1 X152.358 Y136.248 E2.36097
G1 X152.149 Y137.126 E2.39099
G1 X151.863 Y137.983 E2.42104
G1 X151.502 Y138.811 E2.45108
G1 X151.07 Y139.603 E2.48109
G1 X150.569 Y140.355 E2.51114
G1 X150.003 Y141.059 E2.54119
G1 X149.378 Y141.71 E2.5712
G1 X148.697 Y142.304 E2.60126
G1 X147.966 Y142.835 E2.63131
G1 X147.192 Y143.299 E2.66132
G1 X146.379 Y143.693 E2.69137
G1 X145.535 Y144.013 E2.72139
G1 X144.665 Y144.258 E2.75146
G1 X143.778 Y144.424 E2.78147
G1 X142.627 Y144.522 E2.81989
G1 X142.02 Y144.535 E2.84008
G1 X93.005 Y144.534 E4.47033
G1 X92.307 Y144.525 E4.49355
G1 X91.406 Y144.474 E4.52356
G1 X90.512 Y144.342 E4.55362
G1 X89.634 Y144.133 E4.58364
G1 X88.777 Y143.846 E4.6137
G1 X87.95 Y143.485 E4.64371
G1 X87.157 Y143.052 E4.67376
G1 X86.406 Y142.551 E4.70379
G1 X85.702 Y141.985 E4.73383
G1 X85.051 Y141.359 E4.76387
G1 X84.458 Y140.678 E4.7939
G1 X83.928 Y139.947 E4.82394
G1 X83.464 Y139.172 E4.85398
G1 X83.07 Y138.359 E4.88403
G1 X82.75 Y137.515 E4.91405
G1 X82.506 Y136.645 E4.9441
G1 X82.34 Y135.757 E4.97415
G1 X82.243 Y134.602 E5.0127
G1 X82.23 Y133.993 E5.03296
G1 X82.231 Y81.671 E6.7732
G1 X82.24 Y81.006 E6.79532
G1 X82.292 Y80.104 E6.82537
G1 X82.424 Y79.211 E6.85539
G1 X82.634 Y78.333 E6.88542
G1 X82.921 Y77.476 E6.91548
G1 X83.283 Y76.649 E6.9455
G1 X83.716 Y75.857 E6.97552
G1 X84.218 Y75.106 E7.00557
G1 X84.785 Y74.402 E7.03563
G1 X85.411 Y73.752 E7.06565
G1 X86.092 Y73.159 E7.09568
G1 X86.824 Y72.629 E7.12574
G1 X87.599 Y72.166 E7.15577
G1 X88.412 Y71.773 E7.1858
G1 X89.257 Y71.453 E7.21585
G1 X90.126 Y71.21 E7.24587
G1 X91.014 Y71.044 E7.27591
G1 X92.153 Y70.948 E7.31393
G1 X92.76 Y70.935 E7.33412
G1 X141.789 Y70.936 E8.96483
G1 X142.487 Y70.946 E8.98805
G0 F6000 X142.493 Y70.546
G1 F1200 X143.412 Y70.599 E9.01867
G1 X144.323 Y70.732 E9.04929
G1 X145.219 Y70.943 E9.07991
G1 X146.093 Y71.231 E9.11051
G1 X146.94 Y71.594 E9.14116
G1 X147.751 Y72.029 E9.17177
G1 X148.521 Y72.533 E9.20238
G1 X149.245 Y73.102 E9.23301
G1 X149.917 Y73.732 E9.26365
G1 X150.532 Y74.417 E9.29426
G1 X151.085 Y75.153 E9.32488
G1 X151.572 Y75.934 E9.3555
G1 X151.989 Y76.755 E9.38612
G1 X152.334 Y77.609 E9.41676
G1 X152.603 Y78.489 E9.44736
G1 X152.795 Y79.39 E9.478
G1 X152.908 Y80.303 E9.5086
G1 X152.937 Y80.847 E9.52672
G1 X152.95 Y81.465 E9.54728
G1 X152.949 Y133.73 E11.28562
G1 X152.94 Y134.457 E11.3098
G1 X152.889 Y135.376 E11.34042
G1 X152.758 Y136.288 E11.37106
G1 X152.548 Y137.184 E11.40167
G1 X152.262 Y138.059 E11.43229
G1 X151.901 Y138.906 E11.46291
G1 X151.467 Y139.718 E11.49353
G1 X150.965 Y140.49 E11.52416
G1 X150.397 Y141.215 E11.55479
G1 X149.769 Y141.888 E11.58541
G1 X149.085 Y142.504 E11.61603
G1 X148.35 Y143.058 E11.64664
G1 X147.57 Y143.547 E11.67726
G1 X146.75 Y143.966 E11.70789
G1 X145.897 Y144.312 E11.7385
G1 X145.017 Y144.583 E11.76913
G1 X144.117 Y144.776 E11.79974
G1 X143.203 Y144.891 E11.83038
G1 X142.638 Y144.922 E11.8492
G1 X142.02 Y144.935 E11.86976
G1 X93 Y144.934 E13.50017
G1 X92.302 Y144.925 E13.52339
G1 X91.383 Y144.873 E13.554
G1 X90.472 Y144.742 E13.58462
G1 X89.576 Y144.532 E13.61522
G1 X88.701 Y144.245 E13.64585
G1 X87.854 Y143.883 E13.67649
G1 X87.042 Y143.449 E13.70711
G1 X86.271 Y142.947 E13.73771
G1 X85.546 Y142.379 E13.76834
G1 X84.873 Y141.75 E13.79898
G1 X84.258 Y141.066 E13.82958
G1 X83.704 Y140.331 E13.86019
G1 X83.216 Y139.55 E13.89082
G1 X82.797 Y138.73 E13.92145
G1 X82.451 Y137.877 E13.95206
G1 X82.181 Y136.997 E13.98268
G1 X81.988 Y136.096 E14.01333
G1 X81.874 Y135.183 E14.04393
G1 X81.843 Y134.612 E14.06295
G1 X81.83 Y133.993 E14.08354
G1 X81.831 Y81.666 E15.82394
G1 X81.84 Y81.001 E15.84606
G1 X81.892 Y80.081 E15.87671
G1 X82.024 Y79.17 E15.90733
G1 X82.235 Y78.274 E15.93794
G1 X82.522 Y77.399 E15.96857
G1 X82.885 Y76.553 E15.99919
G1 X83.319 Y75.741 E16.02981
G1 X83.822 Y74.97 E16.06043
G1 X84.391 Y74.246 E16.09106
G1 X85.019 Y73.574 E16.12165
G1 X85.704 Y72.958 E16.15229
G1 X86.44 Y72.405 E16.18291
G1 X87.221 Y71.917 E16.21354
G1 X88.041 Y71.499 E16.24415
G1 X88.895 Y71.154 E16.27479
G1 X89.775 Y70.884 E16.3054
G1 X90.675 Y70.692 E16.33601
G1 X91.589 Y70.578 E16.36665
G1 X92.142 Y70.548 E16.38507
G1 X92.76 Y70.535 E16.40563
G1 X141.795 Y70.536 E18.03654
G1 X142.493 Y70.546 E18.05975
G0 F6000 X142.499 Y70.146
G1 F1200 X143.435 Y70.2 E18.09094
G1 X144.363 Y70.332 E18.12211
G1 X145.277 Y70.544 E18.15332
G1 X146.169 Y70.833 E18.18451
G1 X147.034 Y71.196 E18.21571
G1 X147.864 Y71.632 E18.24689
G1 X148.655 Y72.137 E18.2781
G1 X149.399 Y72.708 E18.3093
G1 X150.092 Y73.34 E18.34049
G1 X150.729 Y74.028 E18.37168
G1 X151.304 Y74.769 E18.40287
G1 X151.815 Y75.555 E18.43405
G1 X152.257 Y76.383 E18.46527
G1 X152.626 Y77.245 E18.49646
G1 X152.921 Y78.135 E18.52764
G1 X153.139 Y79.047 E18.55883
G1 X153.279 Y79.975 E18.59005
G1 X153.337 Y80.836 E18.61875
G1 X153.35 Y81.465 E18.63967
G1 X153.349 Y133.735 E20.37818
G1 X153.34 Y134.462 E20.40236
G1 X153.289 Y135.399 E20.43357
G1 X153.157 Y136.327 E20.46475
G1 X152.948 Y137.241 E20.49593
G1 X152.661 Y138.134 E20.52713
G1 X152.299 Y139 E20.55835
G1 X151.865 Y139.831 E20.58953
G1 X151.361 Y140.622 E20.62073
G1 X150.792 Y141.367 E20.65191
G1 X150.161 Y142.062 E20.68313
G1 X149.474 Y142.7 E20.71431
G1 X148.735 Y143.277 E20.7455
G1 X147.949 Y143.789 E20.77669
G1 X147.123 Y144.232 E20.80787
G1 X146.261 Y144.604 E20.8391
G1 X145.372 Y144.9 E20.87026
G1 X144.46 Y145.12 E20.90146
G1 X143.533 Y145.261 E20.93265
G1 X142.649 Y145.322 E20.96212
G1 X142.02 Y145.335 E20.98305
G1 X92.995 Y145.334 E22.61362
G1 X92.297 Y145.325 E22.63684
G1 X91.361 Y145.273 E22.66802
G1 X90.432 Y145.141 E22.69923
G1 X89.518 Y144.931 E22.73042
G1 X88.625 Y144.644 E22.76162
G1 X87.76 Y144.281 E22.79282
G1 X86.929 Y143.847 E22.824
G1 X86.138 Y143.343 E22.8552
G1 X85.393 Y142.773 E22.8864
G1 X84.699 Y142.142 E22.91759
G1 X84.062 Y141.455 E22.94876
G1 X83.485 Y140.715 E22.97997
G1 X82.973 Y139.929 E23.01117
G1 X82.53 Y139.102 E23.04237
G1 X82.159 Y138.241 E23.07355
G1 X81.863 Y137.351 E23.10475
G1 X81.644 Y136.439 E23.13594
G1 X81.503 Y135.512 E23.16713
G1 X81.443 Y134.623 E23.19676
G1 X81.43 Y133.993 E23.21772
G1 X81.431 Y81.66 E24.95833
G1 X81.44 Y80.995 E24.98045
G1 X81.493 Y80.059 E25.01163
G1 X81.625 Y79.13 E25.04284
G1 X81.836 Y78.216 E25.07404
G1 X82.124 Y77.324 E25.10521
G1 X82.487 Y76.459 E25.13641
G1 X82.922 Y75.628 E25.16761
G1 X83.426 Y74.838 E25.19878
G1 X83.996 Y74.093 E25.22998
G1 X84.628 Y73.399 E25.2612
G1 X85.316 Y72.762 E25.29238
G1 X86.056 Y72.186 E25.32357
G1 X86.842 Y71.674 E25.35477
G1 X87.669 Y71.232 E25.38596
G1 X88.531 Y70.862 E25.41716
G1 X89.421 Y70.566 E25.44835
G1 X90.333 Y70.348 E25.47954
G1 X91.26 Y70.207 E25.51073
G1 X92.131 Y70.148 E25.53976
G1 X92.76 Y70.135 E25.56069
G1 X141.801 Y70.136 E27.1918
G1 X142.499 Y70.146 E27.21502
G0 F6000 X142.504 Y69.746
G1 F1200 X143.458 Y69.8 E27.2468
G1 X144.403 Y69.933 E27.27854
G1 X145.334 Y70.145 E27.3103
G1 X146.244 Y70.434 E27.34205
G1 X147.127 Y70.798 E27.37382
G1 X147.976 Y71.235 E27.40558
G1 X148.785 Y71.741 E27.43732
G1 X149.549 Y72.313 E27.46906
G1 X150.263 Y72.947 E27.50082
G1 X150.921 Y73.639 E27.53258
G1 X151.519 Y74.383 E27.56433
G1 X152.053 Y75.175 E27.5961
G1 X152.518 Y76.009 E27.62786
G1 X152.913 Y76.878 E27.6596
G1 X153.232 Y77.778 E27.69136
G1 X153.476 Y78.701 E27.72312
G1 X153.641 Y79.642 E27.75489
G1 X153.736 Y80.825 E27.79437
G1 X153.75 Y81.465 E27.81566
G1 X153.749 Y133.74 E29.55433
G1 X153.74 Y134.467 E29.57851
G1 X153.688 Y135.42 E29.61026
G1 X153.557 Y136.366 E29.64202
G1 X153.347 Y137.298 E29.6738
G1 X153.06 Y138.208 E29.70553
G1 X152.697 Y139.091 E29.73729
G1 X152.262 Y139.941 E29.76904
G1 X151.757 Y140.752 E29.80082
G1 X151.187 Y141.517 E29.83255
G1 X150.554 Y142.232 E29.86431
G1 X149.864 Y142.892 E29.89607
G1 X149.12 Y143.491 E29.92784
G1 X148.33 Y144.026 E29.95957
G1 X147.497 Y144.493 E29.99134
G1 X146.628 Y144.889 E30.0231
G1 X145.729 Y145.211 E30.05486
G1 X144.806 Y145.456 E30.08662
G1 X143.866 Y145.623 E30.11838
G1 X142.661 Y145.722 E30.15859
G1 X142.02 Y145.735 E30.17991
G1 X92.99 Y145.734 E31.81066
G1 X92.292 Y145.725 E31.83388
G1 X91.339 Y145.673 E31.86562
G1 X90.393 Y145.541 E31.89739
G1 X89.462 Y145.33 E31.92914
G1 X88.551 Y145.043 E31.96091
G1 X87.668 Y144.68 E31.99266
G1 X86.819 Y144.244 E32.0244
G1 X86.008 Y143.739 E32.05618
G1 X85.243 Y143.168 E32.08793
G1 X84.529 Y142.535 E32.11967
G1 X83.869 Y141.844 E32.15145
G1 X83.27 Y141.101 E32.18319
G1 X82.736 Y140.31 E32.21493
G1 X82.269 Y139.477 E32.2467
G1 X81.874 Y138.608 E32.27845
G1 X81.552 Y137.709 E32.31021
G1 X81.308 Y136.786 E32.34196
G1 X81.141 Y135.846 E32.37371
G1 X81.043 Y134.634 E32.41416
G1 X81.03 Y133.993 E32.43548
G1 X81.031 Y81.655 E34.17625
G1 X81.04 Y80.99 E34.19837
G1 X81.093 Y80.036 E34.23015
G1 X81.225 Y79.091 E34.26189
G1 X81.437 Y78.16 E34.29364
G1 X81.725 Y77.25 E34.32539
G1 X82.088 Y76.367 E34.35714
G1 X82.524 Y75.517 E34.38892
G1 X83.03 Y74.707 E34.42068
G1 X83.602 Y73.943 E34.45243
G1 X84.235 Y73.228 E34.48419
G1 X84.926 Y72.57 E34.51592
G1 X85.67 Y71.971 E34.54769
G1 X86.462 Y71.437 E34.57946
G1 X87.295 Y70.971 E34.61121
G1 X88.164 Y70.576 E34.64296
G1 X89.063 Y70.255 E34.67471
G1 X89.986 Y70.011 E34.70646
G1 X90.927 Y69.845 E34.73824
G1 X92.119 Y69.748 E34.77802
G1 X92.76 Y69.735 E34.79934
G1 X141.806 Y69.736 E36.43062
G1 X142.504 Y69.746 E36.45384
G1 F1500 E30.20384
G0 F6000 X113.065 Y84.501
G0 X113.066 Y84.967
G1 F1500 E36.45384
G1 F1200 X118.989 Y84.963 E36.65084
G1 X121.716 Y84.968 E36.74154
G1 X121.655 Y85.296 E36.75263
G1 X121.578 Y85.582 E36.76249
G1 X121.482 Y85.869 E36.77255
G1 X121.374 Y86.129 E36.78191
G1 X121.245 Y86.396 E36.79178
G1 X121.118 Y86.616 E36.80023
G1 X120.941 Y86.882 E36.81085
G1 X120.773 Y87.104 E36.82011
G1 X120.607 Y87.293 E36.82848
G1 X120.374 Y87.528 E36.83949
G1 X120.167 Y87.709 E36.84863
G1 X119.944 Y87.88 E36.85798
G1 X119.689 Y88.053 E36.86823
G1 X119.457 Y88.186 E36.87712
G1 X119.221 Y88.303 E36.88588
G1 X118.932 Y88.424 E36.8963
G1 X118.663 Y88.514 E36.90574
G1 X118.376 Y88.593 E36.91564
G1 X118.096 Y88.648 E36.92513
G1 X117.828 Y88.683 E36.93412
G1 X117.52 Y88.704 E36.94439
G1 X117.261 Y88.704 E36.953
G1 X116.953 Y88.683 E36.96327
G1 X116.688 Y88.648 E36.97216
G1 X116.391 Y88.589 E36.98223
G1 X116.135 Y88.52 E36.99105
G1 X115.846 Y88.423 E37.00119
G1 X115.558 Y88.302 E37.01158
G1 X115.344 Y88.197 E37.01951
G1 X115.08 Y88.045 E37.02964
G1 X114.835 Y87.879 E37.03948
G1 X114.608 Y87.705 E37.04899
G1 X114.407 Y87.529 E37.05788
G1 X114.186 Y87.306 E37.06832
G1 X114.004 Y87.099 E37.07749
G1 X113.823 Y86.86 E37.08746
G1 X113.671 Y86.63 E37.09663
G1 X113.535 Y86.393 E37.10572
G1 X113.408 Y86.135 E37.11528
G1 X113.29 Y85.845 E37.1257
G1 X113.202 Y85.585 E37.13483
G1 X113.129 Y85.307 E37.14439
G1 X113.066 Y84.967 E37.15589
G0 F6000 X112.679 Y85.093
G1 F1200 X112.641 Y84.784 E37.16624
G1 X112.628 Y84.567 E37.17347
G1 X118.99 Y84.563 E37.38507
G1 X122.154 Y84.569 E37.49031
G1 X122.14 Y84.791 E37.49771
G1 X122.105 Y85.08 E37.50739
G1 X122.042 Y85.399 E37.51821
G1 X121.964 Y85.689 E37.52819
G1 X121.859 Y86.002 E37.53917
G1 X121.736 Y86.3 E37.5499
G1 X121.603 Y86.575 E37.56006
G1 X121.451 Y86.837 E37.57013
G1 X121.269 Y87.111 E37.58107
G1 X121.084 Y87.355 E37.59126
G1 X120.891 Y87.575 E37.60099
G1 X120.647 Y87.821 E37.61251
G1 X120.43 Y88.011 E37.62211
G1 X120.179 Y88.204 E37.63264
G1 X119.901 Y88.392 E37.6438
G1 X119.645 Y88.539 E37.65362
G1 X119.381 Y88.67 E37.66342
G1 X119.079 Y88.796 E37.6743
G1 X118.769 Y88.9 E37.68518
G1 X118.465 Y88.983 E37.69566
G1 X118.16 Y89.043 E37.706
G1 X117.871 Y89.081 E37.71569
G1 X117.532 Y89.104 E37.727
G1 X117.249 Y89.104 E37.73641
G1 X116.91 Y89.081 E37.74771
G1 X116.621 Y89.043 E37.7574
G1 X116.309 Y88.981 E37.76798
G1 X116.02 Y88.903 E37.77794
G1 X115.698 Y88.795 E37.78924
G1 X115.4 Y88.67 E37.79999
G1 X115.152 Y88.548 E37.80918
G1 X114.875 Y88.389 E37.8198
G1 X114.598 Y88.202 E37.83092
G1 X114.354 Y88.015 E37.84114
G1 X114.134 Y87.822 E37.85088
G1 X113.891 Y87.577 E37.86235
G1 X113.692 Y87.35 E37.87239
G1 X113.503 Y87.101 E37.88279
G1 X113.326 Y86.833 E37.89347
G1 X113.182 Y86.582 E37.9031
G1 X113.038 Y86.288 E37.91399
G1 X112.917 Y85.991 E37.92465
G1 X112.818 Y85.701 E37.93484
G1 X112.742 Y85.408 E37.94491
G1 X112.679 Y85.093 E37.9556
G0 F6000 X113.558 Y85.366
;TYPE:SUPPORT
G1 F1200 X118.989 Y85.363 E38.13623
G1 X121.222 Y85.367 E38.2105
G1 X121.194 Y85.472 E38.21412
G1 X121.116 Y85.706 E38.22232
G1 X121.003 Y85.978 E38.23212
G1 X120.894 Y86.204 E38.24046
G1 X120.768 Y86.421 E38.24881
G1 X120.626 Y86.633 E38.25729
G1 X120.456 Y86.858 E38.26667
G1 X120.305 Y87.031 E38.27431
G1 X120.102 Y87.235 E38.28388
G1 X119.924 Y87.391 E38.29176
G1 X119.707 Y87.557 E38.30084
G1 X119.481 Y87.71 E38.30992
G1 X119.266 Y87.834 E38.31818
G1 X119.035 Y87.948 E38.32674
G1 X118.803 Y88.045 E38.33511
G1 X118.529 Y88.137 E38.34472
G1 X118.289 Y88.202 E38.35299
G1 X118.026 Y88.254 E38.36191
G1 X117.791 Y88.285 E38.36979
G1 X117.508 Y88.304 E38.37922
G1 X117.273 Y88.304 E38.38704
G1 X116.99 Y88.285 E38.39647
G1 X116.755 Y88.254 E38.40436
G1 X116.486 Y88.2 E38.41348
G1 X116.251 Y88.137 E38.42158
G1 X115.98 Y88.046 E38.43108
G1 X115.75 Y87.95 E38.43937
G1 X115.519 Y87.836 E38.44794
G1 X115.292 Y87.705 E38.45666
G1 X115.061 Y87.55 E38.46591
G1 X114.866 Y87.4 E38.47409
G1 X114.68 Y87.237 E38.48232
G1 X114.479 Y87.034 E38.49182
G1 X114.314 Y86.846 E38.50014
G1 X114.159 Y86.643 E38.50863
G1 X114.003 Y86.406 E38.51807
G1 X113.888 Y86.206 E38.52575
G1 X113.772 Y85.968 E38.53455
G1 X113.666 Y85.709 E38.54386
G1 X113.585 Y85.47 E38.55225
G1 X113.558 Y85.366 E38.55583
G0 F6000 X114.681 Y85.445
G1 F1200 X114.681 Y87.123 E38.61164
G0 F6000 X116.128 Y88.011
G1 F1200 X118.65 Y88.011 E38.69552
G0 F6000 X117.348 Y88.224
G1 F1200 X117.348 Y85.443 E38.78802
G0 F6000 X120.015 Y85.445
G1 F1200 X120.015 Y87.206 E38.84659
G1 F1500 E32.59659
;MESH:de027462-5ee9-4756-92ae-6e4b84aee217.stl
G0 F6000 X120.468 Y88.063
G0 X119.508 Y88.981
G0 X119.534 Y90.016
G0 X117.614 Y91.104
;TYPE:WALL-INNER
G1 F1500 E38.84659
G1 F1200 X118.057 Y91.073 E38.86136
G1 X118.495 Y91.016 E38.87605
G1 X118.934 Y90.93 E38.89093
G1 X119.359 Y90.813 E38.90559
G1 X119.781 Y90.672 E38.92039
G1 X120.192 Y90.499 E38.93522
G1 X120.585 Y90.304 E38.94981
G1 X120.973 Y90.083 E38.96466
G1 X121.343 Y89.833 E38.97951
G1 X121.693 Y89.565 E38.99417
G1 X122.029 Y89.269 E39.00907
G1 X122.34 Y88.955 E39.02377
G1 X122.634 Y88.622 E39.03854
G1 X122.904 Y88.266 E39.0534
G1 X123.148 Y87.898 E39.06809
G1 X123.37 Y87.513 E39.08287
