;FLAVOR:Marlin
;TIME:4157
;Filament used: 3.21104m
;Layer height: 0.2
;MINX:78.817
;MINY:77.1
;MINZ:0.2
;MAXX:156.183
;MAXY:157.9
;MAXZ:4.8
;Generated with Cura_SteamEngine 4.6.1
M140 S60
M105
M190 S60
M104 S200
M105
M109 S200
M82 ;absolute extrusion mode
M201 X500.00 Y500.00 Z100.00 E5000.00 ;Setup machine max acceleration
M203 X500.00 Y500.00 Z10.00 E50.00 ;Setup machine max feedrate
M204 P500.00 R1000.00 T500.00 ;Setup Print/Retract/Travel acceleration
M205 X8.00 Y8.00 Z0.40 E5.00 ;Setup Jerk
M220 S100 ;Reset Feedrate
M221 S100 ;Reset Flowrate

G28 ;Home

G92 E0 ;Reset Extruder
G1 Z2.0 F3000 ;Move Z Axis up
G1 X10.1 Y20 Z0.28 F5000.0 ;Move to start position
G1 X10.1 Y200.0 Z0.28 F1500.0 E15 ;Draw the first line
G1 X10.4 Y200.0 Z0.28 F5000.0 ;Move to side a little
G1 X10.4 Y20 Z0.28 F1500.0 E30 ;Draw the second line
G92 E0 ;Reset Extruder
G1 Z2.0 F3000 ;Move Z Axis up
G92 E0
G92 E0
G1 F1500 E-6.25
;LAYER_COUNT:24
;LAYER:0
M107
G0 F6000 X144.92 Y78.311 Z0.2
;TYPE:SKIRT
G1 F1500 E0
G1 F1200 X145.822 Y78.364 E0.03005
G1 X146.715 Y78.496 E0.06008
G1 X147.593 Y78.707 E0.09011
G1 X148.449 Y78.995 E0.12015
G1 X149.276 Y79.357 E0.15018
G1 X150.068 Y79.792 E0.18023
G1 X150.819 Y80.294 E0.21027
G1 X151.522 Y80.861 E0.24031
G1 X152.172 Y81.488 E0.27035
G1 X152.764 Y82.17 E0.30039
G1 X153.294 Y82.901 E0.33042
G1 X153.756 Y83.677 E0.36046
G1 X154.149 Y84.49 E0.39049
G1 X154.467 Y85.335 E0.42052
G1 X154.71 Y86.205 E0.45056
G1 X154.875 Y87.093 E0.4806
G1 X154.97 Y88.223 E0.51832
G1 X154.983 Y88.83 E0.53851
G1 X154.982 Y145.764 E2.43215
G1 X154.972 Y146.617 E2.46052
G1 X154.921 Y147.519 E2.49057
G1 X154.79 Y148.413 E2.52062
G1 X154.581 Y149.291 E2.55064
G1 X154.295 Y150.148 E2.58069
G1 X153.934 Y150.976 E2.61073
G1 X153.502 Y151.768 E2.64074
G1 X153.001 Y152.52 E2.67079
G1 X152.435 Y153.224 E2.70084
G1 X151.81 Y153.875 E2.73085
G1 X151.129 Y154.469 E2.76091
G1 X150.398 Y155 E2.79096
G1 X149.624 Y155.464 E2.82097
G1 X148.811 Y155.858 E2.85102
G1 X147.967 Y156.178 E2.88104
G1 X147.097 Y156.423 E2.9111
G1 X146.21 Y156.589 E2.94112
G1 X145.059 Y156.687 E2.97954
G1 X144.452 Y156.7 E2.99973
G1 X90.792 Y156.699 E4.78447
G1 X90.094 Y156.69 E4.80769
G1 X89.193 Y156.639 E4.8377
G1 X88.299 Y156.507 E4.86776
G1 X87.421 Y156.298 E4.89778
G1 X86.564 Y156.011 E4.92784
G1 X85.737 Y155.65 E4.95785
G1 X84.944 Y155.217 E4.9879
G1 X84.193 Y154.716 E5.01793
G1 X83.489 Y154.15 E5.04797
G1 X82.838 Y153.524 E5.07801
G1 X82.245 Y152.843 E5.10805
G1 X81.715 Y152.112 E5.13808
G1 X81.251 Y151.337 E5.16812
G1 X80.857 Y150.524 E5.19817
G1 X80.537 Y149.68 E5.22819
G1 X80.293 Y148.81 E5.25824
G1 X80.127 Y147.922 E5.28829
G1 X80.03 Y146.767 E5.32684
G1 X80.017 Y146.158 E5.3471
G1 X80.018 Y91.078 E7.17907
G1 X80.019 Y89.036 E7.24699
G1 X80.028 Y88.371 E7.26911
G1 X80.08 Y87.469 E7.29916
G1 X80.212 Y86.576 E7.32918
G1 X80.422 Y85.698 E7.35921
G1 X80.709 Y84.841 E7.38927
G1 X81.071 Y84.014 E7.41929
G1 X81.504 Y83.222 E7.44931
G1 X82.006 Y82.471 E7.47936
G1 X82.573 Y81.767 E7.50942
G1 X83.199 Y81.117 E7.53944
G1 X83.88 Y80.524 E7.56947
G1 X84.612 Y79.994 E7.59953
G1 X85.387 Y79.531 E7.62956
G1 X86.2 Y79.138 E7.65959
G1 X87.045 Y78.818 E7.68964
G1 X87.914 Y78.575 E7.71966
G1 X88.802 Y78.409 E7.7497
G1 X89.941 Y78.313 E7.78772
G1 X90.548 Y78.3 E7.80791
G1 X144.222 Y78.301 E9.59312
G1 X144.92 Y78.311 E9.61634
G0 F6000 X144.926 Y77.911
G1 F1200 X145.845 Y77.964 E9.64695
G1 X146.756 Y78.097 E9.67757
G1 X147.652 Y78.308 E9.70819
G1 X148.526 Y78.596 E9.7388
G1 X149.373 Y78.959 E9.76945
G1 X150.184 Y79.394 E9.80006
G1 X150.954 Y79.898 E9.83067
G1 X151.678 Y80.467 E9.86129
G1 X152.35 Y81.097 E9.89193
G1 X152.965 Y81.782 E9.92255
G1 X153.518 Y82.518 E9.95317
G1 X154.005 Y83.299 E9.98378
G1 X154.422 Y84.12 E10.01441
G1 X154.767 Y84.974 E10.04504
G1 X155.036 Y85.854 E10.07565
G1 X155.228 Y86.755 E10.10629
G1 X155.341 Y87.668 E10.13689
G1 X155.37 Y88.212 E10.155
G1 X155.383 Y88.83 E10.17556
G1 X155.382 Y145.764 E12.0692
G1 X155.372 Y146.622 E12.09774
G1 X155.321 Y147.541 E12.12835
G1 X155.19 Y148.453 E12.15899
G1 X154.98 Y149.349 E12.1896
G1 X154.694 Y150.224 E12.22022
G1 X154.333 Y151.071 E12.25084
G1 X153.899 Y151.883 E12.28147
G1 X153.397 Y152.655 E12.31209
G1 X152.829 Y153.38 E12.34273
G1 X152.201 Y154.053 E12.37334
G1 X151.517 Y154.669 E12.40396
G1 X150.782 Y155.223 E12.43457
G1 X150.002 Y155.712 E12.46519
G1 X149.182 Y156.131 E12.49582
G1 X148.329 Y156.477 E12.52643
G1 X147.449 Y156.748 E12.55706
G1 X146.549 Y156.941 E12.58767
G1 X145.635 Y157.056 E12.61831
G1 X145.07 Y157.087 E12.63713
G1 X144.452 Y157.1 E12.65769
G1 X90.787 Y157.099 E14.4426
G1 X90.089 Y157.09 E14.46582
G1 X89.17 Y157.038 E14.49643
G1 X88.259 Y156.907 E14.52704
G1 X87.363 Y156.697 E14.55765
G1 X86.488 Y156.41 E14.58828
G1 X85.641 Y156.048 E14.61892
G1 X84.829 Y155.614 E14.64954
G1 X84.058 Y155.112 E14.68014
G1 X83.333 Y154.544 E14.71077
G1 X82.66 Y153.915 E14.74141
G1 X82.045 Y153.231 E14.772
G1 X81.491 Y152.496 E14.80262
G1 X81.003 Y151.715 E14.83325
G1 X80.584 Y150.895 E14.86387
G1 X80.238 Y150.042 E14.89449
G1 X79.968 Y149.162 E14.92511
G1 X79.775 Y148.261 E14.95575
G1 X79.661 Y147.348 E14.98635
G1 X79.63 Y146.777 E15.00537
G1 X79.617 Y146.158 E15.02597
G1 X79.618 Y91.078 E16.85793
G1 X79.619 Y89.031 E16.92602
G1 X79.628 Y88.366 E16.94814
G1 X79.68 Y87.446 E16.97879
G1 X79.812 Y86.535 E17.0094
G1 X80.023 Y85.639 E17.04002
G1 X80.31 Y84.764 E17.07065
G1 X80.673 Y83.918 E17.10127
G1 X81.107 Y83.106 E17.13189
G1 X81.61 Y82.335 E17.16251
G1 X82.179 Y81.611 E17.19313
G1 X82.807 Y80.939 E17.22373
G1 X83.492 Y80.323 E17.25437
G1 X84.228 Y79.77 E17.28499
G1 X85.009 Y79.282 E17.31562
G1 X85.829 Y78.864 E17.34623
G1 X86.683 Y78.519 E17.37686
G1 X87.563 Y78.249 E17.40748
G1 X88.463 Y78.057 E17.43809
G1 X89.377 Y77.943 E17.46872
G1 X89.93 Y77.913 E17.48714
G1 X90.548 Y77.9 E17.5077
G1 X144.228 Y77.901 E19.2931
G1 X144.926 Y77.911 E19.31632
G0 F6000 X144.932 Y77.511
G1 F1200 X145.868 Y77.565 E19.34751
G1 X146.796 Y77.697 E19.37868
G1 X147.71 Y77.909 E19.40989
G1 X148.602 Y78.198 E19.44108
G1 X149.467 Y78.561 E19.47228
G1 X150.297 Y78.997 E19.50346
G1 X151.088 Y79.502 E19.53467
G1 X151.832 Y80.073 E19.56587
G1 X152.525 Y80.705 E19.59706
G1 X153.162 Y81.393 E19.62825
G1 X153.737 Y82.134 E19.65944
G1 X154.248 Y82.92 E19.69062
G1 X154.69 Y83.748 E19.72184
G1 X155.059 Y84.61 E19.75303
G1 X155.354 Y85.5 E19.78421
G1 X155.572 Y86.412 E19.8154
G1 X155.712 Y87.34 E19.84661
G1 X155.77 Y88.201 E19.87532
G1 X155.783 Y88.83 E19.89624
G1 X155.782 Y145.764 E21.78987
G1 X155.772 Y146.627 E21.81858
G1 X155.721 Y147.564 E21.84979
G1 X155.589 Y148.492 E21.88097
G1 X155.38 Y149.406 E21.91215
G1 X155.093 Y150.299 E21.94335
G1 X154.731 Y151.165 E21.97457
G1 X154.297 Y151.996 E22.00575
G1 X153.793 Y152.787 E22.03694
G1 X153.224 Y153.532 E22.06812
G1 X152.593 Y154.227 E22.09934
G1 X151.906 Y154.865 E22.13053
G1 X151.167 Y155.442 E22.16171
G1 X150.381 Y155.954 E22.19291
G1 X149.555 Y156.397 E22.22409
G1 X148.693 Y156.769 E22.25531
G1 X147.804 Y157.065 E22.28648
G1 X146.892 Y157.285 E22.31768
G1 X145.965 Y157.426 E22.34887
G1 X145.081 Y157.487 E22.37834
G1 X144.452 Y157.5 E22.39926
G1 X90.782 Y157.499 E24.18434
G1 X90.084 Y157.49 E24.20755
G1 X89.148 Y157.438 E24.23873
G1 X88.219 Y157.306 E24.26994
G1 X87.305 Y157.096 E24.30113
G1 X86.412 Y156.809 E24.33233
G1 X85.547 Y156.446 E24.36353
G1 X84.716 Y156.012 E24.39471
G1 X83.925 Y155.508 E24.42591
G1 X83.18 Y154.938 E24.45711
G1 X82.486 Y154.307 E24.4883
G1 X81.849 Y153.62 E24.51947
G1 X81.272 Y152.88 E24.55068
G1 X80.76 Y152.094 E24.58188
G1 X80.317 Y151.267 E24.61308
G1 X79.946 Y150.406 E24.64426
G1 X79.65 Y149.516 E24.67546
G1 X79.431 Y148.604 E24.70665
G1 X79.29 Y147.677 E24.73784
G1 X79.23 Y146.788 E24.76748
G1 X79.217 Y146.158 E24.78843
G1 X79.218 Y91.078 E26.6204
G1 X79.219 Y89.025 E26.68868
G1 X79.228 Y88.36 E26.7108
G1 X79.281 Y87.424 E26.74199
G1 X79.413 Y86.495 E26.7732
G1 X79.624 Y85.581 E26.80439
G1 X79.912 Y84.689 E26.83557
G1 X80.275 Y83.824 E26.86677
G1 X80.71 Y82.993 E26.89797
G1 X81.214 Y82.203 E26.92914
G1 X81.784 Y81.458 E26.96033
G1 X82.416 Y80.764 E26.99155
G1 X83.104 Y80.127 E27.02274
G1 X83.844 Y79.551 E27.05393
G1 X84.63 Y79.039 E27.08513
G1 X85.457 Y78.597 E27.11632
G1 X86.319 Y78.227 E27.14752
G1 X87.209 Y77.931 E27.17871
G1 X88.121 Y77.713 E27.2099
G1 X89.048 Y77.572 E27.24109
G1 X89.919 Y77.513 E27.27012
G1 X90.548 Y77.5 E27.29105
G1 X144.234 Y77.501 E29.07665
G1 X144.932 Y77.511 E29.09987
G0 F6000 X144.937 Y77.111
G1 F1200 X145.891 Y77.165 E29.13165
G1 X146.836 Y77.298 E29.16339
G1 X147.767 Y77.51 E29.19515
G1 X148.677 Y77.799 E29.22691
G1 X149.56 Y78.163 E29.25867
G1 X150.409 Y78.6 E29.29043
G1 X151.218 Y79.106 E29.32217
G1 X151.982 Y79.678 E29.35391
G1 X152.696 Y80.312 E29.38567
G1 X153.354 Y81.004 E29.41743
G1 X153.952 Y81.748 E29.44918
G1 X154.486 Y82.54 E29.48095
G1 X154.951 Y83.374 E29.51271
G1 X155.346 Y84.243 E29.54446
G1 X155.665 Y85.143 E29.57622
G1 X155.909 Y86.066 E29.60797
G1 X156.074 Y87.007 E29.63974
G1 X156.169 Y88.19 E29.67922
G1 X156.183 Y88.83 E29.70051
G1 X156.182 Y145.764 E31.59414
G1 X156.172 Y146.632 E31.62301
G1 X156.12 Y147.585 E31.65476
G1 X155.989 Y148.531 E31.68652
G1 X155.779 Y149.463 E31.7183
G1 X155.492 Y150.373 E31.75003
G1 X155.129 Y151.256 E31.78179
G1 X154.694 Y152.106 E31.81355
G1 X154.189 Y152.917 E31.84532
G1 X153.619 Y153.682 E31.87705
G1 X152.986 Y154.397 E31.90881
G1 X152.296 Y155.057 E31.94057
G1 X151.552 Y155.656 E31.97234
G1 X150.762 Y156.191 E32.00407
G1 X149.929 Y156.658 E32.03584
G1 X149.06 Y157.054 E32.0676
G1 X148.161 Y157.376 E32.09936
G1 X147.238 Y157.621 E32.13112
G1 X146.298 Y157.788 E32.16288
G1 X145.093 Y157.887 E32.20309
G1 X144.452 Y157.9 E32.22441
G1 X90.777 Y157.899 E34.00965
G1 X90.079 Y157.89 E34.03287
G1 X89.126 Y157.838 E34.06461
G1 X88.18 Y157.706 E34.09638
G1 X87.249 Y157.495 E34.12813
G1 X86.338 Y157.208 E34.1599
G1 X85.455 Y156.845 E34.19165
G1 X84.606 Y156.409 E34.2234
G1 X83.795 Y155.904 E34.25517
G1 X83.03 Y155.333 E34.28692
G1 X82.316 Y154.7 E34.31866
G1 X81.656 Y154.009 E34.35044
G1 X81.057 Y153.266 E34.38219
G1 X80.523 Y152.475 E34.41393
G1 X80.056 Y151.642 E34.44569
G1 X79.661 Y150.773 E34.47744
G1 X79.339 Y149.874 E34.5092
G1 X79.095 Y148.951 E34.54095
G1 X78.928 Y148.011 E34.57271
G1 X78.83 Y146.799 E34.61315
G1 X78.817 Y146.158 E34.63448
G1 X78.818 Y91.078 E36.46644
G1 X78.819 Y89.02 E36.53489
G1 X78.828 Y88.355 E36.55701
G1 X78.881 Y87.401 E36.58879
G1 X79.013 Y86.456 E36.62053
G1 X79.225 Y85.525 E36.65229
G1 X79.513 Y84.615 E36.68403
G1 X79.876 Y83.732 E36.71579
G1 X80.312 Y82.882 E36.74756
G1 X80.818 Y82.072 E36.77932
G1 X81.39 Y81.308 E36.81107
G1 X82.023 Y80.593 E36.84283
G1 X82.714 Y79.935 E36.87457
G1 X83.458 Y79.336 E36.90633
G1 X84.25 Y78.802 E36.9381
G1 X85.083 Y78.336 E36.96985
G1 X85.952 Y77.941 E37.0016
G1 X86.851 Y77.62 E37.03335
G1 X87.774 Y77.376 E37.0651
G1 X88.715 Y77.21 E37.09688
G1 X89.907 Y77.113 E37.13666
G1 X90.548 Y77.1 E37.15799
G1 X144.239 Y77.101 E38.94376
G1 X144.937 Y77.111 E38.96697
G1 F1500 E32.71697
;MESH:c5b69541-42ce-4446-81ff-ee473a6f193e.stl
G0 F6000 X144.369 Y87.835
G0 X144.369 Y88.914
G0 X143.782 Y145.5
;TYPE:WALL-INNER
G1 F1500 E38.96697
G1 F1200 X91.416 Y145.5 E40.70867
G1 X91.217 Y145.5 E40.71529
G1 X91.217 Y145.301 E40.71957
G1 X91.218 Y91.078 E42.52304
G1 X91.218 Y89.5 E42.57552
G1 X143.584 Y89.5 E44.31722
G1 X143.783 Y89.5 E44.32384
G1 X143.783 Y89.699 E44.32812
G1 X143.782 Y138.767 E45.96013
G1 X143.782 Y145.5 E46.18407
G0 F6000 X144.182 Y145.9
G1 F1200 X91.016 Y145.9 E47.95238
G1 X90.817 Y145.9 E47.959
G1 X90.817 Y145.701 E47.96328
G1 X90.818 Y91.078 E49.78005
G1 X90.818 Y89.1 E49.84584
G1 X143.984 Y89.1 E51.61415
G1 X144.183 Y89.1 E51.62077
G1 X144.183 Y89.299 E51.62505
G1 X144.182 Y138.767 E53.27036
G1 X144.182 Y145.9 E53.50761
G0 F6000 X144.582 Y146.3
;TYPE:WALL-OUTER
G1 F1200 X90.417 Y146.3 E55.30914
G1 X90.418 Y91.078 E57.14583
G1 X90.418 Y88.7 E57.22493
G1 X144.583 Y88.7 E59.02646
G1 X144.582 Y138.767 E60.6917
G1 X144.582 Y146.3 E60.94224
G0 F6000 X144.312 Y146.03
G0 X143.672 Y145.11
G0 X143.392 Y145.11
;TYPE:SKIN
G1 F1200 X91.607 Y145.11 E62.66462
G1 X91.608 Y89.89 E64.50125
G1 X143.393 Y89.89 E66.22362
G1 X143.392 Y138.767 E67.84928
G1 X143.392 Y145.11 E68.06025
G0 F6000 X142.992 Y144.71
G1 F1200 X92.007 Y144.71 E69.75601
G1 X92.008 Y90.29 E71.56603
G1 X142.993 Y90.29 E73.2618
G1 X142.992 Y138.767 E74.87415
G1 X142.992 Y144.71 E75.07181
G1 F1500 E68.82181
G0 F6000 X143.672 Y144.71
G0 X143.6 Y145.318
G0 X91.399 Y145.318
G0 X91.328 Y144.348
G0 X92.367 Y144.349
G1 F1500 E75.07181
G1 F1200 X92.871 Y144.348 E75.08858
G1 X92.367 Y143.844 E75.11228
G0 F6000 X92.871 Y144.348
G1 F1200 X93.437 Y144.348 E75.13111
G1 X92.367 Y143.278 E75.18144
G1 X92.367 Y142.713 E75.20023
G1 X94.002 Y144.348 E75.27714
G1 X94.568 Y144.348 E75.29596
G1 X92.367 Y142.147 E75.39949
G1 X92.367 Y141.581 E75.41832
G1 X95.134 Y144.348 E75.54847
G1 X95.699 Y144.348 E75.56726
G1 X92.367 Y141.016 E75.72399
G1 X92.367 Y140.45 E75.74281
G1 X96.265 Y144.348 E75.92616
G1 X96.831 Y144.348 E75.94499
G1 X92.367 Y139.884 E76.15496
G1 X92.367 Y139.319 E76.17375
G1 X97.396 Y144.348 E76.4103
G1 X97.962 Y144.348 E76.42913
G1 X92.367 Y138.753 E76.6923
G1 X92.367 Y138.187 E76.71112
G1 X98.528 Y144.348 E77.00092
G1 X99.093 Y144.348 E77.01971
G1 X92.367 Y137.622 E77.33608
G1 X92.367 Y137.056 E77.3549
G1 X99.659 Y144.348 E77.6979
G1 X100.225 Y144.348 E77.71672
G1 X92.367 Y136.49 E78.08634
G1 X92.367 Y135.925 E78.10513
G1 X100.791 Y144.348 E78.50135
G1 X101.356 Y144.348 E78.52014
G1 X92.367 Y135.359 E78.94295
G1 X92.367 Y134.793 E78.96178
G1 X101.922 Y144.348 E79.41122
G1 X102.488 Y144.348 E79.43004
G1 X92.367 Y134.227 E79.9061
G1 X92.367 Y133.662 E79.92489
G1 X103.053 Y144.348 E80.42753
G1 X103.619 Y144.348 E80.44636
G1 X92.367 Y133.096 E80.97562
G1 X92.367 Y132.53 E80.99444
G1 X104.185 Y144.348 E81.55032
G1 X104.75 Y144.348 E81.56912
G1 X92.367 Y131.965 E82.15157
G1 X92.367 Y131.399 E82.1704
G1 X105.316 Y144.348 E82.77948
G1 X105.882 Y144.348 E82.79831
G1 X92.367 Y130.833 E83.43401
G1 X92.367 Y130.268 E83.4528
G1 X106.447 Y144.348 E84.11508
G1 X107.013 Y144.348 E84.13391
G1 X92.367 Y129.702 E84.82281
G1 X92.367 Y129.136 E84.84164
G1 X107.579 Y144.348 E85.55716
G1 X108.144 Y144.348 E85.57595
G1 X92.367 Y128.571 E86.31806
G1 X92.367 Y128.005 E86.33688
G1 X108.71 Y144.348 E87.1056
G1 X109.276 Y144.348 E87.12443
G1 X92.367 Y127.439 E87.91978
G1 X92.367 Y126.874 E87.93857
G1 X109.841 Y144.348 E88.76049
G1 X110.407 Y144.348 E88.77932
G1 X92.367 Y126.308 E89.62786
G1 X92.367 Y125.742 E89.64669
G1 X110.973 Y144.348 E90.52186
G1 X111.539 Y144.348 E90.54068
G1 X92.367 Y125.176 E91.44248
G1 X92.367 Y124.611 E91.46127
G1 X112.104 Y144.348 E92.38964
G1 X112.67 Y144.348 E92.40846
G1 X92.367 Y124.045 E93.36345
G1 X92.367 Y123.479 E93.38228
G1 X113.236 Y144.348 E94.36389
G1 X113.801 Y144.348 E94.38268
G1 X92.367 Y122.914 E95.39087
G1 X92.367 Y122.348 E95.4097
G1 X114.367 Y144.348 E96.44451
G1 X114.933 Y144.348 E96.46334
G1 X92.367 Y121.782 E97.52477
G1 X92.367 Y121.217 E97.54356
G1 X115.498 Y144.348 E98.63157
G1 X116.064 Y144.348 E98.6504
G1 X92.367 Y120.651 E99.76503
G1 X92.367 Y120.085 E99.78386
G1 X116.63 Y144.348 E100.92512
G1 X117.195 Y144.348 E100.94391
G1 X92.367 Y119.52 E102.11174
G1 X92.367 Y118.954 E102.13057
G1 X117.761 Y144.348 E103.32502
G1 X118.327 Y144.348 E103.34385
G1 X92.367 Y118.388 E104.56493
G1 X92.367 Y117.823 E104.58372
G1 X118.892 Y144.348 E105.83137
G1 X119.458 Y144.348 E105.8502
G1 X92.367 Y117.257 E107.12448
G1 X92.367 Y116.691 E107.1433
G1 X120.024 Y144.348 E108.4442
G1 X120.589 Y144.348 E108.46299
G1 X92.367 Y116.126 E109.79047
G1 X92.367 Y115.56 E109.8093
G1 X121.155 Y144.348 E111.16339
G1 X121.721 Y144.348 E111.18222
G1 X92.367 Y114.994 E112.56294
G1 X92.367 Y114.428 E112.58177
G1 X122.287 Y144.348 E113.98911
G1 X122.852 Y144.348 E114.0079
G1 X92.367 Y113.863 E115.44183
G1 X92.367 Y113.297 E115.46065
G1 X123.418 Y144.348 E116.92119
G1 X123.984 Y144.348 E116.94002
G1 X92.367 Y112.731 E118.42719
G1 X92.367 Y112.166 E118.44598
