;FLAVOR:Marlin
;TIME:1952
;Filament used: 1.35444m
;Layer height: 0.2
;MINX:186.2
;MINY:186.2
;MINZ:0.2
;MAXX:213.8
;MAXY:213.8
;MAXZ:20
;LINEARADVANCEPROCESSED
;Generated with Cura_SteamEngine 4.9.0
M140 S50
M105
M190 S50
M104 S200
M105
M109 S200
M82 ;absolute extrusion mode
M201 X500.00 Y500.00 Z100.00 E5000.00 ;Setup machine max acceleration
M203 X500.00 Y500.00 Z10.00 E50.00 ;Setup machine max feedrate
M204 P500.00 R1000.00 T500.00 ;Setup Print/Retract/Travel acceleration
M205 X8.00 Y8.00 Z0.40 E5.00 ;Setup Jerk
M220 S100 ;Reset Feedrate
M221 S100 ;Reset Flowrate

G28 ;Home

G92 E0 ;Reset Extruder
G1 Z2.0 F3000 ;Move Z Axis up
G1 X10.1 Y20 Z0.28 F5000.0 ;Move to start position
G1 X10.1 Y200.0 Z0.28 F1500.0 E15 ;Draw the first line
G1 X10.4 Y200.0 Z0.28 F5000.0 ;Move to side a little
G1 X10.4 Y20 Z0.28 F1500.0 E30 ;Draw the second line
G92 E0 ;Reset Extruder
G1 Z2.0 F3000 ;Move Z Axis up

G92 E0
G92 E0
G1 F2700 E-2
;LAYER_COUNT:100
M900 K0.000000 T0 ;added by LinearAdvanceSettingPlugin
;LAYER:0
M107
G0 F6000 X187.313 Y187.43 Z0.2
;TYPE:SKIRT
G1 F2700 E0
G1 F1200 X187.43 Y187.313 E0.0055
G1 X187.847 Y186.953 E0.02383
G1 X188.311 Y186.656 E0.04215
G1 X188.814 Y186.43 E0.06049
G1 X189.344 Y186.279 E0.07882
G1 X190.117 Y186.2 E0.10466
G1 X209.883 Y186.2 E0.76208
G1 X210.433 Y186.24 E0.78043
G1 X210.971 Y186.359 E0.79875
G1 X211.486 Y186.555 E0.81708
G1 X211.967 Y186.823 E0.83539
G1 X212.57 Y187.313 E0.86124
G1 X212.687 Y187.43 E0.86674
G1 X213.047 Y187.847 E0.88506
G1 X213.344 Y188.311 E0.90339
G1 X213.57 Y188.814 E0.92173
G1 X213.721 Y189.344 E0.94006
G1 X213.8 Y190.117 E0.9659
G1 X213.8 Y209.883 E1.62332
G1 X213.76 Y210.433 E1.64166
G1 X213.641 Y210.971 E1.65999
G1 X213.445 Y211.486 E1.67831
G1 X213.177 Y211.967 E1.69663
G1 X212.687 Y212.57 E1.72247
G1 X212.57 Y212.687 E1.72797
G1 X212.153 Y213.047 E1.7463
G1 X211.689 Y213.344 E1.76462
G1 X211.186 Y213.57 E1.78296
G1 X210.656 Y213.721 E1.80129
G1 X209.883 Y213.8 E1.82714
G1 X190.117 Y213.8 E2.48456
G1 X189.567 Y213.76 E2.5029
G1 X189.029 Y213.641 E2.52122
G1 X188.514 Y213.445 E2.53955
G1 X188.033 Y213.177 E2.55786
G1 X187.43 Y212.687 E2.58371
G1 X187.313 Y212.57 E2.58921
G1 X186.953 Y212.153 E2.60753
G1 X186.656 Y211.689 E2.62586
G1 X186.43 Y211.186 E2.6442
G1 X186.279 Y210.656 E2.66253
G1 X186.2 Y209.883 E2.68837
G1 X186.2 Y190.117 E3.34579
G1 X186.24 Y189.567 E3.36413
G1 X186.359 Y189.029 E3.38246
G1 X186.555 Y188.514 E3.40079
G1 X186.823 Y188.033 E3.4191
G1 X187.313 Y187.43 E3.44494
G0 F6000 X187.596 Y187.713
G1 F1200 X187.713 Y187.596 E3.45045
G1 X188.109 Y187.257 E3.46778
G1 X188.551 Y186.982 E3.4851
G1 X189.031 Y186.778 E3.50245
G1 X189.536 Y186.65 E3.51977
G1 X190.117 Y186.6 E3.53917
G1 X209.883 Y186.6 E4.19659
G1 X210.403 Y186.64 E4.21393
G1 X210.91 Y186.759 E4.23126
G1 X211.393 Y186.954 E4.24858
G1 X211.841 Y187.22 E4.26591
G1 X212.287 Y187.596 E4.28531
G1 X212.404 Y187.713 E4.29081
G1 X212.743 Y188.109 E4.30815
G1 X213.018 Y188.551 E4.32547
G1 X213.222 Y189.031 E4.34281
G1 X213.35 Y189.536 E4.36014
G1 X213.4 Y190.117 E4.37954
G1 X213.4 Y209.883 E5.03696
G1 X213.36 Y210.403 E5.0543
G1 X213.241 Y210.91 E5.07162
G1 X213.046 Y211.393 E5.08895
G1 X212.78 Y211.841 E5.10628
G1 X212.404 Y212.287 E5.12568
G1 X212.287 Y212.404 E5.13118
G1 X211.891 Y212.743 E5.14852
G1 X211.449 Y213.018 E5.16584
G1 X210.969 Y213.222 E5.18318
G1 X210.464 Y213.35 E5.20051
G1 X209.883 Y213.4 E5.21991
G1 X190.117 Y213.4 E5.87732
G1 X189.597 Y213.36 E5.89467
G1 X189.09 Y213.241 E5.91199
G1 X188.607 Y213.046 E5.92932
G1 X188.159 Y212.78 E5.94665
G1 X187.713 Y212.404 E5.96605
G1 X187.596 Y212.287 E5.97155
G1 X187.257 Y211.891 E5.98889
G1 X186.982 Y211.449 E6.0062
G1 X186.778 Y210.969 E6.02355
G1 X186.65 Y210.464 E6.04088
G1 X186.6 Y209.883 E6.06027
G1 X186.6 Y190.117 E6.71769
G1 X186.64 Y189.597 E6.73504
G1 X186.759 Y189.09 E6.75236
G1 X186.954 Y188.607 E6.76969
G1 X187.22 Y188.159 E6.78701
G1 X187.596 Y187.713 E6.80642
G0 F6000 X187.879 Y187.996
G1 F1200 X187.996 Y187.879 E6.81192
G1 X188.369 Y187.562 E6.8282
G1 X188.789 Y187.31 E6.84449
G1 X189.244 Y187.13 E6.86077
G1 X189.722 Y187.026 E6.87704
G1 X190.117 Y187 E6.8902
G1 X209.883 Y187 E7.54762
G1 X210.371 Y187.04 E7.56391
G1 X210.846 Y187.159 E7.58019
G1 X211.295 Y187.353 E7.59646
G1 X211.707 Y187.618 E7.61276
G1 X212.004 Y187.879 E7.62591
G1 X212.121 Y187.996 E7.63141
G1 X212.438 Y188.369 E7.64769
G1 X212.69 Y188.789 E7.66398
G1 X212.87 Y189.244 E7.68026
G1 X212.974 Y189.722 E7.69653
G1 X213 Y190.117 E7.70969
G1 X213 Y209.883 E8.36711
G1 X212.96 Y210.371 E8.3834
G1 X212.841 Y210.846 E8.39968
G1 X212.647 Y211.295 E8.41595
G1 X212.382 Y211.707 E8.43225
G1 X212.121 Y212.004 E8.4454
G1 X212.004 Y212.121 E8.4509
G1 X211.631 Y212.438 E8.46718
G1 X211.211 Y212.69 E8.48347
G1 X210.756 Y212.87 E8.49975
G1 X210.278 Y212.974 E8.51602
G1 X209.883 Y213 E8.52918
G1 X190.117 Y213 E9.1866
G1 X189.629 Y212.96 E9.20289
G1 X189.154 Y212.841 E9.21917
G1 X188.705 Y212.647 E9.23544
G1 X188.293 Y212.382 E9.25174
G1 X187.996 Y212.121 E9.26489
G1 X187.879 Y212.004 E9.27039
G1 X187.562 Y211.631 E9.28667
G1 X187.31 Y211.211 E9.30296
G1 X187.13 Y210.756 E9.31924
G1 X187.026 Y210.278 E9.33551
G1 X187 Y209.883 E9.34867
G1 X187 Y190.117 E10.00609
G1 X187.04 Y189.629 E10.02238
G1 X187.159 Y189.154 E10.03866
G1 X187.353 Y188.705 E10.05493
G1 X187.618 Y188.293 E10.07123
G1 X187.879 Y187.996 E10.08438
G0 F6000 X188.162 Y188.279
G1 F1200 X188.279 Y188.162 E10.08988
G1 X188.628 Y187.869 E10.10504
G1 X189.023 Y187.642 E10.12019
G1 X189.451 Y187.487 E10.13533
G1 X190.117 Y187.4 E10.15767
G1 X209.883 Y187.4 E10.81509
G1 X210.337 Y187.44 E10.83025
G1 X210.777 Y187.558 E10.8454
G1 X211.189 Y187.752 E10.86054
G1 X211.721 Y188.162 E10.88288
G1 X211.838 Y188.279 E10.88839
G1 X212.131 Y188.628 E10.90354
G1 X212.358 Y189.023 E10.9187
G1 X212.513 Y189.451 E10.93384
G1 X212.6 Y190.117 E10.95618
G1 X212.6 Y209.883 E11.6136
G1 X212.56 Y210.337 E11.62875
G1 X212.442 Y210.777 E11.64391
G1 X212.248 Y211.189 E11.65905
G1 X211.838 Y211.721 E11.68139
G1 X211.721 Y211.838 E11.68689
G1 X211.372 Y212.131 E11.70205
G1 X210.977 Y212.358 E11.7172
G1 X210.549 Y212.513 E11.73234
G1 X209.883 Y212.6 E11.75468
G1 X190.117 Y212.6 E12.4121
G1 X189.663 Y212.56 E12.42726
G1 X189.223 Y212.442 E12.44241
G1 X188.811 Y212.248 E12.45756
G1 X188.279 Y211.838 E12.4799
G1 X188.162 Y211.721 E12.4854
G1 X187.869 Y211.372 E12.50056
G1 X187.642 Y210.977 E12.51571
G1 X187.487 Y210.549 E12.53085
G1 X187.4 Y209.883 E12.55319
G1 X187.4 Y190.117 E13.21061
G1 X187.44 Y189.663 E13.22577
G1 X187.558 Y189.223 E13.24092
G1 X187.752 Y188.811 E13.25607
G1 X188.162 Y188.279 E13.27841
G0 F6000 X188.444 Y188.561
G1 F1200 X188.561 Y188.444 E13.28391
G1 X188.885 Y188.178 E13.29785
G1 X189.252 Y187.977 E13.31177
G1 X189.652 Y187.85 E13.32573
G1 X190.117 Y187.8 E13.34128
G1 X209.883 Y187.8 E13.9987
G1 X210.3 Y187.84 E14.01264
G1 X210.702 Y187.958 E14.02657
G1 X211.074 Y188.151 E14.04051
G1 X211.439 Y188.444 E14.05608
G1 X211.556 Y188.561 E14.06158
G1 X211.822 Y188.885 E14.07552
G1 X212.023 Y189.252 E14.08944
G1 X212.15 Y189.652 E14.1034
G1 X212.2 Y190.117 E14.11895
G1 X212.2 Y209.883 E14.77637
G1 X212.16 Y210.3 E14.79031
G1 X212.042 Y210.702 E14.80424
G1 X211.849 Y211.074 E14.81818
G1 X211.556 Y211.439 E14.83375
G1 X211.439 Y211.556 E14.83925
G1 X211.115 Y211.822 E14.85319
G1 X210.748 Y212.023 E14.86711
G1 X210.348 Y212.15 E14.88107
G1 X209.883 Y212.2 E14.89663
G1 X190.117 Y212.2 E15.55405
G1 X189.7 Y212.16 E15.56798
G1 X189.298 Y212.042 E15.58191
G1 X188.926 Y211.849 E15.59585
G1 X188.561 Y211.556 E15.61142
G1 X188.444 Y211.439 E15.61692
G1 X188.178 Y211.115 E15.63087
G1 X187.977 Y210.748 E15.64478
G1 X187.85 Y210.348 E15.65874
G1 X187.8 Y209.883 E15.6743
G1 X187.8 Y190.117 E16.33172
G1 X187.84 Y189.7 E16.34565
G1 X187.958 Y189.298 E16.35958
G1 X188.151 Y188.926 E16.37352
G1 X188.444 Y188.561 E16.38909
G0 F6000 X188.727 Y188.844
G1 F1200 X188.844 Y188.727 E16.39459
G1 X189.139 Y188.489 E16.4072
G1 X189.477 Y188.318 E16.4198
G1 X189.843 Y188.221 E16.43239
G1 X190.117 Y188.2 E16.44153
G1 X209.883 Y188.2 E17.09895
G1 X210.26 Y188.24 E17.11156
G1 X210.62 Y188.358 E17.12416
G1 X210.947 Y188.548 E17.13674
G1 X211.156 Y188.727 E17.14589
G1 X211.273 Y188.844 E17.1514
G1 X211.511 Y189.139 E17.164
G1 X211.682 Y189.477 E17.1766
G1 X211.779 Y189.843 E17.1892
G1 X211.8 Y190.117 E17.19834
G1 X211.8 Y209.883 E17.85576
G1 X211.76 Y210.26 E17.86837
G1 X211.642 Y210.62 E17.88097
G1 X211.452 Y210.947 E17.89354
G1 X211.273 Y211.156 E17.9027
G1 X211.156 Y211.273 E17.9082
G1 X210.861 Y211.511 E17.92081
G1 X210.523 Y211.682 E17.93341
G1 X210.157 Y211.779 E17.946
G1 X209.883 Y211.8 E17.95514
G1 X190.117 Y211.8 E18.61256
G1 X189.74 Y211.76 E18.62517
G1 X189.38 Y211.642 E18.63777
G1 X189.053 Y211.452 E18.65035
G1 X188.844 Y211.273 E18.6595
G1 X188.727 Y211.156 E18.665
G1 X188.489 Y210.861 E18.67761
G1 X188.318 Y210.523 E18.69021
G1 X188.221 Y210.157 E18.7028
G1 X188.2 Y209.883 E18.71194
G1 X188.2 Y190.117 E19.36936
G1 X188.24 Y189.74 E19.38197
G1 X188.358 Y189.38 E19.39457
G1 X188.548 Y189.053 E19.40715
G1 X188.727 Y188.844 E19.4163
G0 F6000 X189.01 Y189.127
G1 F1200 X189.127 Y189.01 E19.42181
G1 X189.39 Y188.804 E19.43292
G1 X189.694 Y188.665 E19.44404
G1 X190.117 Y188.6 E19.45827
G1 X209.883 Y188.6 E20.11569
G1 X210.215 Y188.64 E20.12681
G1 X210.527 Y188.757 E20.1379
G1 X210.873 Y189.01 E20.15215
G1 X210.99 Y189.127 E20.15765
G1 X211.196 Y189.39 E20.16877
G1 X211.335 Y189.694 E20.17988
G1 X211.4 Y190.117 E20.19412
G1 X211.4 Y209.883 E20.85154
G1 X211.36 Y210.215 E20.86266
G1 X211.243 Y210.527 E20.87374
G1 X210.99 Y210.873 E20.888
G1 X210.873 Y210.99 E20.8935
G1 X210.61 Y211.196 E20.90461
G1 X210.306 Y211.335 E20.91573
G1 X209.883 Y211.4 E20.92997
G1 X190.117 Y211.4 E21.58739
G1 X189.785 Y211.36 E21.59851
G1 X189.473 Y211.243 E21.60959
G1 X189.127 Y210.99 E21.62385
G1 X189.01 Y210.873 E21.62935
G1 X188.804 Y210.61 E21.64046
G1 X188.665 Y210.306 E21.65158
G1 X188.6 Y209.883 E21.66581
G1 X188.6 Y190.117 E22.32323
G1 X188.64 Y189.785 E22.33436
G1 X188.757 Y189.473 E22.34544
G1 X189.01 Y189.127 E22.3597
G0 F6000 X189.41 Y189.293
G1 F1200 X189.636 Y189.124 E22.36908
G1 X189.9 Y189.024 E22.37847
G1 X190.117 Y189 E22.38573
G1 X209.883 Y189 E23.04315
G1 X210.162 Y189.04 E23.05253
G1 X210.419 Y189.156 E23.0619
G1 X210.707 Y189.41 E23.07468
G1 X210.876 Y189.636 E23.08406
G1 X210.976 Y189.9 E23.09345
G1 X211 Y190.117 E23.10071
G1 X211 Y209.883 E23.75813
G1 X210.96 Y210.162 E23.76751
G1 X210.844 Y210.419 E23.77689
G1 X210.59 Y210.707 E23.78966
G1 X210.364 Y210.876 E23.79904
G1 X210.1 Y210.976 E23.80843
G1 X209.883 Y211 E23.8157
G1 X190.117 Y211 E24.47312
G1 X189.838 Y210.96 E24.48249
G1 X189.581 Y210.844 E24.49187
G1 X189.293 Y210.59 E24.50464
G1 X189.124 Y210.364 E24.51403
G1 X189.024 Y210.1 E24.52342
G1 X189 Y209.883 E24.53068
G1 X189 Y190.117 E25.1881
G1 X189.04 Y189.838 E25.19747
G1 X189.156 Y189.581 E25.20685
G1 X189.41 Y189.293 E25.21962
G0 F6000 X189.693 Y189.576
G1 F1200 X189.872 Y189.452 E25.22686
G1 X190.117 Y189.4 E25.23519
G1 X209.883 Y189.4 E25.89261
G1 X210.098 Y189.44 E25.89989
G1 X210.424 Y189.693 E25.91361
G1 X210.548 Y189.872 E25.92086
G1 X210.6 Y190.117 E25.92919
G1 X210.6 Y209.883 E26.58661
G1 X210.56 Y210.098 E26.59388
G1 X210.307 Y210.424 E26.6076
G1 X210.128 Y210.548 E26.61485
G1 X209.883 Y210.6 E26.62318
G1 X190.117 Y210.6 E27.2806
G1 X189.902 Y210.56 E27.28787
G1 X189.576 Y210.307 E27.3016
G1 X189.452 Y210.128 E27.30884
G1 X189.4 Y209.883 E27.31717
G1 X189.4 Y190.117 E27.97459
G1 X189.44 Y189.902 E27.98186
G1 X189.693 Y189.576 E27.99559
G0 F6000 X189.859 Y189.976
G1 F1200 X189.976 Y189.859 E28.00109
G1 X190.117 Y189.8 E28.00617
G1 X209.883 Y189.8 E28.66359
G1 X210.024 Y189.859 E28.66868
G1 X210.141 Y189.976 E28.67418
G1 X210.2 Y190.117 E28.67926
G1 X210.2 Y209.883 E29.33668
G1 X210.141 Y210.024 E29.34177
G1 X210.024 Y210.141 E29.34727
G1 X209.883 Y210.2 E29.35235
G1 X190.117 Y210.2 E30.00977
G1 X189.976 Y210.141 E30.01486
G1 X189.859 Y210.024 E30.02036
G1 X189.8 Y209.883 E30.02545
G1 X189.8 Y190.117 E30.68287
G1 X189.859 Y189.976 E30.68795
G1 F2700 E28.68795
;MESH:CHEPCalibrationCube.stl
G0 F6000 X190.81 Y190.81
G0 X190.782 Y209.218
G0 X209.5 Y209.53
G0 X209.8 Y209.8
;TYPE:WALL-OUTER
G1 F2700 E30.68795
G1 F1200 X190.2 Y209.8 E31.33985
G1 X190.2 Y190.2 E31.99175
G1 X209.8 Y190.2 E32.64364
G1 X209.8 Y209.8 E33.29554
G0 F6000 X209.4 Y209.4
;TYPE:WALL-INNER
G1 F1200 X190.6 Y209.4 E33.92083
G1 X190.6 Y190.6 E34.54612
G1 X209.4 Y190.6 E35.17142
G1 X209.4 Y209.4 E35.79671
G0 F6000 X209.01 Y209.01
;TYPE:SKIN
G1 F1200 X190.99 Y209.01 E36.39605
G1 X190.99 Y190.99 E36.9954
G1 X209.01 Y190.99 E37.59475
G1 X209.01 Y209.01 E38.1941
G0 F6000 X209.29 Y209.01
G0 X209.29 Y191.313
G0 X208.849 Y191.313
G1 F1200 X208.686 Y191.15 E38.20176
G0 F6000 X208.12 Y191.15
G1 F1200 X208.849 Y191.879 E38.23605
G0 F6000 X208.849 Y192.444
G1 F1200 X207.554 Y191.15 E38.29694
G0 F6000 X206.989 Y191.15
G1 F1200 X208.849 Y193.01 E38.38443
G0 F6000 X208.849 Y193.576
G1 F1200 X206.423 Y191.15 E38.49854
G0 F6000 X205.857 Y191.15
G1 F1200 X208.849 Y194.141 E38.63925
G0 F6000 X208.849 Y194.707
G1 F1200 X205.292 Y191.15 E38.80656
G0 F6000 X204.726 Y191.15
G1 F1200 X208.849 Y195.273 E39.0005
G0 F6000 X208.849 Y195.838
G1 F1200 X204.16 Y191.15 E39.22103
G0 F6000 X203.595 Y191.15
G1 F1200 X208.849 Y196.404 E39.46816
G0 F6000 X208.849 Y196.97
G1 F1200 X203.029 Y191.15 E39.74192
G0 F6000 X202.463 Y191.15
G1 F1200 X208.849 Y197.535 E40.04227
G0 F6000 X208.849 Y198.101
G1 F1200 X201.898 Y191.15 E40.36923
G0 F6000 X201.332 Y191.15
G1 F1200 X208.849 Y198.667 E40.7228
G0 F6000 X208.849 Y199.232
G1 F1200 X200.766 Y191.15 E41.10298
G0 F6000 X200.201 Y191.15
G1 F1200 X208.849 Y199.798 E41.50975
G0 F6000 X208.849 Y200.364
G1 F1200 X199.635 Y191.15 E41.94315
G0 F6000 X199.069 Y191.15
G1 F1200 X208.849 Y200.93 E42.40317
G0 F6000 X208.849 Y201.495
G1 F1200 X198.503 Y191.15 E42.88979
G0 F6000 X197.938 Y191.15
G1 F1200 X208.849 Y202.061 E43.40301
G0 F6000 X208.849 Y202.627
G1 F1200 X197.372 Y191.15 E43.94286
G0 F6000 X196.806 Y191.15
G1 F1200 X208.849 Y203.192 E44.5093
G0 F6000 X208.849 Y203.758
G1 F1200 X196.241 Y191.15 E45.10234
G0 F6000 X195.675 Y191.15
G1 F1200 X208.849 Y204.324 E45.722
G0 F6000 X208.849 Y204.889
G1 F1200 X195.109 Y191.15 E46.36827
G0 F6000 X194.544 Y191.15
G1 F1200 X208.849 Y205.455 E47.04113
G0 F6000 X208.849 Y206.021
G1 F1200 X193.978 Y191.15 E47.74062
G0 F6000 X193.412 Y191.15
G1 F1200 X208.849 Y206.586 E48.4667
G0 F6000 X208.849 Y207.152
G1 F1200 X192.847 Y191.15 E49.21939
G0 F6000 X192.281 Y191.15
G1 F1200 X208.849 Y207.718 E49.9987
G0 F6000 X208.849 Y208.283
G1 F1200 X191.715 Y191.15 E50.8046
G0 F6000 X191.149 Y191.149
G1 F1200 X208.849 Y208.849 E51.63716
G0 F6000 X208.283 Y208.848
G1 F1200 X191.149 Y191.715 E52.44307
G0 F6000 X191.149 Y192.28
G1 F1200 X207.717 Y208.848 E53.22237
G0 F6000 X207.151 Y208.848
G1 F1200 X191.149 Y192.846 E53.97506
G0 F6000 X191.149 Y193.412
G1 F1200 X206.586 Y208.848 E54.70114
G0 F6000 X206.02 Y208.848
G1 F1200 X191.149 Y193.977 E55.40063
G0 F6000 X191.149 Y194.543
G1 F1200 X205.454 Y208.848 E56.07349
G0 F6000 X204.889 Y208.848
G1 F1200 X191.149 Y195.109 E56.71976
G0 F6000 X191.149 Y195.674
G1 F1200 X204.323 Y208.848 E57.33942
G0 F6000 X203.757 Y208.848
G1 F1200 X191.149 Y196.24 E57.93246
G0 F6000 X191.149 Y196.806
G1 F1200 X203.192 Y208.848 E58.49891
G0 F6000 X202.626 Y208.848
G1 F1200 X191.149 Y197.371 E59.03875
G0 F6000 X191.149 Y197.937
G1 F1200 X202.06 Y208.848 E59.55197
G0 F6000 X201.495 Y208.848
G1 F1200 X191.149 Y198.503 E60.03859
G0 F6000 X191.149 Y199.068
G1 F1200 X200.929 Y208.848 E60.49861
G0 F6000 X200.363 Y208.848
G1 F1200 X191.149 Y199.634 E60.93201
G0 F6000 X191.149 Y200.2
G1 F1200 X199.797 Y208.848 E61.33878
G0 F6000 X199.232 Y208.848
G1 F1200 X191.149 Y200.765 E61.71898
G0 F6000 X191.149 Y201.331
G1 F1200 X198.666 Y208.848 E62.07256
G0 F6000 X198.1 Y208.848
G1 F1200 X191.149 Y201.897 E62.39951
G0 F6000 X191.149 Y202.463
G1 F1200 X197.535 Y208.848 E62.69987
G0 F6000 X196.969 Y208.848
