;FLAVOR:Marlin
;TIME:3000
;Filament used: 1.6404m
;Layer height: 0.2
;MINX:63.997
;MINY:63.997
;MINZ:0.2
;MAXX:336.003
;MAXY:336.003
;MAXZ:1
;LINEARADVANCEPROCESSED
;Generated with Cura_SteamEngine 4.9.0
M140 S50
M105
M190 S50
M104 S200
M105
M109 S200
M82 ;absolute extrusion mode
M201 X500.00 Y500.00 Z100.00 E5000.00 ;Setup machine max acceleration
M203 X500.00 Y500.00 Z10.00 E50.00 ;Setup machine max feedrate
M204 P500.00 R1000.00 T500.00 ;Setup Print/Retract/Travel acceleration
M205 X8.00 Y8.00 Z0.40 E5.00 ;Setup Jerk
M220 S100 ;Reset Feedrate
M221 S100 ;Reset Flowrate

G28 ;Home

G92 E0 ;Reset Extruder
G1 Z2.0 F3000 ;Move Z Axis up
G1 X10.1 Y20 Z0.28 F5000.0 ;Move to start position
G1 X10.1 Y200.0 Z0.28 F1500.0 E15 ;Draw the first line
G1 X10.4 Y200.0 Z0.28 F5000.0 ;Move to side a little
G1 X10.4 Y20 Z0.28 F1500.0 E30 ;Draw the second line
G92 E0 ;Reset Extruder
G1 Z2.0 F3000 ;Move Z Axis up

G92 E0
G92 E0
G1 F2700 E-5
;LAYER_COUNT:5
M900 K0.000000 T0 ;added by LinearAdvanceSettingPlugin
;LAYER:0
M107
G0 F6000 X67.195 Y67.261 Z0.2
;TYPE:SKIRT
G1 F2700 E0
G1 F1200 X67.883 Y66.624 E0.03119
G1 X68.623 Y66.048 E0.06237
G1 X69.409 Y65.536 E0.09357
G1 X70.236 Y65.094 E0.12476
G1 X71.098 Y64.724 E0.15596
G1 X71.988 Y64.428 E0.18716
G1 X72.9 Y64.21 E0.21835
G1 X73.827 Y64.069 E0.24953
G1 X74.698 Y64.01 E0.27857
G1 X75.019 Y64.001 E0.28925
G1 X75.327 Y63.997 E0.29949
G1 X324.296 Y63.997 E8.58024
G1 X325.152 Y64.008 E8.60871
G1 X326.088 Y64.062 E8.63989
G1 X327.016 Y64.194 E8.67107
G1 X327.93 Y64.406 E8.70228
G1 X328.822 Y64.695 E8.73346
G1 X329.687 Y65.058 E8.76466
G1 X330.517 Y65.494 E8.79585
G1 X331.308 Y65.999 E8.82706
G1 X332.052 Y66.57 E8.85825
G1 X332.745 Y67.202 E8.88945
G1 X333.382 Y67.89 E8.92063
G1 X333.957 Y68.631 E8.95183
G1 X334.468 Y69.417 E8.98301
G1 X334.91 Y70.245 E9.01423
G1 X335.279 Y71.107 E9.04541
G1 X335.574 Y71.997 E9.0766
G1 X335.792 Y72.909 E9.10779
G1 X335.932 Y73.837 E9.139
G1 X335.99 Y74.698 E9.1677
G1 X335.999 Y75.018 E9.17835
G1 X336.003 Y75.327 E9.18863
G1 X336.002 Y324.403 E17.47293
G1 X335.993 Y325.13 E17.49711
G1 X335.942 Y326.067 E17.52832
G1 X335.81 Y326.995 E17.5595
G1 X335.601 Y327.909 E17.59068
G1 X335.314 Y328.802 E17.62188
G1 X334.952 Y329.668 E17.6531
G1 X334.518 Y330.499 E17.68428
G1 X334.014 Y331.29 E17.71548
G1 X333.445 Y332.035 E17.74666
G1 X332.814 Y332.73 E17.77788
G1 X332.127 Y333.368 E17.80906
G1 X331.388 Y333.945 E17.84025
G1 X330.602 Y334.457 E17.87145
G1 X329.776 Y334.9 E17.90262
G1 X328.914 Y335.272 E17.93385
G1 X328.025 Y335.568 E17.96501
G1 X327.113 Y335.788 E17.99621
G1 X326.186 Y335.929 E18.0274
G1 X325.302 Y335.99 E18.05687
G1 X324.981 Y335.999 E18.06755
G1 X324.673 Y336.003 E18.0778
G1 X75.562 Y336.002 E26.36326
G1 X74.864 Y335.993 E26.38648
G1 X73.928 Y335.941 E26.41766
G1 X72.999 Y335.809 E26.44887
G1 X72.085 Y335.599 E26.48006
G1 X71.192 Y335.312 E26.51126
G1 X70.327 Y334.949 E26.54246
G1 X69.496 Y334.515 E26.57364
G1 X68.705 Y334.011 E26.60484
G1 X67.96 Y333.441 E26.63604
G1 X67.266 Y332.81 E26.66723
G1 X66.629 Y332.123 E26.69839
G1 X66.052 Y331.383 E26.7296
G1 X65.54 Y330.597 E26.7608
G1 X65.097 Y329.77 E26.79201
G1 X64.726 Y328.909 E26.82319
G1 X64.43 Y328.019 E26.85439
G1 X64.211 Y327.107 E26.88558
G1 X64.07 Y326.18 E26.91677
G1 X64.01 Y325.291 E26.9464
G1 X64.001 Y324.958 E26.95748
G1 X63.997 Y324.661 E26.96736
G1 X63.998 Y75.522 E35.25376
G1 X64.007 Y74.857 E35.27588
G1 X64.06 Y73.921 E35.30706
G1 X64.192 Y72.992 E35.33827
G1 X64.403 Y72.078 E35.36947
G1 X64.691 Y71.186 E35.40064
G1 X65.054 Y70.321 E35.43185
G1 X65.489 Y69.49 E35.46304
G1 X65.993 Y68.7 E35.49421
G1 X66.563 Y67.955 E35.52541
G1 X67.195 Y67.261 E35.55663
G0 F6000 X67.586 Y67.436
G1 F1200 X68.271 Y66.82 E35.58727
G1 X69.007 Y66.267 E35.61789
G1 X69.788 Y65.779 E35.64852
G1 X70.608 Y65.361 E35.67913
G1 X71.462 Y65.016 E35.70977
G1 X72.342 Y64.746 E35.74038
G1 X73.242 Y64.554 E35.77099
G1 X74.156 Y64.44 E35.80162
G1 X74.709 Y64.41 E35.82004
G1 X75.03 Y64.401 E35.83072
G1 X75.327 Y64.397 E35.8406
G1 X324.296 Y64.397 E44.12135
G1 X325.146 Y64.408 E44.14962
G1 X326.065 Y64.461 E44.18024
G1 X326.976 Y64.594 E44.21086
G1 X327.872 Y64.805 E44.24147
G1 X328.746 Y65.093 E44.27208
G1 X329.593 Y65.456 E44.30273
G1 X330.404 Y65.891 E44.33334
G1 X331.174 Y66.395 E44.36395
G1 X331.898 Y66.964 E44.39458
G1 X332.57 Y67.594 E44.42521
G1 X333.185 Y68.279 E44.45583
G1 X333.738 Y69.015 E44.48645
G1 X334.225 Y69.796 E44.51706
G1 X334.642 Y70.617 E44.54769
G1 X334.987 Y71.471 E44.57832
G1 X335.256 Y72.351 E44.60893
G1 X335.448 Y73.252 E44.63957
G1 X335.561 Y74.165 E44.67017
G1 X335.59 Y74.709 E44.68829
G1 X335.599 Y75.029 E44.69893
G1 X335.603 Y75.327 E44.70885
G1 X335.602 Y324.398 E52.99298
G1 X335.593 Y325.125 E53.01716
G1 X335.542 Y326.044 E53.04778
G1 X335.411 Y326.956 E53.07842
G1 X335.201 Y327.852 E53.10903
G1 X334.915 Y328.727 E53.13965
G1 X334.554 Y329.574 E53.17027
G1 X334.12 Y330.386 E53.20089
G1 X333.618 Y331.158 E53.23152
G1 X333.05 Y331.883 E53.26216
G1 X332.422 Y332.556 E53.29277
G1 X331.738 Y333.172 E53.32339
G1 X331.003 Y333.726 E53.354
G1 X330.223 Y334.215 E53.38462
G1 X329.403 Y334.634 E53.41525
G1 X328.55 Y334.98 E53.44586
G1 X327.67 Y335.251 E53.47649
G1 X326.77 Y335.444 E53.5071
G1 X325.856 Y335.559 E53.53774
G1 X325.291 Y335.59 E53.55656
G1 X324.97 Y335.599 E53.56724
G1 X324.673 Y335.603 E53.57712
G1 X75.567 Y335.602 E61.86242
G1 X74.869 Y335.593 E61.88564
G1 X73.95 Y335.541 E61.91625
G1 X73.039 Y335.41 E61.94687
G1 X72.143 Y335.2 E61.97747
G1 X71.268 Y334.913 E62.0081
G1 X70.421 Y334.551 E62.03874
G1 X69.609 Y334.117 E62.06936
G1 X68.838 Y333.615 E62.09996
G1 X68.113 Y333.047 E62.13059
G1 X67.44 Y332.418 E62.16123
G1 X66.825 Y331.734 E62.19183
G1 X66.271 Y330.999 E62.22244
G1 X65.783 Y330.218 E62.25307
G1 X65.364 Y329.398 E62.2837
G1 X65.018 Y328.545 E62.31431
G1 X64.748 Y327.665 E62.34493
G1 X64.555 Y326.764 E62.37558
G1 X64.441 Y325.851 E62.40618
G1 X64.41 Y325.28 E62.4252
G1 X64.401 Y324.947 E62.43628
G1 X64.397 Y324.661 E62.44579
G1 X64.398 Y75.528 E70.73199
G1 X64.407 Y74.863 E70.75411
G1 X64.459 Y73.943 E70.78476
G1 X64.591 Y73.032 E70.81537
G1 X64.802 Y72.136 E70.84599
G1 X65.089 Y71.261 E70.87662
G1 X65.452 Y70.415 E70.90724
G1 X65.886 Y69.603 E70.93786
G1 X66.389 Y68.832 E70.96848
G1 X66.958 Y68.108 E70.9991
G1 X67.586 Y67.436 E71.0297
G0 F6000 X67.978 Y67.614
G1 F1200 X68.659 Y67.021 E71.05973
G1 X69.391 Y66.491 E71.08979
G1 X70.166 Y66.028 E71.11981
G1 X70.979 Y65.635 E71.14985
G1 X71.824 Y65.315 E71.1799
G1 X72.693 Y65.072 E71.20991
G1 X73.581 Y64.906 E71.23996
G1 X74.72 Y64.81 E71.27798
G1 X75.041 Y64.801 E71.28866
G1 X75.327 Y64.797 E71.29817
G1 X324.296 Y64.797 E79.57891
G1 X325.14 Y64.808 E79.60699
G1 X326.042 Y64.861 E79.63704
G1 X326.935 Y64.993 E79.66706
G1 X327.813 Y65.204 E79.6971
G1 X328.669 Y65.492 E79.72714
G1 X329.496 Y65.854 E79.75716
G1 X330.288 Y66.289 E79.78722
G1 X331.039 Y66.791 E79.81726
G1 X331.742 Y67.358 E79.8473
G1 X332.392 Y67.985 E79.87734
G1 X332.984 Y68.667 E79.90737
G1 X333.514 Y69.398 E79.93741
G1 X333.976 Y70.174 E79.96744
G1 X334.369 Y70.987 E79.99748
G1 X334.687 Y71.832 E80.02751
G1 X334.93 Y72.702 E80.05755
G1 X335.095 Y73.59 E80.08759
G1 X335.19 Y74.72 E80.12531
G1 X335.199 Y75.04 E80.13596
G1 X335.203 Y75.327 E80.1455
G1 X335.202 Y324.393 E88.42947
G1 X335.193 Y325.12 E88.45365
G1 X335.142 Y326.022 E88.4837
G1 X335.011 Y326.916 E88.51375
G1 X334.802 Y327.794 E88.54377
G1 X334.516 Y328.651 E88.57382
G1 X334.155 Y329.479 E88.60386
G1 X333.723 Y330.271 E88.63387
G1 X333.222 Y331.023 E88.66392
G1 X332.656 Y331.727 E88.69397
G1 X332.031 Y332.378 E88.72398
G1 X331.35 Y332.972 E88.75404
G1 X330.619 Y333.503 E88.78409
G1 X329.845 Y333.967 E88.81411
G1 X329.032 Y334.361 E88.84415
G1 X328.188 Y334.681 E88.87418
G1 X327.318 Y334.926 E88.90424
G1 X326.431 Y335.092 E88.93425
G1 X325.28 Y335.19 E88.97267
G1 X324.959 Y335.199 E88.98335
G1 X324.673 Y335.203 E88.99287
G1 X75.572 Y335.202 E97.278
G1 X74.874 Y335.193 E97.30122
G1 X73.973 Y335.142 E97.33123
G1 X73.079 Y335.01 E97.36129
G1 X72.201 Y334.801 E97.39131
G1 X71.344 Y334.514 E97.42137
G1 X70.517 Y334.153 E97.45138
G1 X69.724 Y333.72 E97.48143
G1 X68.973 Y333.219 E97.51146
G1 X68.269 Y332.653 E97.5415
G1 X67.618 Y332.027 E97.57154
G1 X67.025 Y331.346 E97.60157
G1 X66.495 Y330.615 E97.63161
G1 X66.031 Y329.84 E97.66165
G1 X65.637 Y329.027 E97.6917
G1 X65.317 Y328.183 E97.72172
G1 X65.073 Y327.313 E97.75177
G1 X64.907 Y326.425 E97.78182
G1 X64.81 Y325.27 E97.82037
G1 X64.801 Y324.937 E97.83145
G1 X64.797 Y324.661 E97.84063
G1 X64.798 Y75.533 E106.12666
G1 X64.807 Y74.868 E106.14878
G1 X64.859 Y73.966 E106.17883
G1 X64.991 Y73.073 E106.20885
G1 X65.201 Y72.195 E106.23888
G1 X65.488 Y71.338 E106.26894
G1 X65.85 Y70.511 E106.29897
G1 X66.283 Y69.719 E106.32899
G1 X66.785 Y68.968 E106.35903
G1 X67.352 Y68.264 E106.3891
G1 X67.978 Y67.614 E106.41911
G1 F2700 E101.41911
;MESH:CHEP_bed_level_print.stl
G0 F6000 X91.985 Y90.999
G0 X91.985 Y91.984
G0 X92.098 Y307.702
G0 X92.298 Y307.702
;TYPE:WALL-OUTER
G1 F2700 E106.41911
G1 F1200 X307.702 Y307.702 E113.58348
G1 X307.702 Y92.298 E120.74785
G1 X92.298 Y92.298 E127.91221
G1 X92.298 Y307.702 E135.07658
G0 F6000 X91.865 Y308.136
G1 F1200 X91.865 Y91.864 E142.26981
G1 X308.136 Y91.864 E149.46302
G1 X308.136 Y308.136 E156.65625
G1 X91.865 Y308.136 E163.84945
G0 F6000 X92.095 Y307.904
;TYPE:SKIN
G1 F1200 X92.08 Y307.606 E163.85152
G1 X92.08 Y92.08 E165.34495
G1 X307.606 Y92.08 E166.83837
G1 X307.904 Y92.095 E166.84044
G1 X307.918 Y96.634 E166.87189
G1 X307.918 Y307.918 E168.33592
G1 X92.392 Y307.918 E169.82935
G1 F2700 E164.82935
G0 F6000 X92.35 Y307.902
G0 X92.177 Y284.17
G0 X92.198 Y224.367
G0 X93.163 Y224.367
G0 X174.334 Y224.367
G0 X175.319 Y224.367
G0 X175.633 Y224.367
;TYPE:WALL-OUTER
G1 F2700 E169.82935
G1 F1200 X224.367 Y224.367 E171.45024
G1 X224.367 Y175.633 E173.07114
G1 X175.633 Y175.633 E174.69204
G1 X175.633 Y224.367 E176.31294
G1 F2700 E171.31294
G0 F6000 X175.433 Y224.367
G0 X224.63 Y224.63
G0 X224.8 Y224.8
G1 F2700 E176.31294
G1 F1200 X175.199 Y224.8 E177.96268
G1 X175.199 Y175.199 E179.61242
G1 X224.8 Y175.199 E181.26215
G1 X224.8 Y224.8 E182.91189
G0 F6000 X224.582 Y224.582
;TYPE:SKIN
G1 F1200 X224.582 Y224.299 E182.91384
G1 X224.582 Y175.65 E183.25008
G1 X224.347 Y175.415 E183.25237
G1 X175.415 Y175.415 E183.59057
G1 X175.415 Y224.347 E183.92876
G1 X175.65 Y224.582 E183.93105
G1 X224.299 Y224.582 E184.26729
G1 F2700 E179.26729
G0 F6000 X224.341 Y224.6
G0 X175.409 Y224.6
G0 X175.409 Y224.624
G1 F2700 E184.26729
G1 F1200 X175.373 Y224.588 E184.26813
G1 F2700 E179.26813
G0 F6000 X175.399 Y224.588
G0 X175.505 Y175.505
G0 X224.589 Y175.399
G0 X224.589 Y175.374
G1 F2700 E184.26813
G1 F1200 X224.624 Y175.409 E184.26896
G1 F2700 E179.26896
G0 F6000 X224.6 Y175.409
G0 X224.495 Y224.495
G0 X175.319 Y224.68
G0 X174.334 Y224.68
G0 X159.831 Y224.68
G0 X158.866 Y224.68
G0 X158.766 Y241.034
G0 X158.966 Y241.034
;TYPE:WALL-OUTER
G1 F2700 E184.26896
G1 F1200 X241.034 Y241.034 E186.99855
G1 X241.034 Y158.966 E189.72814
G1 X158.966 Y158.966 E192.45774
G1 X158.966 Y241.034 E195.18733
G1 F2700 E190.18733
G0 F6000 X158.766 Y241.034
G0 X241.297 Y241.297
G0 X241.467 Y241.467
G1 F2700 E195.18733
G1 F1200 X158.532 Y241.467 E197.94576
G1 X158.532 Y158.532 E200.70419
G1 X241.467 Y158.532 E203.46262
G1 X241.467 Y241.467 E206.22105
G0 F6000 X241.249 Y241.249
;TYPE:SKIN
G1 F1200 X241.249 Y240.966 E206.223
G1 X241.249 Y158.942 E206.7899
G1 X241.055 Y158.748 E206.7918
G1 X158.748 Y158.748 E207.36066
G1 X158.748 Y241.055 E207.92951
G1 X158.942 Y241.249 E207.93141
G1 X240.967 Y241.249 E208.49832
G1 F2700 E203.49832
G0 F6000 X241.008 Y241.267
G0 X158.652 Y241.347
G0 X157.667 Y241.347
G0 X143.164 Y241.347
G0 X142.199 Y241.347
G0 X142.099 Y257.701
G0 X142.299 Y257.701
;TYPE:WALL-OUTER
G1 F2700 E208.49832
G1 F1200 X257.701 Y257.701 E212.3366
G1 X257.701 Y142.299 E216.17489
G1 X142.299 Y142.299 E220.01318
G1 X142.299 Y257.701 E223.85146
G1 F2700 E218.85146
G0 F6000 X142.099 Y257.701
G0 X257.964 Y257.964
G0 X258.134 Y258.134
G1 F2700 E223.85146
G1 F1200 X141.865 Y258.134 E227.71858
G1 X141.865 Y141.865 E231.58571
G1 X258.134 Y141.865 E235.45283
G1 X258.134 Y258.134 E239.31995
G0 F6000 X257.916 Y257.916
;TYPE:SKIN
G1 F1200 X257.916 Y257.634 E239.3219
G1 X257.916 Y142.234 E240.1207
G1 X257.764 Y142.081 E240.1222
G1 X142.081 Y142.081 E240.92295
G1 X142.081 Y257.764 E241.72371
G1 X142.234 Y257.916 E241.72521
G1 X257.634 Y257.916 E242.524
G1 F2700 E237.524
G0 F6000 X257.676 Y257.934
G0 X141.985 Y258.014
G0 X141 Y258.014
G0 X126.497 Y258.014
G0 X125.532 Y258.014
G0 X125.432 Y274.368
G0 X125.632 Y274.368
;TYPE:WALL-OUTER
G1 F2700 E242.524
G1 F1200 X274.368 Y274.368 E247.47098
G1 X274.368 Y125.632 E252.41796
G1 X125.632 Y125.632 E257.36494
G1 X125.632 Y274.368 E262.31192
G1 F2700 E257.31192
G0 F6000 X125.432 Y274.368
G0 X274.631 Y274.631
G0 X274.801 Y274.801
G1 F2700 E262.31192
G1 F1200 X125.199 Y274.801 E267.28771
G1 X125.199 Y125.199 E272.26349
G1 X274.801 Y125.199 E277.23927
G1 X274.801 Y274.801 E282.21505
G0 F6000 X274.583 Y274.583
;TYPE:SKIN
G1 F1200 X274.583 Y274.3 E282.21701
G1 X274.583 Y125.525 E283.24454
G1 X274.472 Y125.414 E283.24562
G1 X125.414 Y125.414 E284.2751
G1 X125.415 Y131.92 E284.32004
G1 X125.415 Y274.473 E285.30459
G1 X125.525 Y274.583 E285.30567
G1 X274.3 Y274.583 E286.3332
G1 F2700 E281.3332
G0 F6000 X274.342 Y274.601
G0 X125.319 Y274.681
G0 X124.334 Y274.681
G0 X109.83 Y274.681
G0 X108.865 Y274.681
G0 X108.765 Y291.035
G0 X108.965 Y291.035
;TYPE:WALL-OUTER
G1 F2700 E286.3332
G1 F1200 X291.035 Y291.035 E292.38887
G1 X291.035 Y108.965 E298.44454
G1 X108.965 Y108.965 E304.50021
G1 X108.965 Y291.035 E310.55589
G1 F2700 E305.55589
G0 F6000 X108.765 Y291.035
G0 X291.299 Y291.299
G0 X291.469 Y291.469
G1 F2700 E310.55589
G1 F1200 X108.531 Y291.469 E316.64043
G1 X108.531 Y108.531 E322.72497
G1 X291.469 Y108.531 E328.80952
G1 X291.469 Y291.469 E334.89406
G0 F6000 X291.251 Y291.251
;TYPE:SKIN
G1 F1200 X291.251 Y290.968 E334.89602
G1 X291.251 Y109.1 E336.15999
G1 X291.216 Y108.782 E336.16221
G1 X289.484 Y108.747 E336.17425
G1 X108.747 Y108.747 E337.43036
G1 X108.747 Y290.898 E338.69629
G1 X108.782 Y291.216 E338.69851
G1 X110.514 Y291.251 E338.71055
G1 X290.968 Y291.251 E339.96469
G1 F2700 E334.96469
G0 F6000 X291.01 Y291.269
G0 X108.651 Y291.349
G0 X107.666 Y291.349
G0 X76.496 Y291.349
G0 X75.531 Y291.349
G0 X75.431 Y324.369
G0 X75.631 Y324.369
;TYPE:WALL-OUTER
G1 F2700 E339.96469
G1 F1200 X324.369 Y324.369 E348.23775
G1 X324.369 Y75.631 E356.51081
G1 X75.631 Y75.631 E364.78387
G1 X75.631 Y324.369 E373.05693
G1 F2700 E368.05693
G0 F6000 X75.431 Y324.369
G0 X324.633 Y324.633
G0 X324.803 Y324.803
G1 F2700 E373.05693
G1 F1200 X75.197 Y324.803 E381.35886
G1 X75.197 Y75.197 E389.66079
G1 X324.803 Y75.197 E397.96272
G1 X324.803 Y324.803 E406.26465
G0 F6000 X324.585 Y324.585
;TYPE:SKIN
G1 F1200 X324.584 Y324.302 E406.26662
G1 X324.584 Y75.683 E408.00285
G1 X324.591 Y75.407 E408.00478
G1 X318.375 Y75.413 E408.04819
G1 X75.413 Y75.413 E409.7449
G1 X75.413 Y324.315 E411.4831
G1 X75.406 Y324.591 E411.48503
G1 X81.623 Y324.585 E411.52845
G1 X324.019 Y324.585 E413.22121
G0 F6000 X324.26 Y324.543
G1 F1200 X324.344 Y324.627 E413.22319
G1 F2700 E408.22319
;MESH:NONMESH
G0 F300 X324.344 Y324.627 Z0.4
G0 F6000 X324.344 Y324.603
G0 X92.098 Y324.469
G0 X92.098 Y323.504
G0 X92.098 Y309.001
G0 X92.098 Y308.016
G0 X92.098 Y307.702
G0 X92.298 Y307.702
;TIME_ELAPSED:828.367169
;LAYER:1
M106 S85
;TYPE:WALL-OUTER
;MESH:CHEP_bed_level_print.stl
G1 F2700 E413.22319
G1 F1350 X307.702 Y307.702 E420.38756
G1 X307.702 Y92.298 E427.55192
G1 X92.298 Y92.298 E434.71629
G1 X92.298 Y307.702 E441.88065
G0 F7500 X91.865 Y308.136
G1 F1350 X91.865 Y91.864 E449.07389
G1 X308.136 Y91.864 E456.26709
G1 X308.136 Y308.136 E463.46033
G1 X91.865 Y308.136 E470.65353
G0 F7500 X92.039 Y307.899
;TYPE:SKIN
G1 F1350 X92.122 Y307.817 E470.65547
G0 F7500 X92.303 Y307.918
G1 F1350 X92.586 Y307.918 E470.65743
G1 X307.83 Y307.918 E472.14437
G1 X307.917 Y307.547 E472.147
G1 X307.917 Y92.304 E473.63393
