;FLAVOR:Marlin
;TIME:914
;Filament used: 0.33731m
;Layer height: 0.2
;MINX:179
;MINY:179
;MINZ:0.2
;MAXX:221
;MAXY:221
;MAXZ:20
;LINEARADVANCEPROCESSED
;Generated with Cura_SteamEngine 4.9.0
M140 S50
M105
M190 S50
M104 S200
M105
M109 S200
M82 ;absolute extrusion mode
M201 X500.00 Y500.00 Z100.00 E5000.00 ;Setup machine max acceleration
M203 X500.00 Y500.00 Z10.00 E50.00 ;Setup machine max feedrate
M204 P500.00 R1000.00 T500.00 ;Setup Print/Retract/Travel acceleration
M205 X8.00 Y8.00 Z0.40 E5.00 ;Setup Jerk
M220 S100 ;Reset Feedrate
M221 S100 ;Reset Flowrate

G28 ;Home

G92 E0 ;Reset Extruder
G1 Z2.0 F3000 ;Move Z Axis up
G1 X10.1 Y20 Z0.28 F5000.0 ;Move to start position
G1 X10.1 Y200.0 Z0.28 F1500.0 E15 ;Draw the first line
G1 X10.4 Y200.0 Z0.28 F5000.0 ;Move to side a little
G1 X10.4 Y20 Z0.28 F1500.0 E30 ;Draw the second line
G92 E0 ;Reset Extruder
G1 Z2.0 F3000 ;Move Z Axis up

G92 E0
G92 E0
G1 F2700 E-2
;LAYER_COUNT:100
M900 K0.000000 T0 ;added by LinearAdvanceSettingPlugin
;LAYER:0
M107
G0 F6000 X182.198 Y182.264 Z0.2
;TYPE:SKIRT
G1 F2700 E0
G1 F1200 X182.886 Y181.627 E0.03119
G1 X183.626 Y181.051 E0.06237
G1 X184.412 Y180.539 E0.09357
G1 X185.239 Y180.097 E0.12476
G1 X186.101 Y179.727 E0.15596
G1 X186.991 Y179.431 E0.18716
G1 X187.903 Y179.213 E0.21835
G1 X188.83 Y179.072 E0.24953
G1 X189.701 Y179.013 E0.27857
G1 X190.022 Y179.004 E0.28925
G1 X190.33 Y179 E0.29949
G1 X209.293 Y179 E0.93021
G1 X210.149 Y179.011 E0.95868
G1 X211.085 Y179.065 E0.98986
G1 X212.013 Y179.197 E1.02104
G1 X212.927 Y179.409 E1.05225
G1 X213.819 Y179.698 E1.08343
G1 X214.684 Y180.061 E1.11463
G1 X215.514 Y180.497 E1.14582
G1 X216.305 Y181.002 E1.17703
G1 X217.049 Y181.573 E1.20822
G1 X217.742 Y182.205 E1.23942
G1 X218.379 Y182.893 E1.2706
G1 X218.954 Y183.634 E1.3018
G1 X219.465 Y184.42 E1.33298
G1 X219.907 Y185.248 E1.3642
G1 X220.276 Y186.11 E1.39538
G1 X220.571 Y187 E1.42657
G1 X220.789 Y187.912 E1.45776
G1 X220.929 Y188.84 E1.48897
G1 X220.987 Y189.701 E1.51767
G1 X220.996 Y190.021 E1.52832
G1 X221 Y190.33 E1.5386
G1 X220.999 Y209.4 E2.17287
G1 X220.99 Y210.127 E2.19705
G1 X220.939 Y211.064 E2.22826
G1 X220.807 Y211.992 E2.25944
G1 X220.598 Y212.906 E2.29062
G1 X220.311 Y213.799 E2.32182
G1 X219.949 Y214.665 E2.35304
G1 X219.515 Y215.496 E2.38422
G1 X219.011 Y216.287 E2.41542
G1 X218.442 Y217.032 E2.4466
G1 X217.811 Y217.727 E2.47782
G1 X217.124 Y218.365 E2.509
G1 X216.385 Y218.942 E2.54018
G1 X215.599 Y219.454 E2.57138
G1 X214.773 Y219.897 E2.60256
G1 X213.911 Y220.269 E2.63378
G1 X213.022 Y220.565 E2.66495
G1 X212.11 Y220.785 E2.69615
G1 X211.183 Y220.926 E2.72734
G1 X210.299 Y220.987 E2.75681
G1 X209.978 Y220.996 E2.76749
G1 X209.67 Y221 E2.77774
G1 X190.565 Y220.999 E3.41317
G1 X189.867 Y220.99 E3.43639
G1 X188.931 Y220.938 E3.46757
G1 X188.002 Y220.806 E3.49878
G1 X187.088 Y220.596 E3.52997
G1 X186.195 Y220.309 E3.56117
G1 X185.33 Y219.946 E3.59237
G1 X184.499 Y219.512 E3.62355
G1 X183.708 Y219.008 E3.65474
G1 X182.963 Y218.438 E3.68594
G1 X182.269 Y217.807 E3.71714
G1 X181.632 Y217.12 E3.7483
G1 X181.055 Y216.38 E3.77951
G1 X180.543 Y215.594 E3.81071
G1 X180.1 Y214.767 E3.84192
G1 X179.729 Y213.906 E3.8731
G1 X179.433 Y213.016 E3.90429
G1 X179.214 Y212.104 E3.93549
G1 X179.073 Y211.177 E3.96668
G1 X179.013 Y210.288 E3.99631
G1 X179.004 Y209.955 E4.00739
G1 X179 Y209.658 E4.01727
G1 X179.001 Y190.525 E4.65364
G1 X179.01 Y189.86 E4.67576
G1 X179.063 Y188.924 E4.70694
G1 X179.195 Y187.995 E4.73815
G1 X179.406 Y187.081 E4.76935
G1 X179.694 Y186.189 E4.80052
G1 X180.057 Y185.324 E4.83172
G1 X180.492 Y184.493 E4.86292
G1 X180.996 Y183.703 E4.89409
G1 X181.566 Y182.958 E4.92529
G1 X182.198 Y182.264 E4.95651
G0 F6000 X182.589 Y182.439
G1 F1200 X183.274 Y181.823 E4.98715
G1 X184.01 Y181.27 E5.01777
G1 X184.791 Y180.782 E5.0484
G1 X185.611 Y180.364 E5.07901
G1 X186.465 Y180.019 E5.10964
G1 X187.345 Y179.749 E5.14026
G1 X188.245 Y179.557 E5.17087
G1 X189.159 Y179.443 E5.2015
G1 X189.712 Y179.413 E5.21992
G1 X190.033 Y179.404 E5.2306
G1 X190.33 Y179.4 E5.24048
G1 X209.293 Y179.4 E5.87119
G1 X210.143 Y179.411 E5.89947
G1 X211.062 Y179.464 E5.93008
G1 X211.973 Y179.597 E5.9607
G1 X212.869 Y179.808 E5.99132
G1 X213.743 Y180.096 E6.02193
G1 X214.59 Y180.459 E6.05258
G1 X215.401 Y180.894 E6.08319
G1 X216.171 Y181.398 E6.1138
G1 X216.895 Y181.967 E6.14442
G1 X217.567 Y182.597 E6.17506
G1 X218.182 Y183.282 E6.20568
G1 X218.735 Y184.018 E6.2363
G1 X219.222 Y184.799 E6.26691
G1 X219.639 Y185.62 E6.29754
G1 X219.984 Y186.474 E6.32817
G1 X220.253 Y187.354 E6.35878
G1 X220.445 Y188.255 E6.38942
G1 X220.558 Y189.168 E6.42001
G1 X220.587 Y189.712 E6.43813
G1 X220.596 Y190.032 E6.44878
G1 X220.6 Y190.33 E6.45869
G1 X220.599 Y209.395 E7.0928
G1 X220.59 Y210.122 E7.11698
G1 X220.539 Y211.041 E7.14759
G1 X220.408 Y211.953 E7.17824
G1 X220.198 Y212.849 E7.20885
G1 X219.912 Y213.724 E7.23946
G1 X219.551 Y214.571 E7.27009
G1 X219.117 Y215.383 E7.30071
G1 X218.615 Y216.155 E7.33134
G1 X218.047 Y216.88 E7.36197
G1 X217.419 Y217.553 E7.39259
G1 X216.735 Y218.169 E7.4232
G1 X216 Y218.723 E7.45382
G1 X215.22 Y219.212 E7.48444
G1 X214.4 Y219.631 E7.51506
G1 X213.547 Y219.977 E7.54568
G1 X212.667 Y220.248 E7.5763
G1 X211.767 Y220.441 E7.60692
G1 X210.853 Y220.556 E7.63756
G1 X210.288 Y220.587 E7.65638
G1 X209.967 Y220.596 E7.66706
G1 X209.67 Y220.6 E7.67694
G1 X190.57 Y220.599 E8.31221
G1 X189.872 Y220.59 E8.33542
G1 X188.953 Y220.538 E8.36604
G1 X188.042 Y220.407 E8.39665
G1 X187.146 Y220.197 E8.42726
G1 X186.271 Y219.91 E8.45789
G1 X185.424 Y219.548 E8.48852
G1 X184.612 Y219.114 E8.51915
G1 X183.841 Y218.612 E8.54975
G1 X183.116 Y218.044 E8.58038
G1 X182.443 Y217.415 E8.61102
G1 X181.828 Y216.731 E8.64161
G1 X181.274 Y215.996 E8.67222
G1 X180.786 Y215.215 E8.70285
G1 X180.367 Y214.395 E8.73348
G1 X180.021 Y213.542 E8.7641
G1 X179.751 Y212.662 E8.79471
G1 X179.558 Y211.761 E8.82536
G1 X179.444 Y210.848 E8.85596
G1 X179.413 Y210.277 E8.87498
G1 X179.404 Y209.944 E8.88606
G1 X179.4 Y209.658 E8.89558
G1 X179.401 Y190.531 E9.53174
G1 X179.41 Y189.866 E9.55386
G1 X179.462 Y188.946 E9.58451
G1 X179.594 Y188.035 E9.61513
G1 X179.805 Y187.139 E9.64574
G1 X180.092 Y186.264 E9.67637
G1 X180.455 Y185.418 E9.70699
G1 X180.889 Y184.606 E9.73761
G1 X181.392 Y183.835 E9.76823
G1 X181.961 Y183.111 E9.79886
G1 X182.589 Y182.439 E9.82945
G0 F6000 X182.981 Y182.617
G1 F1200 X183.662 Y182.024 E9.85948
G1 X184.394 Y181.494 E9.88954
G1 X185.169 Y181.031 E9.91957
G1 X185.982 Y180.638 E9.9496
G1 X186.827 Y180.318 E9.97966
G1 X187.696 Y180.075 E10.00967
G1 X188.584 Y179.909 E10.03971
G1 X189.723 Y179.813 E10.07773
G1 X190.044 Y179.804 E10.08841
G1 X190.33 Y179.8 E10.09793
G1 X209.293 Y179.8 E10.72864
G1 X210.137 Y179.811 E10.75671
G1 X211.039 Y179.864 E10.78676
G1 X211.932 Y179.996 E10.81679
G1 X212.81 Y180.207 E10.84682
G1 X213.666 Y180.495 E10.87686
G1 X214.493 Y180.857 E10.90689
G1 X215.285 Y181.292 E10.93694
G1 X216.036 Y181.794 E10.96698
G1 X216.739 Y182.361 E10.99702
G1 X217.389 Y182.988 E11.02706
G1 X217.981 Y183.67 E11.0571
G1 X218.511 Y184.401 E11.08713
G1 X218.973 Y185.177 E11.11717
G1 X219.366 Y185.99 E11.1472
G1 X219.684 Y186.835 E11.17723
G1 X219.927 Y187.705 E11.20728
G1 X220.092 Y188.593 E11.23732
G1 X220.187 Y189.723 E11.27503
G1 X220.196 Y190.043 E11.28568
G1 X220.2 Y190.33 E11.29523
G1 X220.199 Y209.39 E11.92916
G1 X220.19 Y210.117 E11.95335
G1 X220.139 Y211.019 E11.9834
G1 X220.008 Y211.913 E12.01345
G1 X219.799 Y212.791 E12.04347
G1 X219.513 Y213.648 E12.07351
G1 X219.152 Y214.476 E12.10356
G1 X218.72 Y215.268 E12.13356
G1 X218.219 Y216.02 E12.16362
G1 X217.653 Y216.724 E12.19366
G1 X217.028 Y217.375 E12.22368
G1 X216.347 Y217.969 E12.25373
G1 X215.616 Y218.5 E12.28378
G1 X214.842 Y218.964 E12.3138
G1 X214.029 Y219.358 E12.34385
G1 X213.185 Y219.678 E12.37387
G1 X212.315 Y219.923 E12.40393
G1 X211.428 Y220.089 E12.43394
G1 X210.277 Y220.187 E12.47237
G1 X209.956 Y220.196 E12.48305
G1 X209.67 Y220.2 E12.49256
G1 X190.575 Y220.199 E13.12766
G1 X189.877 Y220.19 E13.15088
G1 X188.976 Y220.139 E13.1809
G1 X188.082 Y220.007 E13.21095
G1 X187.204 Y219.798 E13.24097
G1 X186.347 Y219.511 E13.27103
G1 X185.52 Y219.15 E13.30104
G1 X184.727 Y218.717 E13.33109
G1 X183.976 Y218.216 E13.36112
G1 X183.272 Y217.65 E13.39116
G1 X182.621 Y217.024 E13.4212
G1 X182.028 Y216.343 E13.45124
G1 X181.498 Y215.612 E13.48127
G1 X181.034 Y214.837 E13.51131
G1 X180.64 Y214.024 E13.54136
G1 X180.32 Y213.18 E13.57138
G1 X180.076 Y212.31 E13.60143
G1 X179.91 Y211.422 E13.63148
G1 X179.813 Y210.267 E13.67003
G1 X179.804 Y209.934 E13.68111
G1 X179.8 Y209.658 E13.69029
G1 X179.801 Y190.536 E14.32629
G1 X179.81 Y189.871 E14.34841
G1 X179.862 Y188.969 E14.37846
G1 X179.994 Y188.076 E14.40849
G1 X180.204 Y187.198 E14.43851
G1 X180.491 Y186.341 E14.46857
G1 X180.853 Y185.514 E14.4986
G1 X181.286 Y184.722 E14.52862
G1 X181.788 Y183.971 E14.55867
G1 X182.355 Y183.267 E14.58873
G1 X182.981 Y182.617 E14.61875
G1 F2700 E12.61875
;MESH:CuraTemp_354227.stl
G0 F6000 X190.32 Y189.335
G0 X190.32 Y190.32
G0 X209.618 Y190.382
G0 X209.66 Y209.66
G0 X209.8 Y209.8
;TYPE:WALL-OUTER
G1 F2700 E14.61875
G1 F1200 X190.2 Y209.8 E15.27064
G1 X190.2 Y190.2 E15.92254
G1 X209.8 Y190.2 E16.57444
G1 X209.8 Y209.8 E17.22634
G0 F6000 X209.41 Y209.41
;TYPE:SKIN
G1 F1200 X190.59 Y209.41 E17.8523
G1 X190.59 Y190.59 E18.47825
G1 X209.41 Y190.59 E19.10421
G1 X209.41 Y209.41 E19.73016
G0 F6000 X209.69 Y209.41
G0 X209.69 Y191.147
G0 X209.249 Y191.147
G1 F1200 X208.851 Y190.749 E19.74888
G0 F6000 X208.286 Y190.749
G1 F1200 X209.249 Y191.713 E19.7942
G0 F6000 X209.249 Y192.279
G1 F1200 X207.72 Y190.749 E19.86615
G0 F6000 X207.154 Y190.749
G1 F1200 X209.249 Y192.844 E19.96469
G0 F6000 X209.249 Y193.41
G1 F1200 X206.589 Y190.749 E20.08983
G0 F6000 X206.023 Y190.749
G1 F1200 X209.249 Y193.976 E20.2416
G0 F6000 X209.249 Y194.542
G1 F1200 X205.457 Y190.749 E20.41998
G0 F6000 X204.891 Y190.749
G1 F1200 X209.249 Y195.107 E20.62497
G0 F6000 X209.249 Y195.673
G1 F1200 X204.326 Y190.749 E20.85656
G0 F6000 X203.76 Y190.749
G1 F1200 X209.249 Y196.239 E21.11477
G0 F6000 X209.249 Y196.804
G1 F1200 X203.194 Y190.749 E21.39957
G0 F6000 X202.629 Y190.749
G1 F1200 X209.249 Y197.37 E21.71098
G0 F6000 X209.249 Y197.936
G1 F1200 X202.063 Y190.749 E22.04901
G0 F6000 X201.497 Y190.749
G1 F1200 X209.249 Y198.501 E22.41364
G0 F6000 X209.249 Y199.067
G1 F1200 X200.932 Y190.749 E22.80487
G0 F6000 X200.366 Y190.749
G1 F1200 X209.249 Y199.633 E23.22273
G0 F6000 X209.249 Y200.198
G1 F1200 X199.8 Y190.749 E23.66718
G0 F6000 X199.235 Y190.749
G1 F1200 X209.249 Y200.764 E24.13823
G0 F6000 X209.249 Y201.33
G1 F1200 X198.669 Y190.749 E24.6359
G0 F6000 X198.103 Y190.749
G1 F1200 X209.249 Y201.895 E25.16018
G0 F6000 X209.249 Y202.461
G1 F1200 X197.538 Y190.749 E25.71105
G0 F6000 X196.972 Y190.749
G1 F1200 X209.249 Y203.027 E26.28855
G0 F6000 X209.249 Y203.593
G1 F1200 X196.406 Y190.749 E26.89267
G0 F6000 X195.841 Y190.749
G1 F1200 X209.249 Y204.158 E27.52336
G0 F6000 X209.249 Y204.724
G1 F1200 X195.275 Y190.749 E28.18068
G0 F6000 X194.709 Y190.749
G1 F1200 X209.249 Y205.29 E28.86462
G0 F6000 X209.249 Y205.855
G1 F1200 X194.143 Y190.749 E29.57516
G0 F6000 X193.578 Y190.749
G1 F1200 X209.249 Y206.421 E30.3123
G0 F6000 X209.249 Y206.987
G1 F1200 X193.012 Y190.749 E31.07606
G0 F6000 X192.446 Y190.749
G1 F1200 X209.249 Y207.552 E31.86642
G0 F6000 X209.249 Y208.118
G1 F1200 X191.881 Y190.749 E32.68338
G0 F6000 X191.315 Y190.749
G1 F1200 X209.249 Y208.684 E33.52697
G0 F6000 X209.249 Y209.249
G1 F1200 X190.749 Y190.749 E34.39715
G0 F6000 X190.749 Y191.315
G1 F1200 X208.683 Y209.249 E35.24071
G0 F6000 X208.117 Y209.249
G1 F1200 X190.749 Y191.881 E36.05765
G0 F6000 X190.749 Y192.446
G1 F1200 X207.552 Y209.249 E36.84801
G0 F6000 X206.986 Y209.249
G1 F1200 X190.749 Y193.012 E37.61175
G0 F6000 X190.749 Y193.578
G1 F1200 X206.42 Y209.249 E38.34886
G0 F6000 X205.855 Y209.249
G1 F1200 X190.749 Y194.143 E39.0594
G0 F6000 X190.749 Y194.709
G1 F1200 X205.289 Y209.249 E39.74332
G0 F6000 X204.723 Y209.249
G1 F1200 X190.749 Y195.275 E40.40061
G0 F6000 X190.749 Y195.841
G1 F1200 X204.157 Y209.249 E41.03129
G0 F6000 X203.592 Y209.249
G1 F1200 X190.749 Y196.406 E41.63538
G0 F6000 X190.749 Y196.972
G1 F1200 X203.026 Y209.249 E42.21285
G0 F6000 X202.46 Y209.249
G1 F1200 X190.749 Y197.538 E42.7637
G0 F6000 X190.749 Y198.103
G1 F1200 X201.895 Y209.249 E43.28798
G0 F6000 X201.329 Y209.249
G1 F1200 X190.749 Y198.669 E43.78563
G0 F6000 X190.749 Y199.235
G1 F1200 X200.763 Y209.249 E44.25666
G0 F6000 X200.198 Y209.249
G1 F1200 X190.749 Y199.8 E44.70111
G0 F6000 X190.749 Y200.366
G1 F1200 X199.632 Y209.249 E45.11894
G0 F6000 X199.066 Y209.249
G1 F1200 X190.749 Y200.932 E45.51014
G0 F6000 X190.749 Y201.497
G1 F1200 X198.501 Y209.249 E45.87477
G0 F6000 X197.935 Y209.249
G1 F1200 X190.749 Y202.063 E46.21278
G0 F6000 X190.749 Y202.629
G1 F1200 X197.369 Y209.249 E46.52416
G0 F6000 X196.804 Y209.249
G1 F1200 X190.749 Y203.194 E46.80897
G0 F6000 X190.749 Y203.76
G1 F1200 X196.238 Y209.249 E47.06716
G0 F6000 X195.672 Y209.249
G1 F1200 X190.749 Y204.326 E47.29872
G0 F6000 X190.749 Y204.891
G1 F1200 X195.107 Y209.249 E47.50371
G0 F6000 X194.541 Y209.249
G1 F1200 X190.749 Y205.457 E47.68207
G0 F6000 X190.749 Y206.023
G1 F1200 X193.975 Y209.249 E47.83381
G0 F6000 X193.409 Y209.249
G1 F1200 X190.749 Y206.589 E47.95893
G0 F6000 X190.749 Y207.154
G1 F1200 X192.844 Y209.249 E48.05747
G0 F6000 X192.278 Y209.249
G1 F1200 X190.749 Y207.72 E48.12939
G0 F6000 X190.749 Y208.286
G1 F1200 X191.712 Y209.249 E48.17469
G0 F6000 X191.147 Y209.249
G1 F1200 X190.749 Y208.851 E48.19341
;MESH:NONMESH
G0 F300 X190.749 Y208.851 Z0.4
G0 F6000 X190.31 Y208.851
G0 X190.382 Y209.618
G0 X209.63 Y209.63
G0 X209.8 Y209.8
;TIME_ELAPSED:84.518454
;LAYER:1
M106 S85
;TYPE:WALL-OUTER
;MESH:CuraTemp_354227.stl
G1 F1350 X190.2 Y209.8 E48.84531
G1 X190.2 Y190.2 E49.49721
G1 X209.8 Y190.2 E50.14911
G1 X209.8 Y209.8 E50.80101
G0 F7500 X209.41 Y209.41
;TYPE:SKIN
G1 F1350 X190.59 Y209.41 E51.42696
G1 X190.59 Y190.59 E52.05292
G1 X209.41 Y190.59 E52.67887
G1 X209.41 Y209.41 E53.30483
G0 F7500 X209.249 Y208.792
G1 F1350 X208.791 Y209.249 E53.32635
G0 F7500 X208.225 Y209.249
G1 F1350 X209.249 Y208.226 E53.37449
G0 F7500 X209.249 Y207.66
G1 F1350 X207.66 Y209.249 E53.44923
G0 F7500 X207.094 Y209.249
G1 F1350 X209.249 Y207.095 E53.55057
G0 F7500 X209.249 Y206.529
G1 F1350 X206.528 Y209.249 E53.67854
G0 F7500 X205.963 Y209.249
G1 F1350 X209.249 Y205.963 E53.8331
G0 F7500 X209.249 Y205.398
G1 F1350 X205.397 Y209.249 E54.01426
G0 F7500 X204.831 Y209.249
G1 F1350 X209.249 Y204.832 E54.22205
G0 F7500 X209.249 Y204.266
G1 F1350 X204.266 Y209.249 E54.45643
G0 F7500 X203.7 Y209.249
G1 F1350 X209.249 Y203.701 E54.71742
G0 F7500 X209.249 Y203.135
G1 F1350 X203.134 Y209.249 E55.00503
G0 F7500 X202.569 Y209.249
G1 F1350 X209.249 Y202.569 E55.31923
G0 F7500 X209.249 Y202.004
G1 F1350 X202.003 Y209.249 E55.66004
G0 F7500 X201.437 Y209.249
G1 F1350 X209.249 Y201.438 E56.02747
G0 F7500 X209.249 Y200.872
G1 F1350 X200.872 Y209.249 E56.4215
G0 F7500 X200.306 Y209.249
G1 F1350 X209.249 Y200.307 E56.84212
G0 F7500 X209.249 Y199.741
G1 F1350 X199.74 Y209.249 E57.28937
G0 F7500 X199.175 Y209.249
G1 F1350 X209.249 Y199.175 E57.76322
G0 F7500 X209.249 Y198.61
G1 F1350 X198.609 Y209.249 E58.26367
G0 F7500 X198.043 Y209.249
G1 F1350 X209.249 Y198.044 E58.79075
G0 F7500 X209.249 Y197.478
G1 F1350 X197.477 Y209.249 E59.34444
G0 F7500 X196.912 Y209.249
G1 F1350 X209.249 Y196.912 E59.92474
G0 F7500 X209.249 Y196.347
G1 F1350 X196.346 Y209.249 E60.53163
G0 F7500 X195.78 Y209.249
G1 F1350 X209.249 Y195.781 E61.16515
G0 F7500 X209.249 Y195.215
G1 F1350 X195.215 Y209.249 E61.82526
G0 F7500 X194.649 Y209.249
G1 F1350 X209.249 Y194.65 E62.51198
G0 F7500 X209.249 Y194.084
G1 F1350 X194.083 Y209.249 E63.22532
G0 F7500 X193.518 Y209.249
G1 F1350 X209.249 Y193.518 E63.96526
G0 F7500 X209.249 Y192.953
G1 F1350 X192.952 Y209.249 E64.73179
G0 F7500 X192.386 Y209.249
G1 F1350 X209.249 Y192.387 E65.52495
G0 F7500 X209.249 Y191.821
G1 F1350 X191.821 Y209.249 E66.34471
