;FLAVOR:Marlin
M73 P0
M117 Time Left 0h37m06s
;TIME:2226
;Filament used: 1.4502m
;Layer height: 0.2
;MINX:96.5
;MINY:96.5
;MINZ:0.2
;MAXX:138.5
;MAXY:138.5
;MAXZ:20
;POSTPROCESSED
;Generated with Cura_SteamEngine 4.8.0
M140 S60
M105
M190 S60
M104 S200
M105
M109 S200
M82 ;absolute extrusion mode
M201 X500.00 Y500.00 Z100.00 E5000.00 ;Setup machine max acceleration
M203 X500.00 Y500.00 Z10.00 E50.00 ;Setup machine max feedrate
M204 P500.00 R1000.00 T500.00 ;Setup Print/Retract/Travel acceleration
M205 X8.00 Y8.00 Z0.40 E5.00 ;Setup Jerk
M220 S100 ;Reset Feedrate
M221 S100 ;Reset Flowrate

G28 ;Home

G92 E0 ;Reset Extruder
G1 Z2.0 F3000 ;Move Z Axis up
G1 X10.1 Y20 Z0.28 F5000.0 ;Move to start position
G1 X10.1 Y200.0 Z0.28 F1500.0 E15 ;Draw the first line
G1 X10.4 Y200.0 Z0.28 F5000.0 ;Move to side a little
G1 X10.4 Y20 Z0.28 F1500.0 E30 ;Draw the second line
G92 E0 ;Reset Extruder
G1 Z2.0 F3000 ;Move Z Axis up
G92 E0
G92 E0
G1 F2700 E-5
;LAYER_COUNT:100
;LAYER:0
M117 Layer 0 of 99 CHEPCalibrationCube
M107
G0 F6000 X99.698 Y99.764 Z0.2
;TYPE:SKIRT
G1 F2700 E0
G1 F1200 X100.386 Y99.127 E0.02963
G1 X101.126 Y98.551 E0.05926
G1 X101.912 Y98.039 E0.0889
G1 X102.739 Y97.597 E0.11852
G1 X103.601 Y97.227 E0.14816
G1 X104.491 Y96.931 E0.1778
G1 X105.403 Y96.713 E0.20743
G1 X106.33 Y96.572 E0.23706
G1 X107.201 Y96.513 E0.26464
G1 X107.522 Y96.504 E0.27479
G1 X107.83 Y96.5 E0.28452
G1 X126.793 Y96.5 E0.8837
G1 X127.649 Y96.511 E0.91075
G1 X128.585 Y96.565 E0.94037
G1 X129.513 Y96.697 E0.96999
G1 X130.427 Y96.909 E0.99963
G1 X131.319 Y97.198 E1.02926
G1 X132.184 Y97.561 E1.0589
G1 X133.014 Y97.997 E1.08852
G1 X133.805 Y98.502 E1.11818
G1 X134.549 Y99.073 E1.14781
G1 X135.242 Y99.705 E1.17745
G1 X135.879 Y100.393 E1.20707
G1 X136.454 Y101.134 E1.23671
G1 X136.965 Y101.92 E1.26633
G1 X137.407 Y102.748 E1.29599
G1 X137.776 Y103.61 E1.32561
G1 X138.071 Y104.5 E1.35524
G1 X138.289 Y105.412 E1.38487
G1 X138.429 Y106.34 E1.41452
G1 X138.487 Y107.201 E1.44179
G1 X138.496 Y107.521 E1.4519
G1 X138.5 Y107.83 E1.46167
G1 X138.499 Y126.9 E2.06423
G1 X138.49 Y127.627 E2.0872
G1 X138.439 Y128.564 E2.11685
G1 X138.307 Y129.492 E2.14647
G1 X138.098 Y130.406 E2.17609
G1 X137.811 Y131.299 E2.20573
G1 X137.449 Y132.165 E2.23539
G1 X137.015 Y132.996 E2.26501
G1 X136.511 Y133.787 E2.29465
G1 X135.942 Y134.532 E2.32427
G1 X135.311 Y135.227 E2.35393
G1 X134.624 Y135.865 E2.38355
G1 X133.885 Y136.442 E2.41317
G1 X133.099 Y136.954 E2.44281
G1 X132.273 Y137.397 E2.47243
G1 X131.411 Y137.769 E2.5021
G1 X130.522 Y138.065 E2.5317
G1 X129.61 Y138.285 E2.56134
G1 X128.683 Y138.426 E2.59097
G1 X127.799 Y138.487 E2.61897
G1 X127.478 Y138.496 E2.62912
G1 X127.17 Y138.5 E2.63885
G1 X108.065 Y138.499 E3.24251
G1 X107.367 Y138.49 E3.26457
G1 X106.431 Y138.438 E3.29419
G1 X105.502 Y138.306 E3.32384
G1 X104.588 Y138.096 E3.35347
G1 X103.695 Y137.809 E3.38311
G1 X102.83 Y137.446 E3.41275
G1 X101.999 Y137.012 E3.44237
G1 X101.208 Y136.508 E3.47201
G1 X100.463 Y135.938 E3.50165
G1 X99.769 Y135.307 E3.53128
G1 X99.132 Y134.62 E3.56089
G1 X98.555 Y133.88 E3.59054
G1 X98.043 Y133.094 E3.62018
G1 X97.6 Y132.267 E3.64982
G1 X97.229 Y131.406 E3.67944
G1 X96.933 Y130.516 E3.70908
G1 X96.714 Y129.604 E3.73871
G1 X96.573 Y128.677 E3.76834
G1 X96.513 Y127.788 E3.7965
G1 X96.504 Y127.455 E3.80702
G1 X96.5 Y127.158 E3.81641
G1 X96.501 Y108.025 E4.42095
G1 X96.51 Y107.36 E4.44197
G1 X96.563 Y106.424 E4.47159
G1 X96.695 Y105.495 E4.50124
G1 X96.906 Y104.581 E4.53088
G1 X97.194 Y103.689 E4.5605
G1 X97.557 Y102.824 E4.59014
G1 X97.992 Y101.993 E4.61977
G1 X98.496 Y101.203 E4.64938
G1 X99.066 Y100.458 E4.67902
G1 X99.698 Y99.764 E4.70868
G0 F6000 X100.089 Y99.939
G1 F1200 X100.774 Y99.323 E4.73779
G1 X101.51 Y98.77 E4.76688
G1 X102.291 Y98.282 E4.79598
G1 X103.111 Y97.864 E4.82506
G1 X103.965 Y97.519 E4.85416
G1 X104.845 Y97.249 E4.88325
G1 X105.745 Y97.057 E4.91232
G1 X106.659 Y96.943 E4.94143
G1 X107.212 Y96.913 E4.95893
G1 X107.533 Y96.904 E4.96907
G1 X107.83 Y96.9 E4.97846
G1 X126.793 Y96.9 E5.57763
G1 X127.643 Y96.911 E5.60449
G1 X128.562 Y96.964 E5.63358
G1 X129.473 Y97.097 E5.66267
G1 X130.369 Y97.308 E5.69175
G1 X131.243 Y97.596 E5.72083
G1 X132.09 Y97.959 E5.74995
G1 X132.901 Y98.394 E5.77903
G1 X133.671 Y98.898 E5.80811
G1 X134.395 Y99.467 E5.8372
G1 X135.067 Y100.097 E5.86631
G1 X135.682 Y100.782 E5.89539
G1 X136.235 Y101.518 E5.92448
G1 X136.722 Y102.299 E5.95356
G1 X137.139 Y103.12 E5.98266
G1 X137.484 Y103.974 E6.01176
G1 X137.753 Y104.854 E6.04084
G1 X137.945 Y105.755 E6.06995
G1 X138.058 Y106.668 E6.09901
G1 X138.087 Y107.212 E6.11623
G1 X138.096 Y107.532 E6.12634
G1 X138.1 Y107.83 E6.13576
G1 X138.099 Y126.895 E6.73816
G1 X138.09 Y127.622 E6.76113
G1 X138.039 Y128.541 E6.79021
G1 X137.908 Y129.453 E6.81933
G1 X137.698 Y130.349 E6.8484
G1 X137.412 Y131.224 E6.87749
G1 X137.051 Y132.071 E6.90658
G1 X136.617 Y132.883 E6.93568
G1 X136.115 Y133.655 E6.96477
G1 X135.547 Y134.38 E6.99387
G1 X134.919 Y135.053 E7.02296
G1 X134.235 Y135.669 E7.05204
G1 X133.5 Y136.223 E7.08112
G1 X132.72 Y136.712 E7.11021
G1 X131.9 Y137.131 E7.13931
M73 P1
G1 X131.047 Y137.477 E7.16839
G1 X130.167 Y137.748 E7.19749
G1 X129.267 Y137.941 E7.22657
G1 X128.353 Y138.056 E7.25568
G1 X127.788 Y138.087 E7.27356
G1 X127.467 Y138.096 E7.28371
G1 X127.17 Y138.1 E7.29309
G1 X108.07 Y138.099 E7.8966
G1 X107.372 Y138.09 E7.91865
G1 X106.453 Y138.038 E7.94774
G1 X105.542 Y137.907 E7.97682
G1 X104.646 Y137.697 E8.0059
G1 X103.771 Y137.41 E8.03499
G1 X102.924 Y137.048 E8.0641
G1 X102.112 Y136.614 E8.09319
G1 X101.341 Y136.112 E8.12226
G1 X100.616 Y135.544 E8.15136
G1 X99.943 Y134.915 E8.18047
G1 X99.328 Y134.231 E8.20953
G1 X98.774 Y133.496 E8.23861
G1 X98.286 Y132.715 E8.26771
G1 X97.867 Y131.895 E8.29681
G1 X97.521 Y131.042 E8.32589
G1 X97.251 Y130.162 E8.35498
G1 X97.058 Y129.261 E8.38409
G1 X96.944 Y128.348 E8.41317
G1 X96.913 Y127.777 E8.43123
G1 X96.904 Y127.444 E8.44176
G1 X96.9 Y127.158 E8.4508
G1 X96.901 Y108.031 E9.05516
G1 X96.91 Y107.366 E9.07617
G1 X96.962 Y106.446 E9.10529
G1 X97.094 Y105.535 E9.13437
G1 X97.305 Y104.639 E9.16346
G1 X97.592 Y103.764 E9.19255
G1 X97.955 Y102.918 E9.22164
G1 X98.389 Y102.106 E9.25073
G1 X98.892 Y101.335 E9.27982
G1 X99.461 Y100.611 E9.30892
G1 X100.089 Y99.939 E9.33798
G0 F6000 X100.481 Y100.117
G1 F1200 X101.162 Y99.524 E9.36651
G1 X101.894 Y98.994 E9.39507
G1 X102.669 Y98.531 E9.42359
G1 X103.482 Y98.138 E9.45212
G1 X104.327 Y97.818 E9.48067
G1 X105.196 Y97.575 E9.50918
G1 X106.084 Y97.409 E9.53773
G1 X107.223 Y97.313 E9.57384
G1 X107.544 Y97.304 E9.58399
G1 X107.83 Y97.3 E9.59303
G1 X126.793 Y97.3 E10.19221
G1 X127.637 Y97.311 E10.21888
G1 X128.539 Y97.364 E10.24743
G1 X129.432 Y97.496 E10.27595
G1 X130.31 Y97.707 E10.30448
G1 X131.166 Y97.995 E10.33302
G1 X131.993 Y98.357 E10.36154
G1 X132.785 Y98.792 E10.39009
G1 X133.536 Y99.294 E10.41864
G1 X134.239 Y99.861 E10.44717
G1 X134.889 Y100.488 E10.47571
G1 X135.481 Y101.17 E10.50424
G1 X136.011 Y101.901 E10.53277
G1 X136.473 Y102.677 E10.56131
G1 X136.866 Y103.49 E10.58984
G1 X137.184 Y104.335 E10.61837
G1 X137.427 Y105.205 E10.64691
G1 X137.592 Y106.093 E10.67545
G1 X137.687 Y107.223 E10.71128
G1 X137.696 Y107.543 E10.7214
G1 X137.7 Y107.83 E10.73047
G1 X137.699 Y126.89 E11.33271
G1 X137.69 Y127.617 E11.35568
G1 X137.639 Y128.519 E11.38423
G1 X137.508 Y129.413 E11.41277
G1 X137.299 Y130.291 E11.44129
G1 X137.013 Y131.148 E11.46984
G1 X136.652 Y131.976 E11.49838
G1 X136.22 Y132.768 E11.52689
G1 X135.719 Y133.52 E11.55544
G1 X135.153 Y134.224 E11.58398
G1 X134.528 Y134.875 E11.61249
G1 X133.847 Y135.469 E11.64105
G1 X133.116 Y136 E11.6696
G1 X132.342 Y136.464 E11.69811
G1 X131.529 Y136.858 E11.72666
G1 X130.685 Y137.178 E11.75518
G1 X129.815 Y137.423 E11.78373
G1 X128.928 Y137.589 E11.81225
G1 X127.777 Y137.687 E11.84875
G1 X127.456 Y137.696 E11.85889
G1 X127.17 Y137.7 E11.86793
G1 X108.075 Y137.699 E12.47128
G1 X107.377 Y137.69 E12.49334
G1 X106.476 Y137.639 E12.52185
G1 X105.582 Y137.507 E12.5504
G1 X104.704 Y137.298 E12.57892
G1 X103.847 Y137.011 E12.60748
G1 X103.02 Y136.65 E12.63599
G1 X102.227 Y136.217 E12.66454
G1 X101.476 Y135.716 E12.69306
G1 X100.772 Y135.15 E12.72161
G1 X100.121 Y134.524 E12.75014
G1 X99.528 Y133.843 E12.77868
G1 X98.998 Y133.112 E12.8072
G1 X98.534 Y132.337 E12.83575
G1 X98.14 Y131.524 E12.86429
G1 X97.82 Y130.68 E12.89281
G1 X97.576 Y129.81 E12.92136
G1 X97.41 Y128.922 E12.94991
G1 X97.313 Y127.767 E12.98653
G1 X97.304 Y127.434 E12.99706
G1 X97.3 Y127.158 E13.00578
G1 X97.301 Y108.036 E13.60998
G1 X97.31 Y107.371 E13.63099
G1 X97.362 Y106.469 E13.65954
G1 X97.494 Y105.576 E13.68806
G1 X97.704 Y104.698 E13.71659
G1 X97.991 Y103.841 E13.74514
G1 X98.353 Y103.014 E13.77367
G1 X98.786 Y102.222 E13.80219
G1 X99.288 Y101.471 E13.83073
G1 X99.855 Y100.767 E13.85929
G1 X100.481 Y100.117 E13.88781
G1 F2700 E8.88781
;MESH:CHEPCalibrationCube.stl
G0 F6000 X107.088 Y107.089
G0 X107.914 Y107.914
G0 X126.318 Y108.682
G0 X126.5 Y126.5
;TYPE:WALL-INNER
G1 F2700 E13.88781
G1 F1200 X108.5 Y126.5 E14.45656
G1 X108.5 Y108.5 E15.0253
G1 X126.5 Y108.5 E15.59405
G1 X126.5 Y126.5 E16.1628
G0 F6000 X126.9 Y126.9
G1 F1200 X108.1 Y126.9 E16.75683
G1 X108.1 Y108.1 E17.35085
G1 X126.9 Y108.1 E17.94488
G1 X126.9 Y126.9 E18.53891
M73 P2
G0 F6000 X127.3 Y127.3
;TYPE:WALL-OUTER
G1 F1200 X107.7 Y127.3 E19.15821
G1 X107.7 Y107.7 E19.77751
G1 X127.3 Y107.7 E20.39682
G1 X127.3 Y127.3 E21.01612
G0 F6000 X127.03 Y127.03
G0 X126.39 Y126.11
G0 X126.11 Y126.11
;TYPE:SKIN
G1 F1200 X108.89 Y126.11 E21.56022
G1 X108.89 Y108.89 E22.10433
G1 X126.11 Y108.89 E22.64843
G1 X126.11 Y126.11 E23.19253
G0 F6000 X126.39 Y126.11
G0 X126.39 Y109.344
G0 X125.749 Y109.344
G1 F1200 X125.654 Y109.25 E23.19675
G1 X125.749 Y109.25 E23.19976
G0 F6000 X125.654 Y109.25
G1 F1200 X125.089 Y109.25 E23.21761
G1 X125.749 Y109.91 E23.2471
G1 X125.749 Y110.476 E23.26498
G1 X124.523 Y109.25 E23.31977
G1 X123.957 Y109.25 E23.33765
G1 X125.749 Y111.041 E23.4177
G1 X125.749 Y111.607 E23.43559
G1 X123.392 Y109.25 E23.54091
G1 X122.826 Y109.25 E23.5588
G1 X125.749 Y112.173 E23.68941
G1 X125.749 Y112.738 E23.70726
G1 X122.26 Y109.25 E23.86315
G1 X121.695 Y109.25 E23.881
G1 X125.749 Y113.304 E24.06215
G1 X125.749 Y113.87 E24.08004
G1 X121.129 Y109.25 E24.28648
G1 X120.563 Y109.25 E24.30437
G1 X125.749 Y114.436 E24.5361
G1 X125.749 Y115.001 E24.55395
G1 X119.998 Y109.25 E24.81094
G1 X119.432 Y109.25 E24.82882
G1 X125.749 Y115.567 E25.1111
G1 X125.749 Y116.133 E25.12898
G1 X118.866 Y109.25 E25.43655
G1 X118.301 Y109.25 E25.4544
G1 X125.749 Y116.698 E25.78722
G1 X125.749 Y117.264 E25.8051
G1 X117.735 Y109.25 E26.16321
G1 X117.169 Y109.25 E26.18109
G1 X125.749 Y117.83 E26.56449
G1 X125.749 Y118.395 E26.58234
G1 X116.604 Y109.25 E26.99099
G1 X116.038 Y109.25 E27.00887
G1 X125.749 Y118.961 E27.44281
G1 X125.749 Y119.527 E27.46069
G1 X115.472 Y109.25 E27.91992
G1 X114.906 Y109.25 E27.9378
G1 X125.749 Y120.092 E28.4223
G1 X125.749 Y120.658 E28.44019
G1 X114.341 Y109.25 E28.94995
G1 X113.775 Y109.25 E28.96784
G1 X125.749 Y121.224 E29.5029
G1 X125.749 Y121.789 E29.52075
G1 X113.209 Y109.25 E30.08108
G1 X112.644 Y109.25 E30.09893
G1 X125.749 Y122.355 E30.68453
G1 X125.749 Y122.921 E30.70241
G1 X112.078 Y109.25 E31.3133
G1 X111.512 Y109.25 E31.33119
G1 X125.749 Y123.487 E31.96737
G1 X125.749 Y124.052 E31.98522
G1 X110.947 Y109.25 E32.64665
G1 X110.381 Y109.25 E32.66453
G1 X125.749 Y124.618 E33.35125
G1 X125.749 Y125.184 E33.36914
G1 X109.815 Y109.25 E34.08115
G1 X109.249 Y109.249 E34.09903
G1 X125.749 Y125.749 E34.83634
G1 X125.184 Y125.749 E34.85419
G1 X109.249 Y109.815 E35.56622
G1 X109.249 Y110.38 E35.58408
G1 X124.618 Y125.749 E36.27084
G1 X124.052 Y125.749 E36.28873
G1 X109.249 Y110.946 E36.9502
G1 X109.249 Y111.512 E36.96808
G1 X123.487 Y125.749 E37.60429
G1 X122.921 Y125.749 E37.62217
G1 X109.249 Y112.077 E38.2331
G1 X109.249 Y112.643 E38.25099
G1 X122.355 Y125.749 E38.83663
G1 X121.789 Y125.749 E38.85452
G1 X109.249 Y113.209 E39.41487
G1 X109.249 Y113.774 E39.43272
G1 X121.224 Y125.749 E39.96782
G1 X120.658 Y125.749 E39.98571
G1 X109.249 Y114.34 E40.49552
G1 X109.249 Y114.906 E40.5134
G1 X120.092 Y125.749 E40.99792
G1 X119.527 Y125.749 E41.01578
G1 X109.249 Y115.471 E41.47505
G1 X109.249 Y116.037 E41.49293
G1 X118.961 Y125.749 E41.92691
G1 X118.395 Y125.749 E41.9448
G1 X109.249 Y116.603 E42.35349
G1 X109.249 Y117.169 E42.37137
G1 X117.83 Y125.749 E42.75479
G1 X117.264 Y125.749 E42.77268
G1 X109.249 Y117.734 E43.13083
G1 X109.249 Y118.3 E43.14871
G1 X116.698 Y125.749 E43.48157
G1 X116.133 Y125.749 E43.49942
G1 X109.249 Y118.866 E43.80701
G1 X109.249 Y119.431 E43.82487
G1 X115.567 Y125.749 E44.10719
G1 X115.001 Y125.749 E44.12507
G1 X109.249 Y119.997 E44.3821
G1 X109.249 Y120.563 E44.39998
G1 X114.436 Y125.749 E44.63174
G1 X113.87 Y125.749 E44.64963
G1 X109.249 Y121.128 E44.85612
G1 X109.249 Y121.694 E44.874
G1 X113.304 Y125.749 E45.0552
G1 X112.738 Y125.749 E45.07308
G1 X109.249 Y122.26 E45.22899
G1 X109.249 Y122.825 E45.24684
G1 X112.173 Y125.749 E45.3775
G1 X111.607 Y125.749 E45.39538
G1 X109.249 Y123.391 E45.50075
G1 X109.249 Y123.957 E45.51863
G1 X111.041 Y125.749 E45.59871
G1 X110.476 Y125.749 E45.61656
G1 X109.249 Y124.522 E45.67139
G1 X109.249 Y125.088 E45.68928
G1 X109.91 Y125.749 E45.71881
G1 X109.344 Y125.749 E45.7367
G1 X109.249 Y125.654 E45.74094
G0 F6000 X109.25 Y125.749
G1 F1200 X109.344 Y125.749 E45.74391
G0 F6000 X109.344 Y126.69
;MESH:NONMESH
G0 F300 X109.344 Y126.69 Z0.4
G0 F6000 X126.5 Y126.5
M117 Time Left 0h35m44s
M73 P3
;TIME_ELAPSED:81.231510
;LAYER:1
M117 Layer 1 of 99 CHEPCalibrationCube
M106 S85
;TYPE:WALL-INNER
;MESH:CHEPCalibrationCube.stl
G1 F1350 X108.5 Y126.5 E46.31266
G1 X108.5 Y108.5 E46.88141
G1 X126.5 Y108.5 E47.45016
G1 X126.5 Y126.5 E48.0189
G0 F7500 X126.9 Y126.9
G1 F1350 X108.1 Y126.9 E48.61293
G1 X108.1 Y108.1 E49.20696
G1 X126.9 Y108.1 E49.80098
G1 X126.9 Y126.9 E50.39501
G0 F7500 X127.3 Y127.3
;TYPE:WALL-OUTER
G1 F1350 X107.7 Y127.3 E51.01431
G1 X107.7 Y107.7 E51.63362
G1 X127.3 Y107.7 E52.25292
G1 X127.3 Y127.3 E52.87222
G0 F7500 X127.03 Y127.03
G0 X126.39 Y126.11
G0 X126.11 Y126.11
;TYPE:SKIN
G1 F1350 X108.89 Y126.11 E53.41633
G1 X108.89 Y108.89 E53.96043
G1 X126.11 Y108.89 E54.50453
G1 X126.11 Y126.11 E55.04863
G0 F7500 X125.749 Y125.749
G1 F1350 X125.749 Y125.414 E55.05922
G1 X125.414 Y125.749 E55.07419
G1 X124.848 Y125.749 E55.09207
G1 X125.749 Y124.848 E55.13233
G1 X125.749 Y124.283 E55.15019
G1 X124.283 Y125.749 E55.21569
G1 X123.717 Y125.749 E55.23358
G1 X125.749 Y123.717 E55.32438
G1 X125.749 Y123.151 E55.34226
G1 X123.151 Y125.749 E55.45835
G1 X122.586 Y125.749 E55.47621
G1 X125.749 Y122.586 E55.61755
G1 X125.749 Y122.02 E55.63543
G1 X122.02 Y125.749 E55.80206
G1 X121.454 Y125.749 E55.81994
G1 X125.749 Y121.454 E56.01187
G1 X125.749 Y120.889 E56.02972
G1 X120.889 Y125.749 E56.24689
G1 X120.323 Y125.749 E56.26477
G1 X125.749 Y120.323 E56.50723
G1 X125.749 Y119.757 E56.52512
G1 X119.757 Y125.749 E56.79287
G1 X119.192 Y125.749 E56.81072
G1 X125.749 Y119.192 E57.10372
G1 X125.749 Y118.626 E57.12161
G1 X118.626 Y125.749 E57.4399
G1 X118.06 Y125.749 E57.45778
G1 X125.749 Y118.06 E57.80137
G1 X125.749 Y117.494 E57.81925
G1 X117.494 Y125.749 E58.18813
G1 X116.929 Y125.749 E58.20598
G1 X125.749 Y116.929 E58.6001
G1 X125.749 Y116.363 E58.61798
G1 X116.363 Y125.749 E59.0374
G1 X115.797 Y125.749 E59.05528
G1 X125.749 Y115.797 E59.49999
G1 X125.749 Y115.232 E59.51784
G1 X115.232 Y125.749 E59.98779
G1 X114.666 Y125.749 E60.00568
G1 X125.749 Y114.666 E60.50092
G1 X125.749 Y114.1 E60.51881
G1 X114.1 Y125.749 E61.03934
G1 X113.535 Y125.749 E61.0572
G1 X125.749 Y113.535 E61.60298
G1 X125.749 Y112.969 E61.62086
G1 X112.969 Y125.749 E62.19194
G1 X112.403 Y125.749 E62.20982
G1 X125.749 Y112.403 E62.80619
G1 X125.749 Y111.838 E62.82404
M73 P4
G1 X111.838 Y125.749 E63.44566
G1 X111.272 Y125.749 E63.46354
G1 X125.749 Y111.272 E64.11045
G1 X125.749 Y110.706 E64.12833
G1 X110.706 Y125.749 E64.80053
G1 X110.141 Y125.749 E64.81838
G1 X125.749 Y110.141 E65.51583
G1 X125.749 Y109.575 E65.53371
G1 X109.575 Y125.749 E66.25645
